P3
# Created by GIMP version 3.2.4 PNM plug-in
320 200
255
35
18
46
35
19
46
34
19
45
37
19
46
46
22
47
39
19
46
39
19
48
51
22
46
53
22
45
58
23
45
62
25
45
70
27
46
70
24
42
74
26
42
79
29
45
82
28
45
76
26
42
77
27
44
85
29
47
81
29
45
78
26
42
82
26
43
86
31
45
83
30
44
80
27
41
80
27
40
92
33
47
87
33
44
81
26
40
86
28
41
94
29
42
89
28
40
87
27
39
91
28
40
95
32
44
96
28
40
87
27
39
94
30
42
104
30
40
110
30
38
110
31
41
109
29
39
111
31
41
108
31
45
111
31
45
109
30
44
106
31
46
109
30
43
109
30
42
114
29
43
115
29
41
113
30
44
112
28
44
112
27
43
113
27
42
113
28
44
116
27
40
114
27
41
111
28
44
110
27
42
115
29
43
111
27
43
113
27
44
111
27
43
117
30
44
115
27
42
114
28
44
120
32
47
114
27
42
115
29
44
118
31
45
118
31
45
114
28
45
119
31
45
119
31
46
117
28
43
121
30
46
123
33
47
121
31
46
121
32
46
116
28
44
123
34
48
122
33
47
123
35
51
113
26
41
117
29
45
120
33
48
119
32
47
123
33
48
124
36
49
126
38
51
125
37
50
126
36
50
134
45
57
140
51
60
136
47
57
141
55
63
151
57
64
156
61
65
163
67
71
168
74
76
169
70
74
163
73
78
163
74
80
172
78
83
182
83
81
184
89
87
176
85
86
184
88
86
183
90
90
166
87
90
166
84
87
146
87
95
138
84
92
141
85
94
134
83
89
130
85
92
130
88
95
127
85
91
127
88
93
126
84
90
126
82
89
131
85
92
133
89
95
126
83
91
126
85
93
126
86
95
125
84
94
133
90
98
132
91
98
128
88
95
124
80
88
130
79
87
127
63
75
124
58
72
129
54
68
129
49
64
127
45
61
130
46
61
134
48
62
125
40
56
132
46
59
124
44
59
128
44
59
129
44
59
131
46
60
129
45
59
131
46
58
129
45
59
133
50
63
133
49
61
127
45
60
130
48
63
129
46
61
126
42
57
131
47
62
129
47
63
122
41
55
134
48
63
136
49
62
133
44
58
140
49
61
132
46
59
130
47
61
131
47
60
129
45
59
130
49
62
129
47
62
125
46
60
127
47
62
130
48
64
121
38
52
133
50
62
126
47
63
122
41
56
136
49
62
132
47
62
124
45
61
131
50
64
126
49
65
120
47
64
124
48
63
115
41
57
122
47
62
122
48
62
116
42
56
120
45
59
121
44
59
111
33
49
122
43
58
118
39
56
110
34
49
117
39
54
112
36
51
115
38
55
117
38
52
119
41
56
116
36
54
118
40
57
121
42
57
112
37
52
114
39
54
106
32
47
105
33
49
103
33
51
106
33
49
108
35
51
101
31
49
105
31
48
105
33
51
109
34
51
103
34
52
104
36
52
105
36
54
106
35
52
100
36
53
95
34
52
104
36
53
106
38
53
101
34
50
101
34
51
97
34
52
101
35
52
98
37
55
98
38
56
95
38
57
93
42
62
92
42
62
94
45
65
97
39
56
97
39
58
94
38
57
89
35
54
97
37
55
95
39
57
95
38
56
97
39
56
93
39
58
94
41
60
91
39
58
94
42
62
94
44
64
97
43
62
96
43
60
95
42
58
95
40
58
94
41
61
94
44
62
97
43
61
93
43
60
87
39
57
83
38
56
83
37
56
77
33
52
78
31
51
85
33
50
90
34
53
79
28
50
78
29
50
81
30
49
79
31
51
76
30
48
72
26
45
74
28
46
76
29
49
72
29
48
74
28
46
73
26
44
74
26
44
72
25
45
73
26
44
75
28
47
72
25
43
75
26
46
71
25
46
72
25
44
75
27
45
72
25
44
73
25
45
73
26
46
69
24
44
69
24
43
73
26
46
72
27
48
69
25
45
69
25
46
68
25
48
69
25
47
69
26
49
68
26
49
68
26
47
68
26
48
69
26
48
70
26
48
66
25
49
67
28
52
67
27
50
62
25
48
62
24
46
61
24
48
59
23
51
56
21
48
58
22
46
58
23
47
59
24
48
52
21
50
44
18
51
45
19
52
49
22
51
44
18
49
37
17
48
37
18
51
36
16
49
32
15
50
32
16
50
40
20
51
33
17
52
28
17
54
28
17
55
27
18
58
37
19
46
41
20
47
38
18
44
46
22
47
63
28
48
54
23
43
55
25
46
68
28
47
65
25
45
65
23
43
66
25
43
73
29
46
72
24
41
78
26
41
82
30
44
85
28
44
78
26
40
80
28
43
88
30
46
88
30
46
82
25
41
86
27
42
88
30
44
85
28
41
82
26
39
85
27
40
92
31
44
89
32
43
84
27
40
88
27
40
96
30
42
92
29
41
86
27
38
90
28
40
94
31
44
94
29
41
99
30
42
97
30
43
98
33
47
95
31
44
92
30
44
96
32
45
102
33
46
100
32
48
94
29
44
110
32
46
112
29
43
113
29
41
113
30
44
112
28
42
106
30
45
111
28
43
109
28
43
108
28
44
114
29
45
111
27
44
118
32
48
114
27
41
111
30
44
113
30
45
111
28
43
118
35
50
116
32
48
111
27
45
115
29
46
116
31
47
116
32
48
116
30
45
113
29
44
120
37
52
114
29
45
118
33
48
116
34
49
118
35
49
116
31
46
115
32
45
118
35
50
120
33
47
117
32
46
125
38
53
126
40
54
119
35
48
121
36
49
121
38
51
109
27
42
113
30
46
116
32
47
117
31
46
118
33
47
121
35
48
124
40
52
126
40
53
125
39
51
131
48
59
135
50
60
126
44
54
140
58
65
145
61
68
148
60
64
158
66
69
172
76
76
168
72
75
170
78
80
168
76
75
174
78
77
178
83
81
175
86
85
177
84
80
168
85
83
170
88
89
184
89
84
193
85
81
172
81
81
168
84
84
155
81
87
151
77
80
155
81
84
140
74
80
135
84
91
135
86
92
127
77
84
138
89
93
135
84
89
135
79
85
140
79
85
135
82
90
132
86
91
137
90
96
133
85
92
137
90
96
138
92
97
128
81
86
136
85
91
138
79
85
126
61
72
129
55
67
129
50
63
126
43
55
129
47
59
131
47
61
123
37
51
133
46
60
126
41
56
129
45
57
131
47
59
129
44
57
131
45
58
138
50
60
128
44
57
133
48
60
135
49
60
125
39
55
132
48
61
130
47
61
125
40
54
131
48
61
129
49
63
124
40
53
136
51
62
133
50
60
130
47
59
135
51
62
131
47
58
131
49
61
136
51
61
129
46
59
130
49
61
132
50
62
129
47
59
130
47
60
131
52
65
125
39
53
138
51
63
136
48
59
129
41
54
141
48
59
137
50
62
131
48
62
133
49
62
135
49
60
137
49
61
136
49
63
122
42
58
126
48
61
128
47
60
126
43
56
132
48
60
132
47
59
117
35
49
123
41
57
122
39
55
118
36
52
118
38
53
118
39
53
117
39
54
114
34
49
116
36
52
118
38
53
117
37
53
113
35
52
111
33
49
108
30
46
104
30
45
113
35
49
113
37
52
104
30
46
108
32
47
102
30
46
104
30
46
104
32
50
109
33
50
100
32
49
103
35
54
104
33
51
100
33
51
99
34
52
99
35
51
102
33
50
102
31
47
102
31
48
104
32
49
99
33
50
102
34
52
100
35
52
100
37
55
95
38
55
99
38
55
98
37
55
98
34
51
98
35
52
98
37
57
95
37
57
95
37
54
98
39
55
95
38
54
96
38
54
97
39
56
93
38
58
94
38
58
92
39
57
95
42
60
95
43
60
95
41
59
98
42
58
96
42
59
96
41
59
85
41
60
90
41
59
87
39
56
91
37
55
96
36
53
98
35
50
97
35
50
88
34
53
96
32
49
108
32
44
108
32
44
104
31
44
82
28
44
85
30
46
90
32
49
85
27
43
85
26
43
84
28
43
77
27
44
79
28
45
79
29
46
77
27
45
78
25
43
79
29
47
77
25
42
77
25
43
75
25
43
78
26
45
76
25
45
77
25
44
77
28
48
75
25
44
79
28
47
79
30
48
79
27
44
78
26
45
79
27
46
79
27
48
75
24
44
77
26
48
78
26
47
79
26
46
77
26
48
78
27
49
78
26
46
78
27
48
76
26
45
79
30
49
77
28
47
79
29
47
75
28
45
74
29
48
71
27
47
73
29
48
73
27
46
71
27
47
69
27
46
68
29
49
69
31
50
75
29
48
73
26
46
71
28
48
65
27
47
63
24
46
61
26
45
57
24
46
58
25
48
57
25
49
55
25
49
56
22
43
62
29
51
48
23
52
31
17
54
31
17
57
57
25
46
52
22
45
51
21
43
55
23
44
57
26
45
58
24
43
59
23
44
66
27
46
65
26
45
61
22
40
72
27
44
74
29
46
76
28
43
79
28
42
82
30
43
85
29
44
79
28
42
84
30
44
89
31
46
89
32
44
82
26
40
88
29
43
98
31
43
98
30
41
101
31
42
103
31
41
106
33
42
104
34
42
101
32
41
101
31
41
100
30
41
91
29
42
88
27
39
102
29
39
106
32
41
98
30
41
93
28
41
93
30
41
95
34
46
90
31
46
92
31
46
95
32
46
99
33
47
100
33
47
88
29
45
106
32
49
108
29
46
108
31
47
113
30
45
114
28
42
107
27
42
113
32
48
112
26
41
120
31
45
117
29
42
117
32
46
113
26
40
123
33
46
116
31
46
112
26
41
115
27
42
122
33
46
121
32
46
117
29
46
122
34
49
117
30
45
125
37
52
118
28
43
126
36
51
124
35
50
125
36
50
122
36
51
123
38
51
123
37
51
129
42
55
123
35
49
132
45
60
134
46
58
128
38
52
133
45
58
132
45
58
124
39
52
130
42
55
126
39
53
121
33
48
126
38
53
121
35
50
122
36
50
121
37
52
122
37
50
126
41
53
134
48
59
126
41
53
129
47
59
132
51
60
129
47
57
137
61
69
136
63
70
139
61
67
154
71
75
158
72
73
170
77
79
180
81
80
183
82
79
187
83
81
186
84
80
182
86
85
181
79
79
173
88
88
163
82
86
184
87
86
186
86
83
172
88
88
175
88
88
164
82
84
162
73
73
165
73
72
159
69
72
157
73
76
148
76
81
145
74
80
150
82
86
145
80
85
144
76
80
155
71
76
157
77
81
150
87
91
147
89
94
141
85
90
147
89
92
149
89
93
144
84
87
146
88
90
142
80
85
137
67
75
141
58
66
144
56
66
134
47
59
141
51
61
141
50
62
137
46
55
144
50
58
135
50
60
135
51
62
133
48
61
137
49
61
140
51
62
133
48
60
131
48
61
135
52
63
135
48
60
131
46
61
134
49
63
131
48
62
132
48
61
133
51
64
132
52
64
128
48
60
134
52
65
134
53
64
131
52
64
124
49
61
132
51
64
136
54
66
129
48
59
133
53
67
133
54
65
125
45
58
134
54
65
135
51
62
133
47
59
136
48
60
148
47
56
155
49
58
143
45
55
143
44
55
136
46
58
134
49
62
131
44
55
152
52
60
159
49
55
144
42
50
142
51
64
136
51
63
126
41
55
137
49
61
139
46
56
142
39
48
144
43
53
135
40
52
139
41
54
131
37
51
122
34
49
122
38
53
118
36
52
109
28
44
117
37
53
116
34
48
111
28
45
111
30
47
112
32
48
109
29
44
111
28
44
107
29
47
104
28
43
111
32
47
117
39
52
102
29
45
106
30
45
114
41
55
106
33
49
102
34
51
106
37
54
100
36
53
98
37
55
104
38
55
100
33
50
102
34
50
103
31
47
102
31
48
109
31
48
108
32
47
102
34
52
101
35
52
106
34
51
103
34
51
102
33
50
109
33
49
106
29
45
109
32
48
108
33
49
105
33
49
105
35
49
100
35
51
99
34
49
101
33
49
103
33
48
103
33
49
105
34
49
100
34
50
95
37
54
99
37
54
105
36
51
105
36
51
97
35
50
89
34
51
94
39
58
90
37
55
92
36
55
97
37
52
101
36
49
106
34
46
106
34
48
107
32
46
94
28
45
110
32
44
111
33
44
111
33
44
108
33
44
104
31
44
106
30
42
99
30
44
95
30
45
99
33
48
90
31
47
84
29
44
88
30
45
86
28
46
84
28
45
94
30
45
101
30
41
102
30
41
101
29
42
103
31
44
102
31
44
101
32
44
100
32
44
103
31
43
100
32
45
83
27
45
88
29
47
95
31
47
101
32
44
103
34
47
101
31
46
103
34
50
104
33
48
105
33
48
99
32
49
103
33
48
102
32
46
87
30
49
85
30
49
89
32
50
88
32
49
81
30
47
83
33
51
84
34
53
74
29
49
71
26
47
72
27
48
72
29
51
68
30
50
65
28
49
66
28
48
76
30
48
68
26
45
67
26
47
64
26
46
65
27
48
60
24
44
58
24
45
58
26
46
56
24
46
58
26
47
60
24
45
61
26
48
56
25
49
39
19
51
31
17
53
59
24
44
60
26
44
65
28
45
61
24
42
67
27
45
70
26
44
71
27
45
72
28
44
76
28
42
75
27
42
81
30
45
79
30
45
78
27
41
82
28
41
86
31
44
87
30
43
80
28
40
85
30
43
91
31
45
92
32
44
86
28
40
92
29
41
103
31
42
106
31
40
108
32
40
106
31
38
110
32
39
113
31
38
110
31
37
101
29
39
106
31
41
99
32
44
90
29
41
103
29
39
104
31
41
95
29
40
94
30
42
98
30
43
101
34
45
98
34
48
93
32
47
103
32
48
105
33
49
102
32
50
102
32
51
107
32
51
104
31
50
106
31
50
106
29
45
113
28
45
113
27
43
112
28
44
111
27
43
115
29
45
120
30
44
115
28
43
113
29
44
119
34
48
118
33
46
115
30
45
115
29
44
123
37
52
123
36
50
118
32
47
124
37
52
123
37
51
122
37
52
123
37
51
124
37
53
127
39
54
130
41
54
121
35
50
130
42
56
128
41
54
124
37
51
129
41
54
130
43
57
128
40
54
132
44
57
129
40
54
132
45
58
136
50
62
128
44
55
132
46
60
131
43
56
121
34
50
124
37
51
129
38
53
120
32
47
127
39
51
129
42
54
128
40
52
131
47
57
132
51
61
137
59
66
135
61
67
134
64
70
138
68
75
145
70
75
148
71
74
156
75
76
163
77
78
165
78
79
163
77
77
178
84
83
185
86
82
187
87
82
184
82
79
184
93
92
173
78
77
177
84
87
157
76
80
159
77
79
161
78
78
159
76
78
155
71
71
155
70
71
168
71
72
167
63
64
159
62
65
167
66
69
164
60
61
167
62
63
177
66
65
183
62
58
186
62
57
176
69
67
159
69
71
157
74
76
157
72
74
152
67
69
155
74
76
165
70
69
167
58
57
178
62
64
170
49
50
167
49
51
167
52
57
158
45
50
150
44
52
155
46
53
147
37
45
148
46
54
145
47
56
134
37
49
144
48
56
140
48
58
131
40
52
137
49
62
136
49
60
129
40
53
133
48
61
129
45
57
126
43
57
134
51
62
130
46
58
131
50
62
130
49
62
124
42
56
129
48
61
129
50
65
118
41
56
127
46
60
131
50
64
119
37
51
132
51
64
131
54
66
120
41
55
132
53
66
132
49
61
129
44
57
146
51
60
146
43
50
147
46
56
150
46
55
144
40
49
137
45
56
136
49
63
137
40
50
157
46
53
160
49
55
150
41
47
149
48
56
137
51
64
124
41
55
137
50
63
142
42
54
145
38
49
152
45
55
146
39
50
148
41
53
145
40
53
139
38
50
135
40
53
125
39
55
115
31
47
116
34
50
115
33
48
114
29
47
115
30
46
113
30
45
116
34
48
121
40
54
108
33
49
119
40
53
121
44
57
111
30
46
105
28
45
106
30
45
112
38
52
105
31
48
113
41
57
119
47
63
120
47
62
123
42
55
114
39
54
110
38
54
108
35
51
113
38
52
106
34
50
119
41
57
110
32
48
106
34
49
116
40
55
106
31
47
102
32
49
113
42
58
110
34
49
109
34
51
111
35
51
111
34
50
108
32
47
105
31
47
101
31
48
109
32
45
122
36
46
119
30
43
117
33
46
118
32
45
112
29
45
111
30
48
113
30
48
118
31
45
120
33
46
106
32
46
103
33
48
100
35
52
102
34
49
105
34
49
105
33
47
104
33
46
105
33
44
110
33
45
113
31
41
114
31
43
108
30
43
110
32
44
111
31
41
110
31
42
108
31
43
109
29
40
111
30
41
108
30
42
106
28
40
104
29
41
104
30
42
104
29
42
105
29
43
100
28
40
106
29
40
109
31
42
107
30
40
108
30
38
109
30
40
104
30
41
103
31
43
97
30
44
103
32
43
105
32
43
100
31
45
102
32
46
104
32
44
105
35
47
103
33
47
92
30
48
101
32
48
103
34
48
104
34
48
102
33
50
101
34
49
100
33
48
101
35
51
100
34
49
98
33
49
100
34
49
102
34
48
100
34
49
95
33
50
82
29
48
94
29
46
82
27
46
79
29
51
74
29
49
76
28
48
83
30
47
86
31
49
75
28
48
77
29
47
73
28
45
71
29
49
65
25
45
65
24
45
66
26
46
65
27
47
60
24
45
65
26
45
64
27
47
62
26
47
59
27
47
54
26
47
59
23
44
56
23
43
58
27
45
65
26
43
67
27
44
69
27
43
72
27
45
76
28
44
78
28
42
79
27
42
85
30
44
83
29
43
82
28
41
84
28
40
88
31
43
90
31
44
84
28
40
88
31
43
92
31
44
94
33
43
90
28
41
100
31
42
106
33
40
108
33
40
107
31
37
106
33
40
112
33
40
117
33
38
110
31
39
105
30
40
104
31
42
108
32
42
108
32
40
109
31
40
110
31
39
106
30
40
100
30
43
95
30
41
97
33
44
94
33
46
97
33
49
103
31
48
105
34
51
103
32
50
98
31
51
104
31
51
103
31
52
104
32
52
108
33
51
106
31
50
106
31
48
117
34
49
111
26
41
116
31
46
120
31
45
112
26
42
117
31
46
116
30
44
115
30
45
119
33
48
113
28
43
117
30
46
123
36
50
118
31
45
120
34
50
119
34
50
119
33
49
123
36
52
119
32
49
127
41
56
129
42
57
121
34
50
129
41
55
127
40
54
125
37
52
129
41
55
128
41
55
126
38
53
129
41
56
129
41
55
130
44
57
133
49
62
126
40
53
133
48
63
127
41
56
121
37
52
128
43
58
128
43
57
119
34
49
128
43
56
126
42
55
121
37
51
129
47
58
133
54
64
130
57
64
134
62
71
130
61
70
133
67
73
139
77
81
124
66
69
142
86
88
144
87
89
144
83
85
159
93
93
162
91
89
168
91
90
183
94
90
179
85
82
179
91
89
178
91
90
173
84
83
161
86
86
161
87
87
157
79
79
169
83
83
162
78
75
162
72
71
179
79
76
169
67
63
180
69
64
192
71
65
185
64
57
188
65
57
200
67
57
197
57
47
204
59
47
207
61
50
192
56
48
194
63
53
193
60
49
187
59
49
195
63
50
193
56
44
190
52
42
197
55
48
186
47
39
191
49
41
190
50
44
170
44
40
169
48
47
164
44
45
156
40
43
154
44
51
153
44
52
141
35
47
155
48
53
156
48
54
147
42
49
149
47
57
143
50
61
137
45
56
138
47
60
132
48
58
133
49
61
133
49
61
132
50
61
132
53
64
130
50
60
131
52
64
131
54
65
128
51
65
125
47
60
127
46
60
130
49
63
132
46
57
131
47
60
131
52
64
130
50
63
130
51
63
133
52
64
137
53
64
135
47
58
139
47
58
138
49
60
136
43
54
143
49
59
137
51
64
138
51
63
143
46
55
154
50
59
156
52
58
156
53
58
136
51
63
135
55
67
130
50
63
129
47
60
135
43
55
137
43
56
131
38
51
135
38
51
139
40
51
141
38
49
143
37
48
134
38
50
124
36
51
116
30
46
112
29
46
112
31
49
114
30
48
109
27
45
111
27
44
112
29
46
118
32
47
107
29
47
112
31
47
116
36
51
114
31
46
111
28
44
106
30
47
106
29
47
107
32
49
112
37
54
120
47
64
117
42
58
118
38
54
121
44
58
120
44
60
115
37
53
122
36
50
130
43
55
126
41
54
122
42
57
116
39
54
124
43
57
117
39
53
113
35
51
125
44
58
120
34
48
134
44
55
125
35
46
118
34
48
115
33
48
111
31
46
117
30
43
138
37
42
148
42
44
135
31
39
135
40
48
129
37
47
119
30
43
121
33
46
111
29
46
114
32
47
123
34
47
109
31
46
105
34
49
100
34
49
103
33
48
108
32
45
109
32
45
102
31
44
104
31
45
111
30
43
119
28
39
116
28
41
102
28
41
117
31
43
113
30
41
110
32
43
108
31
42
114
29
39
120
29
38
112
28
39
113
28
40
116
28
38
117
29
38
118
30
41
119
31
43
123
32
42
124
37
48
121
34
43
118
31
42
113
30
40
122
32
42
114
27
37
114
30
41
114
28
39
111
28
39
123
38
47
110
29
40
108
29
41
111
30
42
112
31
44
107
30
44
108
31
47
105
31
46
106
32
46
110
32
47
115
40
55
99
34
50
107
38
53
105
35
49
100
34
48
103
34
50
100
35
50
103
37
52
106
37
53
101
37
52
99
36
51
106
34
48
97
35
51
82
30
48
86
30
49
85
31
49
93
33
48
93
34
49
85
32
48
94
34
47
83
29
44
75
30
49
72
28
48
72
28
47
76
30
49
67
28
47
68
28
46
75
31
49
72
29
48
68
29
48
62
28
48
62
31
49
60
23
43
63
26
44
66
28
47
69
27
44
70
25
43
72
25
43
78
30
46
79
30
44
76
27
43
77
27
41
85
29
43
84
30
45
81
28
41
83
27
40
88
30
41
92
30
42
86
28
40
88
30
43
92
32
44
94
32
43
90
28
41
95
29
41
99
32
42
96
29
40
96
28
39
97
29
39
103
30
40
110
29
37
109
27
35
107
29
40
107
28
40
113
28
37
113
28
37
113
28
38
112
26
36
113
28
37
110
29
39
100
28
40
102
31
43
102
33
46
93
31
46
98
31
48
102
31
47
104
30
48
100
31
51
107
31
50
106
29
48
103
30
51
101
30
51
102
30
50
103
30
50
107
30
47
109
28
44
112
28
45
115
30
45
112
27
42
111
29
44
113
31
45
118
33
47
121
33
48
118
30
42
124
39
52
125
39
54
120
35
49
124
38
53
126
37
51
129
41
55
127
41
56
127
40
55
129
43
58
129
43
57
128
42
56
131
48
62
131
47
61
132
46
60
126
40
54
132
47
61
133
46
59
132
45
59
133
48
61
135
52
64
131
49
62
133
50
59
134
55
68
132
53
65
131
50
61
129
50
63
129
48
60
125
42
56
128
44
58
127
44
57
129
45
57
125
47
59
131
63
73
133
69
76
132
69
76
133
75
80
132
77
82
130
78
84
124
75
79
133
86
90
131
86
90
130
87
90
133
92
95
132
91
94
131
89
91
134
92
94
134
87
89
135
88
90
132
86
90
136
85
89
140
86
89
142
86
89
143
86
89
141
82
83
148
81
82
148
74
75
150
72
73
158
69
67
162
68
65
165
66
64
173
69
62
177
61
54
184
63
55
187
62
52
187
57
46
190
56
45
196
59
45
198
58
43
200
58
41
203
59
42
203
55
38
208
58
42
202
52
38
200
46
35
204
48
36
201
49
35
186
47
38
178
44
38
180
44
41
174
41
38
175
44
44
168
40
42
166
40
42
168
43
45
174
43
41
177
43
39
170
47
46
156
44
47
158
48
51
154
49
55
139
47
57
139
48
56
137
48
59
128
44
56
131
49
61
131
50
64
119
39
53
130
51
66
129
52
65
120
42
57
125
49
63
126
45
58
121
40
54
129
46
59
128
44
57
128
46
59
132
48
61
122
43
56
130
51
62
135
51
65
120
38
52
132
52
66
129
54
67
119
45
57
127
56
68
127
56
68
120
52
65
126
67
75
124
65
73
129
69
76
131
74
80
118
55
66
124
63
75
123
61
73
113
46
58
122
53
66
124
51
66
115
36
51
128
50
64
125
47
60
127
46
58
132
49
61
131
45
56
123
40
55
118
36
51
114
35
51
116
36
52
118
36
53
113
32
47
117
32
50
120
35
51
118
31
45
116
32
49
113
30
45
116
33
46
118
34
48
110
30
46
105
29
47
114
35
53
111
34
51
116
37
53
119
37
52
120
38
52
119
35
49
118
35
50
116
34
49
122
36
50
143
42
49
144
42
47
133
34
41
136
41
48
136
40
44
137
37
41
137
38
44
139
39
46
136
36
42
143
38
42
147
43
47
142
34
37
141
40
44
135
37
43
128
32
40
143
39
42
156
39
35
160
40
36
158
42
38
151
40
41
140
36
41
135
37
44
127
31
41
119
34
48
112
33
49
117
31
45
117
32
46
112
31
46
106
30
45
108
31
46
115
33
47
114
30
43
120
35
46
119
32
45
125
34
46
129
29
41
121
32
45
122
32
45
117
27
40
111
29
42
110
29
44
132
35
47
133
34
45
137
36
48
133
41
54
131
39
51
133
38
50
139
44
56
133
42
54
124
39
53
135
48
61
135
47
60
125
40
51
127
43
57
130
48
61
134
43
55
133
41
51
128
42
54
116
30
42
120
32
43
120
33
43
124
42
53
112
30
40
112
32
42
113
33
46
116
34
47
111
29
43
108
31
45
108
31
45
108
30
44
114
39
52
104
35
52
116
45
63
117
46
62
99
34
48
111
35
51
107
34
50
105
37
54
100
37
55
103
35
53
97
32
49
92
30
48
89
32
51
94
34
51
87
29
46
96
33
48
93
33
46
99
36
50
96
35
48
92
33
47
87
33
49
83
31
50
81
31
48
74
28
47
74
29
48
77
32
50
70
27
45
69
27
44
70
29
46
70
30
49
67
27
49
58
28
47
70
27
46
69
26
44
70
26
45
75
29
47
77
27
44
77
26
42
81
30
46
82
29
45
79
27
42
79
27
42
88
30
44
87
31
45
83
28
41
84
28
40
90
31
43
95
31
43
88
28
41
91
30
42
94
32
44
97
34
45
91
29
41
98
32
45
102
34
47
99
31
45
97
28
42
97
28
41
101
33
47
106
31
41
112
29
37
104
28
38
111
28
37
115
28
38
111
27
37
110
27
39
110
26
38
114
27
37
115
27
36
112
26
37
111
28
38
111
29
42
104
29
44
107
31
47
109
31
45
106
28
42
110
28
44
107
28
45
107
28
45
106
29
47
107
31
50
107
29
48
109
30
48
110
31
48
108
28
45
113
30
46
111
27
42
113
28
44
107
27
44
116
30
46
113
29
43
112
28
44
118
30
44
116
31
45
120
35
49
123
37
52
115
29
45
125
37
50
121
36
50
115
29
45
127
38
51
124
37
52
126
38
53
126
40
55
122
39
54
128
42
57
129
43
57
119
34
49
128
44
57
127
41
53
120
35
48
128
44
57
130
48
60
125
42
54
133
52
62
132
53
63
126
45
55
136
55
65
128
52
62
127
52
62
127
51
62
120
47
59
124
50
62
128
54
64
114
48
58
127
68
75
127
67
74
116
56
64
129
77
81
128
76
81
119
68
72
128
81
83
123
78
82
122
76
81
135
90
92
122
78
82
133
89
92
135
90
93
121
76
81
136
91
94
135
88
92
125
77
81
139
90
93
135
79
83
133
77
81
142
86
89
132
70
73
145
76
79
147
75
77
137
60
63
151
70
71
153
71
70
148
60
62
163
70
67
165
66
63
166
59
55
180
62
56
177
56
50
175
55
48
184
60
52
178
53
45
179
52
45
184
56
46
189
51
38
201
50
35
203
50
36
203
47
34
202
50
36
195
46
35
191
42
33
186
46
39
178
44
37
181
45
37
195
48
38
191
43
35
197
46
35
200
49
38
187
44
36
182
45
38
177
49
44
162
42
41
167
49
48
164
53
53
146
43
51
149
49
54
144
49
59
134
46
57
136
50
61
132
51
65
123
44
57
135
56
69
130
52
65
126
47
62
131
53
65
132
49
63
127
46
60
127
46
60
133
49
62
135
50
63
132
48
61
134
50
63
132
50
64
131
51
64
129
50
61
131
56
68
126
60
73
129
64
76
130
61
73
123
66
75
118
67
77
119
74
81
124
80
87
122
77
85
117
70
78
125
74
85
125
73
83
117
61
72
124
61
74
120
55
68
122
56
70
122
51
64
125
56
69
121
51
64
122
49
62
120
45
58
124
48
62
123
47
61
121
43
57
123
46
60
122
44
59
125
42
58
123
40
55
120
36
52
118
33
50
122
35
50
117
33
48
111
32
48
116
34
48
121
38
52
114
34
48
125
43
57
136
44
54
133
42
54
126
38
53
125
36
51
131
41
55
126
38
53
121
38
53
137
47
57
140
43
51
149
42
46
151
45
46
154
44
40
155
44
42
157
46
42
147
38
36
154
43
40
160
45
39
154
40
36
160
45
38
161
45
42
153
37
34
156
44
42
153
45
43
151
39
38
158
42
38
161
42
35
165
43
35
170
46
39
159
41
36
156
41
38
156
43
42
138
34
40
124
36
48
119
36
50
125
34
47
126
37
50
126
35
48
122
29
42
135
36
46
137
37
47
128
32
43
137
35
47
128
31
46
127
35
48
143
38
48
122
28
41
130
38
50
135
37
47
133
34
44
137
37
50
144
46
59
136
45
58
141
50
61
137
52
65
122
40
53
135
52
65
125
51
65
126
55
68
126
58
71
123
56
70
116
50
62
127
56
69
123
54
69
120
53
67
127
50
63
132
62
73
113
50
64
102
40
54
111
45
59
113
36
48
109
32
44
109
31
43
110
32
43
106
32
46
120
44
57
109
37
52
114
45
60
118
46
59
105
32
46
113
43
57
90
37
56
96
36
53
112
43
58
120
45
60
109
33
51
103
36
55
110
33
48
118
41
57
108
36
54
99
35
55
90
36
57
101
36
54
107
36
53
102
32
46
111
33
46
105
34
50
102
36
54
88
34
53
89
33
49
99
36
53
103
34
50
101
33
48
98
31
46
100
33
47
97
34
49
95
33
49
87
30
45
81
31
47
78
32
50
81
32
51
71
31
49
75
26
44
74
26
44
78
28
45
78
29
44
82
27
42
82
27
43
85
30
45
87
29
43
83
28
41
84
27
43
91
29
43
91
31
44
87
27
40
91
29
41
96
32
42
96
31
42
91
28
38
93
31
41
98
33
43
99
33
43
91
29
40
104
31
41
104
33
44
98
29
41
104
29
40
106
30
40
107
32
43
106
31
39
105
29
37
105
30
39
110
30
39
110
27
36
113
27
37
112
27
37
113
27
37
113
26
38
115
27
38
113
27
39
113
27
40
113
28
41
114
27
40
115
28
40
112
27
41
115
27
41
115
28
40
112
27
41
111
27
43
114
30
45
109
28
44
114
28
45
112
29
47
109
29
47
106
28
47
110
31
51
107
28
45
112
27
44
115
28
45
113
28
45
117
30
46
117
31
47
124
35
50
118
32
47
119
33
47
122
33
49
120
32
48
127
36
51
122
34
50
123
36
52
124
34
48
130
41
56
132
44
57
127
40
54
129
44
58
130
44
58
128
43
57
130
43
56
129
44
58
130
44
57
129
43
56
132
46
59
134
52
64
131
50
64
134
51
62
136
55
66
135
58
67
136
62
71
137
65
73
135
66
74
132
62
71
131
61
69
133
63
72
130
63
71
126
64
73
128
67
76
129
69
77
124
68
76
131
77
81
131
79
84
130
79
85
129
77
82
131
82
87
132
85
88
135
87
90
131
84
87
140
92
94
141
89
93
137
83
88
143
77
80
146
88
91
140
84
88
137
77
81
143
84
86
146
83
86
144
73
76
148
77
79
154
79
82
149
72
73
151
70
71
157
71
71
160
72
72
161
70
69
165
71
67
166
68
66
172
66
62
176
56
48
186
61
53
182
59
52
174
48
44
181
56
49
181
53
47
179
49
42
186
50
41
188
49
39
188
46
36
194
47
37
197
46
33
202
47
35
205
47
34
202
48
35
197
45
34
199
47
34
202
49
35
202
47
33
201
48
34
196
44
32
189
48
37
181
47
41
173
44
39
171
46
43
173
51
48
167
49
46
164
49
49
160
49
48
153
48
52
149
52
58
141
47
54
140
51
60
136
50
62
129
45
59
129
48
60
133
54
66
120
44
57
124
50
64
127
48
61
120
40
53
129
50
63
130
50
63
122
38
52
133
50
64
127
50
63
125
47
60
132
56
68
121
48
62
124
54
67
126
59
72
119
59
71
119
70
78
124
81
88
108
70
77
120
83
88
122
81
87
111
68
75
121
76
83
120
73
81
111
57
70
125
66
78
118
55
67
122
54
67
126
57
70
116
47
61
121
50
62
124
51
64
115
43
59
125
52
65
129
56
70
117
44
58
129
57
73
127
54
68
121
44
59
122
48
64
122
42
58
114
33
51
115
33
50
112
31
47
119
37
53
118
35
50
113
32
48
120
36
51
129
42
56
129
40
53
129
41
53
139
43
50
132
37
46
137
44
55
141
45
55
132
36
45
147
46
50
146
43
48
146
39
39
161
45
41
168
47
39
164
44
37
163
48
40
167
50
43
168
49
40
169
49
41
166
47
40
166
46
38
166
46
39
169
46
40
164
44
39
163
46
40
162
45
39
160
44
38
164
46
40
171
50
41
167
46
39
172
48
40
169
46
38
165
44
38
165
46
42
151
40
43
139
40
49
139
38
48
137
37
47
146
40
48
145
38
45
145
37
45
144
39
48
137
39
50
139
39
50
146
44
56
151
51
62
149
47
56
135
45
58
147
53
63
145
41
51
140
44
55
140
43
56
144
46
58
126
40
52
130
52
64
130
58
71
119
49
62
128
58
70
122
56
69
125
60
73
124
65
75
108
54
65
116
65
76
123
70
80
105
56
69
120
70
80
126
67
78
110
56
67
112
61
72
113
60
72
101
51
65
106
52
66
104
37
49
107
32
44
107
35
48
106
33
44
117
42
56
122
54
68
101
44
59
116
48
62
123
49
61
113
41
55
96
40
56
96
39
56
101
37
52
121
51
65
116
44
59
107
41
58
124
52
66
114
39
54
107
32
48
101
33
51
94
37
56
98
37
54
112
38
53
108
35
49
112
33
46
113
33
47
110
31
46
97
32
50
98
36
52
104
35
53
106
33
48
108
33
47
107
32
45
110
31
44
104
32
45
95
31
45
91
31
45
86
33
47
82
33
50
77
30
47
70
32
46
81
29
46
76
26
43
81
30
45
84
31
46
83
28
42
81
27
42
84
29
44
87
30
43
84
28
41
86
28
41
90
30
42
90
31
43
88
29
40
93
30
42
96
30
40
97
30
41
91
29
39
92
30
41
98
32
42
101
31
40
94
28
40
105
29
36
103
31
40
101
29
40
111
29
37
114
29
38
114
29
38
112
28
37
107
28
37
104
29
41
109
29
40
107
29
39
111
27
38
112
26
38
111
27
37
115
27
39
111
25
37
110
27
40
111
28
42
110
30
44
111
27
40
113
27
39
116
28
40
112
27
40
113
27
41
110
26
42
111
27
43
114
26
41
109
27
41
114
28
43
115
27
42
114
26
41
111
26
42
113
29
45
110
27
42
118
30
45
118
27
43
113
28
45
116
30
46
111
30
47
112
26
42
116
29
45
112
28
44
112
27
44
121
33
49
115
27
43
120
32
48
128
40
54
117
27
43
120
34
50
124
37
53
116
30
46
125
40
55
125
40
54
123
38
53
128
42
56
124
41
56
124
39
55
132
46
60
125
41
56
129
45
58
134
52
66
125
42
55
135
54
66
136
58
70
126
50
60
134
60
69
137
64
73
124
52
62
134
61
70
131
62
71
124
57
66
134
67
75
128
65
73
127
67
74
135
77
82
127
71
77
132
76
81
135
80
87
120
65
71
135
81
87
134
80
84
126
69
74
139
81
86
135
79
84
131
68
75
149
76
80
142
63
67
149
66
69
148
75
79
130
60
67
144
73
78
148
72
74
138
62
65
155
70
72
150
65
69
145
64
66
158
74
74
153
62
62
158
64
62
164
67
67
158
58
56
165
61
59
174
64
60
171
52
45
186
58
50
184
56
48
170
45
42
181
53
47
180
51
44
172
45
39
180
50
43
176
47
42
174
44
38
183
49
42
183
46
37
185
45
35
192
52
40
181
44
33
189
48
36
190
51
38
183
45
34
189
47
36
187
48
38
175
40
32
181
47
39
179
47
40
169
42
36
179
50
44
174
47
42
172
50
45
173
53
49
168
49
46
162
48
47
161
59
59
147
50
51
156
58
61
145
53
59
139
51
60
141
53
61
138
52
61
128
51
63
137
61
73
129
48
60
129
49
61
132
53
65
133
52
63
129
46
59
131
54
64
131
53
65
133
55
68
128
52
62
135
60
71
133
58
69
126
54
66
124
61
73
130
76
86
124
70
81
125
80
89
124
77
87
122
71
81
123
72
82
121
68
78
126
72
81
124
67
78
123
63
74
127
63
76
125
60
73
125
58
70
127
57
71
130
58
70
124
53
66
124
55
68
130
58
70
131
60
73
126
53
68
130
59
73
127
55
69
128
55
69
122
49
63
131
56
70
123
46
63
118
43
59
116
42
58
116
41
59
117
43
58
124
45
60
130
48
64
129
46
61
136
51
63
138
52
64
146
52
60
148
51
57
146
54
63
150
54
62
148
48
56
151
49
55
152
49
53
158
49
49
156
44
43
168
52
47
160
49
46
160
50
46
169
54
49
164
50
46
160
49
47
169
56
50
164
50
45
162
48
46
164
53
55
154
48
52
153
50
57
149
51
60
145
47
57
150
50
58
154
57
65
147
48
53
170
59
62
165
49
50
167
50
50
178
60
58
167
48
50
155
43
50
156
46
51
150
42
50
143
42
52
139
44
58
138
49
63
140
53
65
137
63
76
134
56
69
145
66
78
145
66
76
135
59
69
145
71
82
137
63
74
136
59
71
148
62
72
144
59
71
139
61
73
128
60
70
129
72
83
133
75
83
125
69
79
116
70
79
125
78
86
123
75
84
120
77
84
120
78
85
126
86
93
120
81
88
114
77
85
122
85
91
126
86
94
119
78
87
123
83
90
125
83
91
110
72
81
98
57
67
105
43
54
109
35
48
124
54
66
119
46
58
119
50
66
115
54
67
99
52
65
121
63
77
112
49
62
112
47
59
103
42
56
112
44
57
113
43
58
112
38
53
112
43
58
105
40
57
109
39
54
104
33
48
102
35
50
99
36
54
102
37
53
111
36
50
115
34
48
112
32
46
111
30
46
111
33
49
109
34
50
107
37
54
104
39
57
102
36
53
99
34
52
96
34
52
101
34
51
109
34
48
103
32
45
94
33
47
89
33
46
90
34
47
82
32
48
81
31
48
77
33
47
79
28
45
77
27
43
84
31
46
84
32
47
82
28
42
82
26
42
85
30
45
87
30
44
84
28
41
85
28
41
91
31
44
89
30
43
86
29
40
89
29
41
98
32
43
97
30
41
96
28
37
95
29
38
106
31
40
109
30
38
100
27
38
108
28
37
107
29
39
105
27
39
110
28
38
113
27
38
112
28
39
112
27
39
115
27
38
111
28
41
105
27
40
101
27
39
107
27
40
112
27
40
104
26
40
109
29
42
113
29
42
111
28
42
112
27
42
109
28
44
110
28
43
113
25
37
114
27
39
110
27
41
109
26
41
110
26
41
108
25
40
112
27
42
107
27
43
113
28
42
113
28
43
120
31
45
122
30
44
115
27
43
114
29
44
121
31
45
121
31
45
113
27
43
115
30
44
113
31
48
118
30
44
118
31
46
114
28
43
126
37
52
115
27
43
121
34
49
123
38
53
120
32
48
121
33
48
124
38
53
126
38
52
124
35
51
124
37
53
127
39
53
127
40
55
125
37
51
134
47
61
132
43
57
130
40
55
129
43
56
129
44
56
131
43
57
133
46
57
135
50
63
132
48
60
130
48
59
134
53
64
135
57
67
131
52
63
134
60
68
136
62
71
132
60
68
133
60
68
137
68
75
138
72
77
138
70
76
130
70
76
134
73
78
135
71
77
129
67
71
140
76
81
138
70
76
134
69
74
138
73
78
141
76
79
143
69
72
149
63
65
152
63
63
152
65
67
154
61
62
153
63
64
156
69
70
154
68
68
151
67
69
155
65
66
161
67
67
160
67
67
161
67
66
162
68
67
166
68
65
168
60
56
172
61
55
176
61
54
183
56
48
181
52
45
181
52
47
191
52
42
195
51
43
187
50
42
176
47
43
176
48
43
173
44
40
175
49
45
173
46
41
171
43
41
171
45
41
174
46
42
174
43
40
176
45
38
176
46
41
174
45
40
174
44
39
174
46
41
174
44
40
173
42
39
174
46
40
173
45
42
178
48
41
177
45
40
184
51
43
183
51
43
174
46
41
175
54
48
171
55
51
161
51
48
162
58
55
156
60
64
144
47
51
152
48
55
139
48
58
135
48
59
128
50
61
129
53
65
119
44
56
127
50
62
127
46
59
122
43
54
126
48
62
118
40
54
122
45
58
132
57
70
119
41
53
130
54
65
129
55
68
113
41
55
129
59
70
123
60
70
114
54
67
127
67
77
120
62
73
115
59
70
124
65
77
113
54
66
120
61
71
123
62
73
115
52
64
122
58
69
131
66
78
120
48
62
132
60
73
126
57
69
119
49
62
133
60
72
126
57
69
125
58
70
132
60
74
125
54
68
121
53
67
126
55
70
118
46
61
127
53
67
126
52
66
119
45
58
125
53
67
122
54
68
119
45
60
127
47
61
128
53
68
119
44
60
142
57
70
145
57
69
134
45
57
145
56
68
143
59
71
131
50
61
142
58
70
147
62
74
138
53
65
142
61
74
140
57
70
140
60
72
145
67
80
147
66
78
141
64
76
150
70
82
150
65
77
147
67
79
146
65
76
145
71
83
141
72
86
143
69
83
140
71
83
137
74
85
134
75
88
136
78
88
142
78
88
144
78
89
146
82
92
147
80
89
151
75
87
149
74
83
160
73
82
161
65
74
155
79
89
145
77
86
142
78
89
139
79
91
140
79
91
135
73
83
143
84
92
137
78
89
137
79
88
140
82
89
138
78
85
143
81
89
143
82
91
141
77
88
143
76
85
135
78
87
127
76
84
141
85
91
128
76
84
124
78
83
127
83
90
114
70
77
118
76
83
117
80
88
110
71
79
124
84
91
119
84
92
113
77
84
124
88
95
115
83
89
120
90
96
124
90
95
115
84
90
108
80
89
106
74
83
106
64
75
108
62
73
111
55
68
106
52
64
117
61
73
102
50
63
92
45
61
98
47
60
104
58
70
95
48
62
108
55
68
113
55
69
102
38
52
100
42
58
94
36
53
93
39
57
90
39
59
90
36
54
102
44
59
101
45
63
97
41
58
104
47
65
103
36
51
109
39
54
105
32
50
98
34
53
102
48
64
99
45
61
98
45
63
103
42
58
104
38
55
99
33
51
94
36
54
97
36
54
101
34
51
94
34
50
89
34
49
96
36
50
88
35
49
88
36
53
81
30
49
80
33
49
82
29
45
79
28
43
86
31
47
84
32
46
85
30
43
84
28
41
87
32
45
90
31
44
87
29
42
86
29
40
90
31
43
93
31
42
91
27
37
94
29
39
98
30
41
99
31
41
107
31
41
111
30
38
113
31
38
113
31
39
112
28
39
113
28
37
112
29
38
111
27
39
114
28
38
115
28
39
113
26
38
115
28
39
114
28
38
110
26
38
114
28
40
116
28
41
115
26
38
112
27
41
114
26
39
115
28
41
112
27
40
111
26
38
111
27
42
110
28
44
111
28
45
109
27
41
116
30
41
113
27
40
115
26
39
118
30
44
107
27
42
118
30
45
114
28
43
113
29
44
112
28
43
119
32
46
120
27
40
118
29
43
115
28
42
120
32
45
125
34
47
120
32
47
118
30
45
123
36
50
130
41
52
119
29
44
124
35
49
128
35
49
118
30
45
124
34
48
120
33
49
119
31
47
128
36
51
118
31
47
120
33
47
123
35
49
122
34
48
126
38
52
129
42
55
122
33
47
129
43
57
130
41
53
123
33
48
134
44
57
129
41
54
124
37
51
134
45
57
129
41
55
126
39
53
133
47
58
128
45
57
126
47
57
130
53
64
127
54
63
135
62
70
136
62
71
127
56
63
137
66
74
140
68
74
131
59
66
141
69
75
135
65
72
128
60
68
138
65
70
132
55
63
137
61
68
144
68
73
130
54
60
144
68
70
146
66
70
141
52
54
156
57
55
160
62
60
155
55
54
163
59
58
156
55
54
160
56
55
165
59
59
153
48
49
167
61
60
169
61
59
155
47
46
167
61
59
168
57
54
160
43
42
180
60
54
181
53
46
180
46
39
190
55
46
187
49
42
189
46
39
199
52
42
183
43
36
175
42
36
181
51
45
166
37
33
175
46
42
174
44
41
162
33
34
171
43
41
172
44
40
165
35
33
174
44
39
171
42
39
166
37
33
171
44
41
166
39
38
168
39
36
173
43
41
167
38
35
174
43
40
181
48
42
172
39
35
181
48
41
183
48
41
172
42
38
172
52
45
168
51
48
161
48
46
162
55
53
157
56
57
151
48
50
154
49
54
143
51
59
135
46
56
127
48
60
130
53
65
123
47
59
126
46
59
124
45
59
122
44
58
127
48
62
128
48
62
125
50
63
129
51
65
126
45
57
136
54
67
134
56
69
127
51
63
129
55
67
126
56
69
123
56
70
125
56
68
129
62
74
128
65
78
121
56
70
125
61
74
127
63
75
126
62
75
126
61
74
127
62
74
129
62
74
126
54
66
129
59
72
131
60
74
128
56
71
130
61
74
132
63
76
131
62
76
132
60
74
135
60
75
132
60
74
130
58
72
126
56
70
130
59
72
132
59
73
131
59
75
130
63
78
130
61
76
132
59
73
136
61
74
137
63
76
128
53
68
140
61
73
145
62
75
137
53
66
143
64
78
140
71
86
131
67
80
133
72
84
132
66
78
133
66
78
133
67
82
131
68
81
125
63
75
133
73
88
136
76
89
125
65
77
138
78
89
141
80
92
124
63
76
137
77
89
133
78
90
126
70
82
143
84
93
138
79
88
133
78
87
143
88
97
137
81
90
141
84
93
145
90
98
139
84
93
138
83
92
153
92
102
143
82
91
145
84
92
164
96
105
147
85
94
146
87
95
151
90
99
148
85
96
154
93
103
150
87
97
143
85
92
145
91
100
138
81
91
150
87
95
152
93
100
136
88
94
139
90
96
146
88
96
140
86
93
137
88
95
139
94
100
131
89
94
129
91
97
127
93
97
126
94
99
124
90
96
118
84
90
123
92
98
113
79
85
121
88
94
121
92
98
119
85
91
124
88
94
116
83
90
119
88
94
119
89
94
115
80
86
108
73
81
108
70
79
93
55
66
95
58
69
97
55
66
91
52
64
101
60
70
94
49
61
88
43
58
90
44
58
89
45
58
99
52
64
93
49
62
94
45
61
92
43
59
89
44
62
86
43
61
87
42
60
90
45
63
95
48
64
105
57
70
100
50
65
100
54
68
97
45
62
98
41
59
108
47
63
93
40
59
108
55
72
92
42
60
84
44
62
86
43
61
91
43
60
97
44
63
92
41
59
94
37
55
94
36
57
92
36
55
86
35
53
97
37
52
99
38
55
94
36
52
88
33
50
82
33
51
75
33
49
91
31
46
89
30
43
91
31
45
94
32
46
93
28
41
91
28
41
93
32
43
95
31
44
91
29
41
94
29
41
96
30
41
104
31
41
108
31
40
109
32
41
109
32
42
104
28
39
109
29
40
115
27
36
115
29
37
117
28
39
112
27
39
116
26
36
115
27
37
115
27
38
116
26
37
114
27
38
111
28
38
113
28
40
115
28
40
111
27
41
116
26
38
119
28
40
118
27
37
114
27
39
113
26
38
119
27
39
113
26
38
111
28
41
114
27
41
112
27
39
114
27
43
106
27
42
115
28
42
114
28
41
112
25
40
116
27
43
105
26
43
119
29
45
117
26
41
112
26
41
114
28
42
114
29
44
115
28
42
123
35
49
118
32
46
115
32
47
123
37
50
124
36
51
120
33
48
123
37
52
124
38
53
122
34
49
127
40
55
130
41
54
125
37
53
127
37
52
126
37
52
131
41
56
128
36
51
123
37
53
130
39
53
126
35
49
127
38
54
127
38
53
131
42
56
127
38
52
134
47
61
132
43
57
128
40
55
134
45
59
134
43
57
125
37
52
132
42
55
133
43
57
127
38
53
133
46
59
128
47
60
130
50
62
134
53
64
130
52
61
132
56
66
137
60
69
129
51
60
134
61
72
140
66
73
133
56
63
139
67
73
138
63
70
130
55
63
141
64
71
137
60
69
140
62
69
145
70
74
136
61
67
148
68
70
150
62
64
149
58
59
161
60
57
168
61
57
164
58
56
166
61
59
168
60
57
168
57
55
170
59
58
164
51
50
170
55
53
172
56
55
166
48
46
171
51
50
171
52
49
168
46
46
177
51
47
180
49
45
179
49
44
180
49
43
183
48
41
181
47
40
180
47
42
181
47
41
177
45
41
177
47
45
171
43
40
176
46
44
176
44
41
171
39
38
175
44
42
175
44
42
172
41
39
174
42
39
175
44
42
171
42
39
172
43
41
173
43
43
173
44
41
173
44
42
175
44
41
177
45
42
178
47
42
175
44
41
180
49
43
179
48
41
175
47
44
173
49
45
171
50
48
167
53
53
161
52
49
164
56
56
157
54
57
155
53
57
150
49
54
148
53
63
123
41
55
136
58
71
121
42
57
119
40
55
121
42
57
125
46
58
114
34
49
130
51
62
124
44
56
118
38
53
124
42
56
126
46
59
123
45
58
130
54
66
120
44
59
125
51
64
124
51
65
117
46
59
130
59
71
124
54
67
114
45
59
124
55
69
130
59
69
119
47
60
131
61
72
124
52
65
121
50
63
128
54
67
122
50
65
127
55
69
128
59
73
118
53
67
130
61
74
135
64
78
121
51
64
136
64
78
133
60
74
121
49
64
129
58
72
128
59
73
117
50
66
125
56
69
128
57
73
121
49
65
131
60
74
131
61
73
126
55
69
127
57
71
127
55
68
131
55
69
136
57
70
125
55
69
126
65
78
126
67
79
113
58
70
126
73
84
125
69
80
121
66
79
124
68
81
131
74
85
132
77
89
131
79
92
131
76
89
140
86
97
137
84
97
132
76
87
139
81
92
139
86
98
134
80
91
142
83
95
141
85
95
139
84
95
151
89
98
144
86
96
141
90
99
142
90
98
146
90
98
145
89
97
151
94
104
145
85
94
150
90
99
150
92
102
150
86
95
156
86
95
154
93
102
149
88
98
152
89
97
151
89
98
141
85
93
145
90
100
145
85
94
138
82
90
141
90
97
142
86
93
139
82
89
146
93
99
138
86
93
140
92
98
143
96
102
130
89
94
136
96
101
134
97
101
126
91
96
128
101
105
124
94
99
121
84
91
127
84
90
120
79
86
120
87
94
119
90
95
111
80
86
117
84
90
117
87
93
104
73
81
113
79
86
109
69
78
95
54
64
97
57
67
109
62
73
102
51
61
107
63
74
100
60
72
94
56
67
88
50
63
85
50
64
102
60
73
98
53
65
97
54
68
92
47
61
96
51
64
105
62
75
96
50
63
84
43
60
92
52
68
88
48
65
103
63
75
95
47
61
96
42
57
102
42
61
98
41
58
90
41
58
92
44
62
94
45
60
90
45
63
86
44
62
84
46
64
86
45
62
87
45
64
81
39
61
89
38
58
83
33
54
98
37
56
96
37
57
102
35
53
103
35
53
103
35
51
96
33
51
82
33
52
72
34
52
95
34
49
93
33
48
101
36
51
102
36
48
100
31
41
97
31
42
97
31
42
98
30
43
91
28
39
93
28
40
105
30
41
109
29
39
108
28
37
104
30
40
107
30
41
111
29
39
112
27
36
115
28
36
114
27
36
114
28
38
109
27
38
111
27
37
114
28
37
113
28
39
111
28
40
112
28
40
110
27
38
113
27
38
114
28
39
111
26
38
116
27
38
115
26
38
114
26
39
113
27
40
113
29
42
112
26
39
115
28
40
112
26
40
112
27
42
113
27
41
114
30
44
111
26
43
115
28
43
116
28
42
114
28
42
115
26
41
115
26
41
125
32
46
117
28
42
127
37
49
121
32
46
120
32
45
125
35
47
127
39
51
122
35
47
123
36
49
124
37
50
122
34
48
130
38
49
129
40
52
129
39
54
130
38
52
126
38
51
131
41
54
133
40
55
128
37
51
130
40
53
131
40
54
125
31
46
133
41
55
134
41
54
126
34
49
131
41
53
131
40
52
129
39
52
133
42
54
132
43
57
131
39
53
135
44
58
133
43
56
134
44
57
137
46
59
130
39
52
136
47
59
136
46
57
128
47
57
137
61
67
140
66
72
130
57
66
136
66
71
137
64
70
137
62
69
143
60
64
149
65
67
146
68
71
143
64
69
145
62
63
150
63
65
146
62
64
135
54
59
144
65
71
143
65
71
141
60
62
155
65
64
156
61
57
155
57
53
166
63
58
158
54
51
165
59
55
171
60
55
164
50
48
173
61
54
173
60
56
169
50
48
177
57
52
178
55
49
178
51
46
180
54
48
171
48
45
172
49
45
175
47
43
174
45
41
172
45
43
175
47
44
167
39
36
173
44
42
176
46
42
171
37
36
180
47
43
178
45
42
171
39
37
180
48
43
181
46
43
178
43
40
180
45
42
173
41
40
174
42
40
180
44
41
173
40
36
176
44
43
176
45
41
169
38
36
176
46
43
177
46
43
169
37
36
178
47
42
177
46
45
172
40
37
181
48
43
178
47
43
173
43
39
178
48
45
172
46
43
172
49
46
177
54
50
164
47
43
167
57
57
160
55
55
154
46
48
153
54
58
148
55
61
129
44
53
138
53
62
127
45
60
119
38
53
128
49
62
125
44
57
116
36
51
125
44
58
125
43
56
123
43
58
125
45
58
128
49
62
127
48
60
130
48
61
129
50
63
131
56
67
128
57
70
127
58
69
129
61
73
128
60
71
125
57
68
126
58
70
128
59
70
124
52
65
128
58
69
126
57
68
126
57
68
123
53
65
120
55
69
124
58
71
121
59
73
123
61
74
125
69
79
125
73
83
117
62
71
128
73
83
131
75
83
126
71
80
123
73
79
122
69
78
112
60
72
116
70
78
120
72
82
118
62
71
123
66
76
128
61
75
126
59
72
119
57
70
130
65
78
127
62
74
126
64
75
122
61
74
131
79
90
132
83
92
122
76
87
128
85
93
123
78
86
133
87
94
124
79
87
134
85
94
134
86
94
126
79
89
137
88
98
136
87
95
132
82
91
144
93
102
134
86
95
137
88
97
145
93
102
141
89
98
148
93
101
158
96
105
152
91
99
151
94
102
153
98
106
144
90
98
150
98
105
148
98
105
144
89
97
152
95
103
149
94
103
146
91
99
158
97
105
149
90
98
151
90
98
163
96
106
151
91
99
145
91
98
147
98
103
137
90
97
138
91
96
143
95
100
139
89
95
145
93
100
140
92
98
141
96
100
136
94
99
133
97
102
133
95
100
135
95
101
135
90
95
135
97
102
132
97
102
137
99
103
130
100
103
119
94
98
124
100
102
118
88
92
117
86
92
118
84
93
110
71
81
119
81
89
117
75
85
109
63
73
112
63
73
95
52
64
94
44
57
115
57
67
118
61
71
102
42
56
114
53
64
93
38
52
91
43
57
96
46
59
100
51
63
98
51
63
91
45
59
91
48
61
97
54
68
110
64
76
105
64
76
103
58
68
113
69
82
96
54
69
87
45
61
91
41
59
94
40
57
97
41
58
99
42
58
94
45
61
91
45
62
90
43
60
93
43
59
89
45
63
87
47
65
99
56
71
90
44
60
92
41
59
96
40
58
90
33
53
101
34
54
99
35
55
95
37
59
98
34
53
101
35
51
103
37
52
96
36
55
82
33
54
70
34
52
88
32
46
93
32
44
91
34
47
96
31
43
103
31
39
105
32
40
104
30
39
104
29
39
106
28
37
110
28
36
112
29
38
113
28
37
109
28
38
110
28
39
112
28
38
112
27
36
112
25
36
114
27
39
113
24
35
109
24
36
114
30
42
115
27
39
120
28
41
112
24
36
112
26
38
117
30
42
116
27
40
125
32
44
122
32
45
119
28
40
120
30
43
122
32
45
124
31
44
121
30
42
122
30
43
115
26
39
115
27
39
114
25
38
120
32
44
118
28
39
128
34
44
118
27
40
115
26
39
121
33
45
116
27
39
118
29
40
120
31
42
122
30
41
118
27
38
123
32
44
129
38
50
122
31
43
126
36
47
126
39
51
125
36
47
128
38
48
128
39
50
124
36
48
133
39
50
130
38
50
132
39
53
133
41
53
129
39
52
130
40
53
135
43
56
129
37
49
133
42
54
132
43
55
130
36
48
134
40
53
133
40
52
128
35
49
133
39
51
133
39
50
128
37
49
134
41
52
133
43
55
133
41
53
137
45
58
134
44
57
131
40
53
136
45
57
128
37
50
136
47
58
135
54
62
129
53
60
139
65
70
141
68
72
127
57
64
140
68
72
139
68
70
136
62
63
149
61
59
157
54
50
156
59
53
156
58
55
159
55
50
161
56
53
166
62
57
155
52
48
157
61
59
155
63
62
155
57
53
166
58
51
163
60
52
164
58
51
168
58
52
160
53
48
168
59
54
173
58
51
166
50
47
178
58
50
182
57
49
175
51
45
178
53
46
187
57
48
185
49
41
191
54
45
184
50
45
181
53
45
177
48
44
174
45
40
173
45
43
172
44
42
165
39
36
174
46
44
177
46
43
172
39
38
179
46
43
182
47
43
176
42
37
181
45
40
188
48
40
184
45
38
183
44
40
175
40
39
180
44
40
180
43
39
175
39
35
180
46
42
178
44
39
171
39
36
179
47
42
182
47
42
171
38
35
179
46
40
180
46
40
179
43
37
180
47
40
181
51
44
178
48
41
176
48
44
176
51
46
179
52
47
179
52
47
172
50
43
174
58
53
164
53
49
156
48
47
156
58
56
161
64
64
144
50
54
148
54
58
142
54
62
125
41
55
120
42
58
121
41
56
122
40
56
119
39
53
123
41
56
128
45
59
121
37
51
131
47
61
136
48
59
127
39
50
133
49
62
133
52
62
126
46
57
128
55
67
130
60
71
129
59
68
129
61
71
121
52
66
127
58
69
129
57
70
118
48
60
124
53
66
132
59
71
111
45
57
122
65
77
126
78
82
117
71
76
123
80
82
130
95
89
126
98
90
122
97
89
123
94
86
130
99
92
131
101
96
124
93
90
133
98
94
132
96
92
125
98
91
120
99
92
125
101
91
127
97
90
124
88
88
128
77
84
108
54
66
119
65
77
123
67
79
117
64
72
135
85
91
134
90
95
129
85
91
134
90
95
135
91
96
132
87
93
134
87
93
134
86
92
143
92
100
150
93
99
138
85
93
148
95
103
148
92
101
140
85
95
151
97
105
147
92
101
148
95
103
154
99
107
151
92
100
155
91
99
165
96
105
155
91
99
155
93
103
154
94
103
144
87
96
151
95
103
153
93
103
146
89
98
142
94
101
141
93
100
142
87
94
151
92
101
150
87
95
155
89
97
159
96
104
148
90
98
146
91
98
148
97
104
134
88
96
140
94
102
144
95
101
137
88
95
146
98
103
146
99
105
152
95
102
153
98
104
146
94
103
150
94
101
155
100
108
140
94
100
142
94
102
157
105
112
138
93
98
130
91
94
128
111
111
114
100
101
118
100
101
121
99
102
108
79
86
111
69
79
120
69
77
121
63
74
111
51
62
111
52
63
107
51
62
111
51
61
115
51
62
118
59
69
116
54
67
114
48
59
115
49
61
100
42
57
101
42
55
99
44
57
94
47
59
99
56
66
92
45
58
90
47
59
102
53
64
108
59
72
101
53
66
99
57
73
107
62
74
101
54
67
93
40
57
92
41
58
92
43
61
91
43
60
98
52
66
89
46
61
89
46
62
95
43
59
95
49
64
95
52
69
94
46
64
95
42
60
98
43
61
100
40
59
97
36
56
102
36
55
99
35
56
96
36
58
97
36
56
98
35
53
96
37
54
83
35
53
82
35
53
71
34
52
92
32
45
91
31
42
92
32
45
97
32
43
94
27
38
92
27
38
99
31
42
104
31
40
111
29
37
114
29
37
113
30
40
109
27
38
109
27
38
114
28
39
110
25
38
117
29
41
115
30
44
117
29
44
117
30
42
128
43
53
124
40
51
128
45
54
129
44
55
122
37
49
125
40
52
129
43
54
137
49
59
130
45
53
130
47
58
131
47
58
128
41
51
131
47
58
126
39
50
126
40
52
126
39
50
125
36
46
132
45
56
122
35
47
118
35
47
125
38
50
127
40
50
118
29
41
125
33
45
124
35
48
120
30
40
124
34
45
124
34
45
120
30
41
123
34
45
125
34
45
127
36
47
127
36
46
127
36
47
131
40
51
131
39
50
129
41
52
138
49
58
137
47
58
133
43
52
139
48
59
143
52
61
137
47
56
138
47
58
139
47
58
134
40
51
139
46
57
136
46
58
133
42
53
133
40
52
130
38
50
133
39
52
129
38
52
131
39
52
131
39
52
133
41
53
130
35
47
136
44
56
142
48
60
134
43
56
138
48
60
140
46
56
132
47
59
137
57
66
135
64
70
132
64
69
138
71
75
142
71
75
148
74
76
141
70
74
150
79
79
152
78
76
154
75
72
157
75
71
167
76
71
171
68
60
173
63
55
176
64
54
179
64
53
175
61
52
176
63
52
174
65
58
171
64
56
174
62
51
174
55
47
182
61
53
180
59
50
177
57
49
179
61
53
182
61
54
183
58
48
186
61
51
192
64
51
191
60
50
192
62
51
187
57
46
197
61
50
193
57
43
191
54
43
192
56
46
192
58
49
176
44
40
179
49
43
177
46
43
173
43
39
175
46
43
173
44
42
171
41
37
182
47
45
185
51
44
186
49
45
189
52
44
184
47
40
195
55
47
196
53
43
193
50
43
194
52
45
191
53
46
186
48
42
189
49
42
190
51
44
190
53
43
191
54
46
189
52
45
188
53
44
188
54
45
187
50
42
189
52
44
186
53
45
181
50
43
189
58
49
185
58
46
182
55
46
186
58
47
185
59
50
178
55
49
180
63
52
175
64
57
165
65
57
162
68
63
161
70
63
151
59
56
152
65
63
144
57
55
133
51
56
128
46
57
118
38
52
124
44
56
123
43
58
121
39
53
128
46
58
131
49
63
126
41
52
143
56
65
139
52
60
133
47
55
141
58
65
146
62
68
136
55
61
139
60
66
139
64
69
140
65
70
136
68
73
132
65
75
141
75
82
130
65
76
128
66
74
130
73
81
131
73
83
116
59
68
130
82
87
128
95
92
121
89
87
135
96
95
141
94
91
143
94
92
139
94
93
139
95
92
142
96
92
145
99
96
136
94
93
149
103
100
149
98
99
139
96
95
134
102
98
137
102
97
135
95
91
132
97
96
123
83
84
118
75
81
128
87
93
134
94
96
127
85
88
133
92
97
141
95
100
136
88
94
144
95
100
140
93
99
141
90
97
152
97
103
150
95
100
151
97
102
158
102
107
153
99
106
151
97
104
154
100
107
153
99
107
156
98
104
159
97
102
158
101
107
145
90
97
152
96
103
147
94
100
139
90
98
149
98
106
141
93
100
138
92
102
141
94
103
138
89
98
136
89
97
140
92
101
129
84
93
131
84
94
143
92
103
136
86
96
146
93
101
142
95
103
132
87
96
140
94
100
141
93
97
139
98
103
139
96
100
135
93
98
138
95
99
145
98
105
152
96
103
153
97
105
153
97
103
148
94
99
149
97
104
145
98
102
140
97
104
145
97
102
144
96
103
142
100
103
135
98
101
131
101
103
124
104
105
118
99
100
119
103
106
121
99
102
105
73
79
112
66
77
111
54
65
105
46
58
112
51
62
109
47
59
108
47
59
113
56
67
109
51
62
109
53
65
111
58
70
106
48
62
117
53
65
120
55
65
108
48
60
101
53
66
105
58
69
100
52
63
95
52
64
87
50
65
103
59
70
107
60
72
104
58
71
100
56
69
98
54
68
102
63
74
87
47
62
89
47
63
88
49
66
86
46
60
103
60
71
91
52
68
88
51
65
103
60
72
119
73
83
103
59
71
92
43
61
95
41
59
98
43
64
102
41
59
96
37
56
99
37
56
99
35
56
94
36
56
96
37
55
97
39
57
95
39
58
77
36
55
78
37
58
67
36
56
92
33
43
93
30
40
95
31
43
98
30
41
98
27
38
93
27
39
108
29
37
110
28
37
111
28
36
114
27
35
114
29
38
114
29
40
109
27
38
114
26
37
113
27
38
114
28
40
111
31
44
116
36
49
124
41
51
126
46
55
125
47
56
128
49
60
129
47
57
134
53
62
117
36
48
123
44
55
120
46
57
116
40
51
127
49
60
125
48
60
124
48
59
132
57
69
128
50
64
119
39
52
127
52
64
118
36
49
126
43
55
122
42
53
116
41
53
124
43
54
125
43
53
119
35
46
125
40
52
123
34
46
118
30
40
126
37
47
123
34
44
122
32
43
128
42
53
126
38
49
121
33
45
129
41
51
125
34
45
132
44
55
140
59
67
132
51
60
142
61
68
143
63
70
138
55
61
145
64
69
146
65
71
135
54
61
147
67
72
145
62
66
141
60
66
149
75
82
144
72
80
139
60
68
147
63
71
139
54
66
137
53
63
138
50
62
131
44
57
133
43
55
136
40
52
131
35
47
136
47
58
141
51
61
131
40
53
140
47
58
135
44
54
126
47
58
137
65
72
142
71
78
128
59
66
143
77
80
103
56
54
98
50
48
110
65
62
94
48
45
100
55
53
113
66
60
90
44
39
113
63
58
113
54
51
101
38
33
117
54
49
115
49
42
103
36
30
117
50
45
112
49
41
107
43
35
117
51
45
112
36
31
125
48
42
143
50
44
176
56
48
135
49
42
124
48
42
118
40
31
131
53
45
126
47
39
122
42
33
125
48
40
124
44
35
124
44
35
132
52
43
128
43
35
142
47
40
186
57
47
182
46
41
182
50
45
178
48
43
174
44
39
180
49
44
175
44
42
174
44
39
182
54
48
138
44
38
117
33
29
127
47
42
123
39
35
121
38
33
128
45
40
125
39
34
126
44
39
124
45
40
122
41
35
126
47
41
125
46
39
125
44
36
126
48
42
124
45
38
121
40
32
127
48
42
124
40
33
125
40
33
149
45
40
155
51
44
126
43
34
125
49
40
124
45
36
126
49
41
121
45
38
126
51
45
117
47
41
124
56
47
119
57
46
106
51
44
105
47
41
147
71
67
161
73
67
158
71
65
138
58
65
132
49
59
132
47
59
132
50
61
125
42
55
135
47
59
133
47
58
134
48
58
142
49
57
139
50
58
137
53
59
152
63
67
130
48
55
114
55
58
83
46
49
55
19
22
70
36
39
73
39
41
69
33
35
106
65
69
130
73
82
128
64
76
136
76
84
123
73
82
124
79
87
135
87
91
124
81
86
102
74
75
91
67
69
96
59
62
112
73
75
115
76
79
103
64
66
112
73
75
112
72
74
103
67
68
112
76
78
112
74
76
98
62
68
108
73
76
106
72
74
104
70
72
134
89
95
138
92
99
143
98
101
133
91
93
130
92
94
127
87
90
133
89
93
136
93
98
98
61
66
109
75
79
91
58
63
105
72
77
106
71
75
103
68
71
114
77
80
108
73
77
94
58
63
111
76
81
104
67
71
103
68
73
122
85
89
112
71
74
149
98
107
155
100
108
143
89
96
147
97
105
138
92
99
130
86
92
137
93
101
128
86
95
124
82
92
134
90
99
124
82
90
128
86
94
134
88
98
123
78
89
132
87
97
137
90
101
124
78
88
134
91
99
137
92
98
130
83
92
144
94
102
142
93
99
142
92
99
159
102
107
155
97
105
158
98
107
173
103
110
166
97
106
154
95
105
165
109
118
148
96
102
145
98
104
155
110
116
147
100
107
145
100
105
150
108
114
138
99
104
142
97
103
147
102
105
120
101
102
120
98
98
113
86
89
113
78
85
120
74
82
120
60
72
113
52
65
112
53
66
121
58
70
117
55
67
107
52
64
117
61
72
122
64
75
115
58
69
110
57
70
116
58
71
118
56
70
114
57
71
114
56
70
112
58
71
107
54
66
95
45
58
106
55
67
108
60
71
101
53
64
102
57
70
108
59
73
103
54
67
110
59
71
102
57
69
109
64
75
101
59
72
96
56
69
102
57
70
107
61
73
101
58
70
105
65
77
107
63
74
108
65
76
107
62
75
94
38
54
98
41
57
96
38
57
99
38
55
98
37
55
91
36
54
84
35
54
85
38
57
92
39
55
95
38
55
93
38
56
92
42
62
86
40
64
84
43
67
103
28
40
86
25
38
107
31
42
110
29
37
109
29
37
108
29
37
112
28
36
112
27
35
113
26
34
113
25
35
115
27
36
117
27
37
114
27
40
116
26
37
113
26
39
124
39
51
130
42
54
123
38
51
127
42
53
134
48
60
147
44
54
165
51
57
162
45
51
168
48
54
164
49
56
147
51
61
133
54
68
129
49
59
133
50
59
134
61
73
141
64
72
133
52
62
137
62
72
137
57
66
132
53
61
136
59
68
136
64
73
133
60
68
137
66
73
133
60
68
129
59
67
130
59
66
131
59
66
134
56
64
135
50
56
135
48
55
135
47
54
137
45
53
134
41
48
138
48
55
137
48
56
136
47
53
146
51
58
143
58
64
144
59
63
152
65
68
155
63
63
158
66
65
157
68
69
147
63
67
145
72
77
144
72
77
154
71
72
155
73
75
150
83
86
140
80
85
137
80
86
144
83
89
143
83
89
146
81
86
144
83
87
136
75
81
145
82
86
142
74
77
141
74
79
146
77
83
143
76
82
138
68
74
146
73
81
141
75
82
143
76
81
146
78
82
140
72
75
145
70
71
146
73
76
136
76
79
63
45
26
180
137
72
186
128
68
188
128
71
188
130
73
190
131
73
189
131
72
189
131
73
190
130
72
189
130
72
190
129
73
190
129
73
190
128
73
190
130
75
191
131
77
192
131
76
192
132
76
191
131
73
188
140
81
87
64
42
156
65
57
57
26
8
179
134
79
187
128
70
189
128
72
189
128
72
188
127
70
189
128
69
190
128
70
192
129
71
191
130
71
183
137
75
80
55
34
167
56
45
183
51
43
176
46
40
178
49
44
178
48
43
174
45
40
180
49
44
180
51
43
165
51
45
54
20
13
181
134
73
192
130
70
195
131
73
194
130
74
194
130
73
194
130
72
193
131
72
193
131
71
191
130
72
191
131
72
191
130
72
191
131
73
192
131
72
193
132
73
194
133
74
194
133
75
194
133
73
186
135
71
83
56
31
59
25
26
156
117
64
184
128
66
190
130
71
187
130
72
188
128
70
186
127
68
187
127
68
188
129
70
189
130
69
187
132
63
146
112
61
109
53
47
158
72
63
163
80
69
143
61
64
123
40
49
132
49
61
131
47
57
126
38
49
139
50
60
137
49
57
138
48
56
140
49
56
139
55
61
145
60
65
122
54
58
86
49
47
89
68
38
179
131
68
197
130
60
197
124
61
195
127
64
193
137
72
111
80
41
61
42
25
97
55
63
133
78
89
135
83
93
133
84
91
131
88
92
115
82
87
73
52
55
152
122
69
183
133
67
189
133
73
190
134
74
190
135
75
191
134
73
190
133
73
191
133
74
191
133
74
192
132
73
193
133
76
193
133
77
190
135
77
171
130
74
59
38
26
71
45
47
119
78
84
150
101
106
140
94
98
126
84
88
134
91
93
124
87
90
83
64
39
175
130
68
185
130
71
185
131
74
185
132
75
185
131
74
185
131
72
185
131
71
186
130
69
186
130
70
187
131
70
185
131
70
182
136
73
108
82
51
65
45
43
114
81
88
150
99
107
148
94
103
143
90
98
138
91
99
131
86
94
134
89
97
138
91
100
127
81
92
135
91
101
134
89
99
133
83
93
141
90
101
137
89
98
136
86
96
143
92
101
149
89
96
150
93
101
157
97
105
151
90
97
163
93
101
169
92
100
176
94
101
163
93
101
161
96
104
158
91
98
156
94
100
151
96
104
158
101
109
152
99
104
145
97
103
159
102
110
150
95
102
141
99
106
144
104
110
141
99
104
137
93
100
137
102
107
116
88
93
115
79
86
107
63
72
128
78
87
123
66
75
116
53
65
123
57
68
119
60
72
111
49
62
117
56
66
126
66
78
115
54
65
120
59
70
115
57
69
105
49
62
117
57
70
120
57
69
110
52
64
118
64
76
114
53
65
110
52
64
106
54
68
121
66
76
112
54
65
111
57
67
116
62
74
108
50
63
106
55
69
113
62
74
103
52
64
112
63
75
107
60
72
95
51
64
100
55
67
102
59
72
97
50
64
102
57
71
105
59
72
99
48
62
94
37
55
102
36
51
101
36
53
95
38
58
83
37
54
88
35
54
90
36
53
86
35
54
91
39
57
92
40
57
96
38
54
100
38
53
106
46
62
92
40
60
90
42
63
108
26
38
99
28
41
109
28
39
117
27
35
113
26
33
114
26
35
114
28
36
113
26
34
115
28
37
117
27
37
112
25
35
116
27
39
120
31
43
127
37
48
113
28
39
127
40
51
128
40
51
110
29
41
115
34
44
122
41
51
132
41
48
161
50
55
164
51
56
161
45
52
165
50
56
140
48
56
134
48
57
126
46
56
125
43
53
132
52
63
139
55
64
125
46
56
138
63
71
141
64
71
130
61
68
138
75
80
134
75
81
132
76
82
143
86
90
138
86
90
129
82
87
138
87
93
135
80
85
131
73
79
144
81
85
134
63
69
135
65
70
145
70
74
138
56
62
141
58
64
152
72
78
132
50
56
154
67
72
159
70
70
164
66
63
181
72
63
184
72
59
182
68
54
197
76
59
188
71
55
194
75
58
193
79
64
187
76
61
194
78
61
194
81
64
186
80
69
180
84
77
170
85
84
148
83
90
145
87
95
146
87
94
142
83
90
146
88
95
143
86
93
140
84
89
149
92
99
141
84
90
146
87
93
152
93
99
137
82
91
143
86
92
154
90
94
142
80
84
139
76
78
153
86
90
135
77
81
63
45
27
210
157
72
202
94
35
190
24
2
191
23
3
188
22
2
187
23
3
186
24
3
186
24
3
186
24
3
187
23
3
187
22
3
187
22
3
188
21
2
190
20
2
192
21
2
194
22
2
192
23
2
215
132
70
108
83
49
150
59
50
59
24
7
194
139
71
208
113
47
187
27
3
189
23
3
186
22
2
187
22
3
190
24
3
187
27
4
197
90
36
217
155
74
83
57
31
162
51
44
187
50
43
176
42
37
174
42
39
178
46
43
170
39
35
180
48
43
179
48
43
157
46
43
50
19
11
196
140
68
207
111
45
188
26
3
191
20
2
190
18
1
188
19
1
188
20
1
187
20
2
186
20
1
186
21
2
186
21
2
186
21
2
187
21
2
187
21
2
188
21
2
190
22
2
188
23
2
224
140
61
95
70
31
50
30
30
156
111
53
217
132
54
180
38
8
183
26
4
184
25
4
184
25
3
184
25
3
182
27
4
179
48
13
225
144
62
158
118
62
115
58
48
183
89
71
172
79
62
150
64
62
136
48
53
134
47
56
137
48
57
133
42
53
141
47
54
146
50
56
152
55
60
147
50
53
159
65
68
120
59
62
46
28
4
179
130
62
222
135
62
199
73
32
199
47
21
192
5
1
187
6
1
184
35
10
203
106
46
205
137
67
105
74
41
75
46
50
135
86
97
149
95
103
125
82
85
144
101
104
88
59
59
160
127
73
207
128
55
178
33
3
190
26
3
191
25
3
191
24
3
190
24
3
190
24
3
190
24
3
192
25
3
192
26
3
191
27
4
187
29
4
204
90
42
217
139
65
202
145
73
107
79
44
79
49
52
144
93
100
151
96
101
142
92
97
131
89
95
83
64
37
205
147
66
190
82
28
185
28
5
188
26
4
189
26
4
188
27
4
187
28
4
188
29
4
189
28
4
190
30
6
189
34
8
191
60
22
217
125
57
212
142
67
114
80
43
76
53
56
134
87
94
147
95
102
143
94
102
134
83
92
137
84
93
137
89
99
127
78
88
140
89
98
137
87
98
133
83
93
148
95
104
146
93
101
148
90
99
163
96
104
155
91
97
144
92
98
154
102
108
150
92
98
156
94
101
162
97
103
161
94
99
146
88
95
153
100
106
149
91
98
163
99
105
155
100
106
143
100
105
139
97
100
149
109
113
148
101
107
149
100
106
148
106
111
136
101
106
129
96
100
127
92
98
117
76
85
116
69
77
112
66
77
107
60
70
124
71
79
119
71
79
108
53
65
123
66
74
120
68
76
105
58
67
123
77
85
119
72
78
110
57
68
109
58
69
116
62
75
108
48
62
112
54
67
114
60
74
109
50
64
116
58
72
112
55
70
106
49
61
111
58
70
112
56
69
102
47
61
115
59
72
121
60
73
104
45
59
111
54
68
112
55
68
109
54
66
113
59
70
108
57
68
101
54
68
105
56
68
111
65
78
108
59
71
100
53
68
103
49
64
96
35
53
102
37
54
107
36
51
98
37
54
86
40
58
94
47
65
93
42
60
90
38
56
95
40
59
95
40
57
95
39
53
102
42
57
104
41
54
112
46
57
99
39
54
107
48
63
109
26
35
107
29
38
112
28
38
112
27
36
116
26
35
114
27
36
113
27
36
113
26
37
113
27
37
112
26
37
114
28
37
114
27
38
120
33
46
125
37
49
124
37
48
128
43
55
112
32
45
126
44
53
132
45
53
124
40
50
124
45
53
133
53
59
129
50
57
128
49
58
134
52
60
137
55
63
129
52
61
126
50
59
123
42
53
123
47
59
132
53
63
134
56
64
141
67
76
139
65
73
138
69
76
139
72
79
141
77
82
140
76
81
139
80
85
134
89
94
129
89
96
129
88
93
132
87
91
132
85
91
133
81
86
140
81
84
139
77
79
139
76
80
140
70
73
145
69
73
148
67
72
143
64
68
155
68
71
156
71
71
158
67
67
166
70
67
167
68
64
172
66
59
182
69
58
192
72
55
197
69
50
201
79
57
202
79
58
204
81
59
205
86
67
200
83
66
198
87
73
195
86
76
178
88
88
166
88
91
161
88
93
160
85
88
156
90
94
159
92
96
146
82
88
157
88
94
149
85
91
159
98
102
152
91
98
154
86
95
164
89
91
151
87
92
141
81
87
146
84
86
141
78
81
153
83
83
107
55
53
91
66
32
202
134
59
212
93
42
194
3
1
195
1
1
194
0
1
191
4
1
190
36
9
189
38
8
189
38
9
189
39
8
190
39
9
191
37
8
194
13
2
198
2
1
201
3
1
201
5
1
218
129
69
107
81
48
165
53
44
135
51
41
85
60
33
194
131
60
214
110
47
190
15
3
193
1
1
194
1
1
190
6
2
211
101
48
206
141
70
90
59
30
115
38
30
186
56
46
190
49
43
182
49
43
178
48
45
177
45
42
178
45
41
180
46
43
180
47
42
177
45
41
137
48
42
81
51
23
195
135
61
221
116
53
194
19
4
195
1
1
194
1
1
192
3
0
190
33
8
189
35
8
188
34
8
188
34
8
187
34
8
188
34
8
191
10
2
194
2
1
197
2
0
196
5
1
227
138
64
98
68
33
148
71
65
78
37
24
167
116
53
220
132
58
186
38
11
191
1
1
193
1
1
191
1
1
192
61
23
226
144
63
149
108
54
74
37
26
156
74
57
176
78
64
156
66
56
144
62
60
151
57
55
135
43
47
140
48
53
150
49
53
145
40
45
151
50
51
160
65
65
156
55
55
125
54
55
88
64
36
211
151
74
203
84
36
196
6
0
193
3
1
194
48
15
195
61
17
196
54
18
189
3
1
190
2
1
184
36
9
215
132
66
134
96
50
74
47
48
144
91
99
142
89
95
157
98
104
132
81
87
63
34
37
154
110
54
225
139
64
194
45
15
197
1
1
197
1
0
196
1
1
192
23
5
191
35
8
191
36
7
189
36
7
190
29
8
192
4
1
195
4
1
192
20
5
194
61
26
219
140
73
138
100
52
82
54
59
148
99
105
146
95
101
151
100
107
107
69
71
106
77
37
209
142
60
199
75
29
192
2
0
194
1
1
194
1
0
190
12
2
189
35
7
189
34
6
191
33
6
193
25
6
195
4
1
194
8
1
189
41
13
217
124
65
168
118
62
56
34
33
137
92
98
150
96
105
140
88
97
141
89
98
143
88
97
141
86
95
141
90
100
146
89
97
149
90
99
144
89
98
149
88
99
155
86
95
148
90
98
140
90
96
143
92
97
154
90
96
156
96
103
150
95
101
155
99
105
151
97
104
152
95
102
168
97
103
167
93
100
150
92
100
152
98
105
150
96
104
149
93
100
148
99
106
145
97
104
145
100
105
131
101
107
120
88
94
125
86
93
121
79
90
113
69
79
116
71
80
120
75
85
113
69
79
116
73
83
121
78
87
115
73
82
112
70
80
106
66
75
108
70
77
118
80
89
106
69
78
111
74
84
117
75
84
117
71
81
109
57
70
116
61
73
119
61
74
112
49
62
122
53
66
112
51
66
116
57
70
114
57
71
120
60
74
117
54
69
123
58
73
120
56
71
115
52
65
115
50
67
113
52
69
110
51
65
115
58
71
109
59
72
107
62
77
102
56
70
111
67
80
94
46
61
91
37
56
95
36
55
95
37
55
104
36
52
102
37
53
99
39
56
95
43
61
91
43
62
92
41
58
93
39
55
97
42
56
94
39
53
100
44
55
108
55
66
110
60
71
111
63
74
102
52
65
100
54
67
111
26
33
113
27
35
112
25
33
111
26
35
114
27
35
113
26
34
113
27
35
113
26
35
114
26
35
119
27
38
114
25
34
115
26
37
114
30
41
112
27
40
116
30
42
121
32
44
114
29
40
121
38
48
116
34
44
116
31
40
120
35
45
119
38
46
127
42
48
131
48
53
122
40
48
126
43
51
124
41
49
124
37
45
134
46
53
128
44
53
124
42
51
126
45
54
128
48
55
131
51
57
141
63
67
130
55
61
138
67
72
140
70
74
134
66
73
140
84
89
138
93
99
132
90
96
133
91
96
139
92
95
133
83
86
144
88
90
140
87
90
136
81
85
148
85
88
140
75
79
142
71
76
150
82
87
142
70
75
143
71
74
152
78
79
144
71
74
151
75
76
156
76
76
152
72
71
160
74
71
172
75
70
178
76
67
193
82
66
190
81
67
194
79
62
182
82
72
183
81
71
186
79
69
186
92
86
178
91
89
171
89
89
170
92
94
165
90
94
170
96
98
173
104
104
173
98
95
170
101
102
168
97
99
164
99
103
170
97
101
167
89
91
161
89
91
156
93
96
154
90
89
148
82
83
162
92
90
160
86
84
114
63
63
76
54
28
224
147
70
185
10
0
194
0
1
194
0
1
189
30
5
232
145
64
188
122
59
187
120
59
187
121
60
188
123
61
204
135
64
215
114
50
197
7
0
201
3
1
201
4
0
218
125
65
108
81
48
169
49
38
194
55
42
131
47
39
67
38
18
211
144
66
189
41
13
193
0
1
193
0
1
184
20
3
219
145
69
91
59
36
130
40
33
188
54
45
189
50
40
178
42
36
182
48
42
176
43
38
174
40
36
182
46
39
179
43
39
180
44
37
184
47
41
182
50
42
138
49
41
87
59
33
220
143
66
188
35
5
193
0
0
193
0
1
185
10
1
233
141
63
186
120
57
185
119
61
185
118
61
186
121
60
209
136
63
210
99
46
194
4
1
197
3
1
193
5
1
225
136
61
96
67
32
173
75
63
166
72
59
74
38
32
174
125
58
210
106
44
191
1
0
194
1
1
191
3
1
220
128
55
139
101
45
88
39
33
155
62
52
178
72
58
173
71
59
161
58
50
165
60
56
155
52
51
145
46
50
148
51
54
157
46
49
161
51
52
156
63
61
160
76
74
144
63
63
57
37
20
201
145
69
207
88
33
200
6
1
197
4
1
201
79
33
205
137
58
169
117
48
191
125
54
209
100
42
190
2
1
195
2
1
193
42
17
223
145
72
111
82
44
105
66
70
149
92
96
146
92
94
149
96
100
148
93
102
77
45
47
168
125
60
213
109
47
195
1
1
197
1
0
194
2
0
222
120
53
200
130
61
185
120
58
184
119
56
208
131
64
205
91
41
191
6
1
195
2
1
196
3
1
193
40
16
210
125
61
122
92
44
103
69
73
150
92
96
156
96
99
157
96
100
111
73
72
109
82
42
224
139
62
187
5
0
195
0
1
195
0
1
201
69
27
221
144
64
189
122
55
190
121
54
214
127
58
203
76
31
194
8
2
196
2
2
190
10
1
207
108
52
161
114
58
57
35
36
144
93
101
156
97
104
146
91
99
143
89
98
147
94
102
140
89
97
146
91
99
155
94
103
148
88
97
151
92
100
153
95
103
141
88
97
144
91
97
154
97
103
148
91
98
150
95
101
153
96
103
150
94
99
151
96
103
154
98
106
160
95
102
159
94
102
146
94
100
138
92
99
147
99
106
139
95
101
128
91
98
144
103
109
131
92
97
124
84
92
127
79
89
112
56
66
119
68
77
120
74
82
110
64
72
117
69
78
112
69
76
114
69
77
117
71
77
111
58
70
108
58
69
105
58
68
113
68
75
118
69
78
111
61
71
119
74
85
111
61
72
103
49
61
114
55
68
117
54
67
108
45
60
112
48
64
111
44
59
112
51
66
122
62
74
110
51
65
120
56
71
119
52
66
112
44
59
122
53
68
119
51
65
110
43
58
114
48
63
115
47
60
107
43
58
109
48
62
112
57
72
107
52
67
100
43
59
100
36
52
98
32
48
101
34
50
104
33
47
111
35
49
98
35
49
100
35
48
99
36
51
104
39
53
107
38
50
110
43
57
120
60
70
106
48
62
115
60
69
108
55
64
105
55
63
101
51
60
105
56
67
99
56
68
109
26
37
109
27
36
112
26
34
112
24
33
114
25
35
112
25
34
117
25
35
114
26
35
112
27
37
116
26
37
116
26
36
116
29
39
118
30
42
121
32
43
116
32
43
121
33
43
119
30
41
124
38
47
123
37
47
126
38
48
121
37
45
131
50
55
129
48
52
126
46
52
126
47
53
124
42
48
131
47
52
120
37
44
131
44
51
133
44
50
132
48
55
132
50
58
136
53
59
135
52
59
145
65
67
134
51
55
138
58
62
137
57
62
140
57
64
147
63
66
144
72
75
133
79
84
140
87
92
144
87
89
137
79
81
147
90
94
145
83
86
144
80
83
149
83
87
148
75
78
152
74
75
152
76
77
146
72
76
150
74
75
155
77
79
149
74
77
156
77
75
155
73
72
142
68
70
151
73
74
156
62
61
161
67
64
160
64
62
169
61
56
179
69
59
177
68
59
179
67
59
184
66
55
187
70
59
177
67
59
175
71
66
175
67
64
175
71
66
176
70
66
182
85
80
174
84
83
179
94
93
172
89
87
173
96
98
171
85
88
168
81
81
169
80
78
164
78
75
154
79
78
156
80
79
161
80
78
169
88
85
164
84
82
36
7
10
218
144
73
185
11
0
194
0
1
194
0
0
190
32
4
211
139
64
65
25
24
124
35
31
144
44
36
134
45
40
93
63
33
203
137
62
203
68
28
202
4
1
198
5
0
216
123
63
107
80
48
154
42
32
194
53
41
192
65
52
75
22
16
199
137
69
190
42
14
194
0
1
195
0
1
185
19
3
212
141
69
76
26
20
178
51
42
189
51
42
184
49
43
178
45
40
179
46
40
175
45
41
175
44
41
181
46
40
182
48
43
180
45
40
178
45
42
183
49
43
180
53
45
83
30
27
210
135
68
187
32
4
193
0
1
194
1
1
185
11
1
222
142
62
55
26
15
122
44
41
130
43
39
132
53
48
85
52
26
212
129
67
199
53
22
197
4
1
191
5
1
222
132
57
93
65
30
173
80
66
190
80
62
137
69
58
145
105
50
209
108
46
194
2
1
196
2
1
193
3
1
220
129
61
98
68
24
160
68
58
187
73
59
172
65
53
178
67
58
180
64
54
169
56
52
159
50
48
160
48
49
169
50
48
172
43
42
172
61
58
147
62
62
143
66
71
90
45
45
162
123
62
217
120
56
197
6
1
201
4
1
191
15
0
219
143
67
100
75
39
99
62
66
76
53
30
197
133
60
202
75
31
198
2
1
197
2
1
197
71
30
197
139
73
57
38
28
145
92
95
149
95
96
155
95
95
158
98
99
126
77
80
136
100
49
213
112
53
194
1
1
198
1
0
195
2
0
216
123
54
109
77
41
103
65
67
97
58
65
95
68
42
187
125
60
205
95
45
191
3
1
194
1
1
193
2
2
193
61
24
193
135
60
36
16
14
153
93
99
164
98
101
163
99
100
152
95
95
42
22
5
225
145
68
189
7
0
196
1
1
196
1
1
201
71
27
178
127
69
67
45
47
97
62
65
112
80
45
200
131
60
196
65
27
193
1
1
193
2
1
184
15
1
217
134
61
68
43
19
116
73
80
161
96
106
152
93
101
150
93
101
148
92
101
144
92
99
146
94
102
153
93
102
150
87
95
157
92
101
158
96
104
150
90
99
152
87
94
154
96
101
152
95
102
152
91
98
156
93
101
153
94
103
155
93
101
157
92
101
148
86
95
152
90
99
152
86
95
131
81
90
142
100
108
131
85
93
126
82
90
129
86
96
131
81
89
131
70
78
121
66
77
117
65
76
129
80
88
124
76
85
115
67
75
122
77
86
117
72
80
121
79
87
112
64
75
111
54
67
115
58
68
116
65
77
114
63
74
116
58
70
116
54
65
115
53
66
111
52
67
108
47
61
109
44
61
113
48
61
112
44
60
114
45
60
115
48
62
114
50
65
120
52
66
116
48
62
118
53
68
118
50
66
116
45
59
125
50
65
120
48
63
113
43
59
120
49
64
117
49
62
110
44
59
116
49
65
111
40
56
105
35
51
112
37
52
103
31
46
103
32
48
115
36
49
103
31
47
110
32
47
99
32
47
101
31
47
105
35
50
105
32
46
113
35
48
108
33
46
115
52
61
114
57
65
110
52
60
106
52
59
118
70
77
103
60
68
104
63
72
106
64
72
113
27
36
115
29
37
112
27
35
113
27
36
120
31
41
121
30
41
117
27
35
115
27
36
115
31
41
115
29
41
122
32
42
129
35
46
123
34
47
127
36
49
126
37
47
128
43
52
124
40
51
127
41
49
132
45
53
128
46
54
117
36
44
134
50
54
134
49
52
121
38
44
137
52
54
136
50
50
132
47
47
133
47
50
127
43
47
134
48
51
138
53
54
128
40
44
143
56
56
141
51
54
137
49
49
146
59
57
144
62
62
131
50
51
143
58
60
141
55
57
137
52
55
145
68
74
135
64
68
142
73
77
146
84
88
136
73
79
147
87
92
157
88
91
147
76
77
156
83
83
157
82
81
146
77
78
157
86
86
156
83
82
144
67
69
157
76
79
154
71
71
151
71
71
157
77
78
152
68
70
155
68
69
161
74
77
161
66
67
166
67
64
177
78
73
168
68
62
177
72
66
187
75
65
191
75
62
195
80
64
195
78
60
193
79
63
192
83
69
179
78
71
169
78
75
179
85
81
172
80
76
179
92
87
171
87
85
166
77
74
169
78
76
174
81
76
162
75
73
160
74
73
165
78
77
160
72
69
166
80
80
164
83
84
38
9
14
218
145
74
185
11
0
194
0
1
195
0
1
191
32
5
212
140
66
89
27
25
196
57
45
196
46
33
201
51
38
120
40
34
147
108
59
209
104
43
198
5
1
195
5
1
215
121
62
108
79
48
159
48
40
188
50
38
187
60
48
78
21
16
200
138
70
191
43
15
196
0
1
196
0
1
186
19
3
213
141
70
70
21
16
182
55
45
177
39
34
184
48
42
181
45
41
173
39
36
174
42
41
176
42
40
175
37
33
183
45
40
185
46
41
170
33
32
181
46
40
182
51
45
79
23
21
210
137
68
187
34
4
193
1
1
194
1
1
186
11
1
222
143
61
68
30
17
186
72
61
196
69
55
189
67
56
94
34
30
169
118
63
211
103
45
195
4
1
190
4
1
222
132
56
92
64
28
168
81
69
190
83
64
140
72
61
146
106
51
211
108
49
194
2
1
195
1
1
193
3
1
221
130
62
97
68
24
157
62
55
187
62
50
181
57
46
183
59
52
172
49
44
168
46
45
169
46
44
173
49
45
174
46
42
173
48
46
172
62
59
156
63
62
144
75
76
32
14
6
208
144
69
181
30
9
196
1
1
197
3
1
216
108
47
190
140
73
51
20
19
170
93
96
104
60
62
157
118
60
217
123
47
193
3
0
195
0
1
187
4
1
216
133
69
85
60
27
116
78
77
160
106
105
161
101
97
156
91
91
132
79
82
137
101
51
212
113
55
194
1
1
196
1
1
194
2
1
217
123
54
111
79
42
133
77
79
161
91
94
144
86
94
82
58
39
215
142
66
188
41
12
193
0
1
194
1
1
190
10
1
222
135
59
113
82
42
142
88
93
159
95
99
161
97
97
152
93
95
40
21
4
227
147
68
190
8
0
197
0
1
197
0
1
201
71
26
178
128
70
103
67
69
157
96
101
128
80
83
107
78
39
214
130
59
183
3
0
191
1
0
189
1
0
195
69
29
192
131
63
79
52
52
160
96
99
174
102
107
169
95
98
159
93
100
158
98
104
150
91
97
149
88
93
159
97
102
159
95
102
163
91
97
169
95
101
170
88
94
169
88
95
177
95
101
168
88
94
167
87
95
175
97
104
168
85
94
165
87
97
171
95
105
168
86
96
163
89
97
154
91
98
137
91
99
134
88
96
132
86
94
117
70
78
132
81
89
126
74
82
115
69
78
127
82
89
127
82
87
117
75
82
121
80
85
123
81
89
113
71
79
122
75
84
116
67
77
112
54
67
121
63
74
118
63
75
112
48
61
117
50
65
114
45
61
109
40
56
117
47
62
119
45
61
109
40
58
115
47
63
123
54
69
117
55
68
122
61
72
125
63
74
119
54
66
124
57
70
122
57
69
118
50
63
122
52
67
121
48
64
117
44
60
117
47
63
118
50
66
118
46
62
118
47
63
119
48
64
110
37
53
117
36
51
116
33
45
113
33
46
111
30
45
119
36
48
110
32
45
116
32
46
113
32
45
108
33
46
115
38
51
118
40
50
119
45
56
121
53
62
131
76
83
109
66
75
109
70
76
109
72
77
108
77
83
104
77
81
105
74
79
105
71
76
116
27
35
115
26
34
115
28
36
109
26
35
112
27
37
111
28
37
111
26
36
115
28
40
116
31
41
122
35
45
120
38
48
124
42
51
123
41
50
128
43
53
123
39
47
134
50
55
133
51
58
130
45
52
129
47
54
132
53
56
127
46
48
139
61
55
140
64
50
133
56
47
140
62
53
138
59
52
135
55
50
140
59
51
137
55
49
140
58
52
142
58
52
129
43
43
141
57
54
139
53
51
139
54
47
143
58
52
145
62
57
137
53
48
142
56
55
144
60
57
138
52
52
141
56
58
135
54
57
138
63
68
138
62
67
135
63
67
143
76
80
150
77
81
140
64
68
147
74
76
156
77
77
145
71
72
152
81
83
152
79
80
147
70
70
157
75
76
157
75
74
149
69
69
152
73
76
150
68
71
147
64
66
161
74
75
156
65
67
153
69
71
157
80
81
149
67
68
157
75
78
164
81
80
166
71
67
173
73
67
180
72
65
189
70
58
191
72
62
185
77
69
174
84
81
169
86
89
165
78
78
166
67
65
167
72
71
166
68
66
170
67
65
167
75
74
159
64
65
162
64
67
165
72
74
160
65
65
164
70
72
159
74
77
36
6
11
220
147
76
185
11
0
195
0
1
196
0
1
190
35
5
211
140
66
84
23
22
188
52
43
189
41
32
201
47
36
175
54
47
84
52
31
209
130
61
195
39
16
192
4
1
213
118
59
108
79
47
157
48
40
182
43
32
189
60
47
79
21
15
202
139
70
192
42
14
196
0
1
195
0
1
185
19
3
212
141
70
72
23
18
183
55
45
183
44
36
185
47
41
181
44
41
172
39
34
175
42
39
178
42
38
178
38
33
185
45
40
186
45
39
180
41
36
184
49
41
186
54
46
81
25
22
210
138
67
187
35
4
193
1
1
194
1
1
187
10
1
224
143
62
72
34
21
182
70
60
191
64
51
198
69
57
170
69
59
118
86
52
223
146
66
191
26
3
190
4
1
223
133
57
93
65
29
169
100
83
190
103
81
143
84
70
147
107
51
211
109
49
194
1
1
195
1
1
192
3
1
221
131
63
98
68
25
171
81
67
200
79
59
195
62
51
187
60
54
177
45
41
179
45
43
180
51
49
176
48
44
194
58
54
193
56
53
174
71
65
163
81
78
130
68
69
133
104
54
220
137
57
186
16
4
194
1
1
190
3
0
211
122
56
112
83
45
138
80
76
184
98
91
159
91
87
65
42
25
213
143
69
188
7
0
194
0
1
190
1
1
203
89
45
183
129
68
79
56
52
150
104
101
155
101
100
154
92
92
125
75
78
136
101
51
212
113
55
194
1
1
196
1
0
194
2
1
218
125
55
113
81
42
146
88
87
175
98
96
158
90
91
63
34
36
205
144
67
186
51
14
192
1
1
193
0
1
194
2
1
207
89
39
189
134
66
69
41
46
137
85
92
132
79
83
138
90
93
40
22
3
228
147
68
189
8
0
196
0
1
196
0
1
201
72
26
178
128
70
97
62
63
162
100
101
162
99
100
49
27
24
208
140
62
186
45
15
190
0
1
190
1
1
183
16
1
222
141
61
70
47
19
113
72
74
161
101
106
146
88
93
152
92
97
156
92
98
150
92
98
147
90
94
167
101
104
167
97
103
163
91
97
178
95
99
187
94
97
180
89
92
172
92
97
164
88
97
168
87
95
173
94
101
162
85
94
162
86
95
165
96
107
148
83
92
144
86
94
144
89
97
129
78
86
123
77
86
128
82
92
114
67
74
126
78
86
124
80
87
117
72
79
127
80
87
122
80
86
112
72
80
127
81
87
124
78
85
108
67
74
118
73
81
117
66
75
112
55
67
120
65
77
120
58
72
109
40
55
114
45
62
114
45
60
113
40
55
119
42
56
117
41
56
108
36
52
121
49
63
129
63
73
119
64
72
142
87
94
132
66
74
114
50
60
126
59
69
124
54
66
118
45
58
121
49
64
117
44
60
116
41
55
118
45
61
114
43
59
118
41
56
121
41
57
111
36
52
112
34
49
120
35
49
114
32
45
114
31
44
125
39
51
125
39
52
123
35
49
128
40
52
123
39
50
123
51
62
123
53
65
122
57
67
129
68
76
129
68
73
122
63
70
117
68
77
108
72
77
100
70
75
108
77
81
114
81
84
104
74
78
104
72
76
114
29
37
115
29
38
120
29
38
113
29
39
125
39
47
126
37
46
129
40
48
121
35
45
126
41
50
126
42
48
117
36
43
125
46
52
128
47
53
122
37
45
124
46
51
131
52
53
116
36
41
135
53
54
133
55
53
126
48
45
135
59
50
137
63
45
137
63
39
146
69
45
137
59
39
142
64
43
148
71
50
133
57
35
146
71
51
144
68
48
138
60
41
146
63
52
144
62
44
140
55
42
148
61
47
142
56
42
148
60
45
150
62
45
145
56
43
150
60
48
149
58
49
138
47
43
145
58
55
146
58
57
134
48
49
145
64
68
143
60
64
141
56
58
148
66
71
143
62
66
140
59
63
147
68
73
141
62
67
147
65
71
151
69
73
144
63
69
149
67
71
151
65
70
142
60
64
153
73
77
166
78
80
151
64
66
154
77
83
152
76
81
146
67
72
153
78
80
150
77
82
149
72
77
158
75
78
158
75
77
162
75
77
171
76
76
167
70
68
174
70
67
177
73
68
165
72
72
165
76
76
175
74
73
173
69
69
174
66
67
170
63
65
162
58
63
160
58
62
156
57
64
147
44
52
156
51
58
162
57
63
164
62
63
42
6
10
222
148
78
187
11
0
195
0
1
196
0
1
190
35
7
208
139
65
88
28
27
190
50
42
198
47
38
203
48
36
194
47
36
97
30
26
172
118
61
208
99
46
186
5
1
214
117
58
111
80
49
162
52
44
192
51
39
193
61
49
82
22
16
202
138
70
192
42
15
195
0
1
195
0
1
185
18
3
214
141
69
78
28
22
183
55
45
184
44
39
184
48
42
175
41
38
178
43
39
177
43
39
177
41
37
182
43
38
182
42
40
178
40
36
185
46
40
187
50
42
185
53
46
84
28
24
210
139
64
188
35
4
194
1
1
194
1
1
186
10
1
223
141
60
69
35
23
186
86
74
204
97
80
187
82
66
192
86
72
69
28
24
189
135
64
197
72
28
192
6
1
224
131
57
96
66
31
164
89
79
187
97
80
140
82
72
147
108
50
210
108
47
193
2
1
195
1
1
192
3
1
220
128
60
96
66
23
162
84
76
191
80
63
191
68
58
190
55
51
181
49
47
187
52
49
187
51
48
180
48
44
190
57
51
184
71
65
169
87
79
152
89
83
87
57
56
158
119
57
207
102
44
193
1
1
194
1
1
196
54
22
220
148
63
94
72
43
150
84
80
186
99
91
178
98
92
59
29
29
204
143
73
189
32
7
195
1
0
193
1
1
182
19
3
202
129
59
85
63
50
146
96
92
153
96
95
160
101
98
131
85
85
136
102
51
212
113
53
194
1
1
196
1
1
193
2
0
217
126
56
114
81
43
147
90
89
170
98
93
169
95
92
141
85
82
99
66
26
222
127
58
188
1
1
194
0
1
196
0
1
192
37
11
208
138
66
70
40
42
154
98
100
151
98
97
149
101
101
41
22
3
228
147
69
189
8
1
196
0
1
195
0
1
200
72
26
179
128
70
101
64
66
169
102
104
169
102
103
56
30
32
160
112
52
210
108
46
189
1
1
192
0
1
191
2
0
199
81
29
178
130
61
100
65
66
161
96
102
157
90
94
161
93
97
157
88
94
155
91
98
179
97
99
192
93
91
190
96
95
185
99
99
180
90
92
185
88
91
184
86
90
175
86
92
167
87
96
162
80
89
154
85
94
153
84
95
158
84
93
147
84
91
138
88
97
140
86
95
129
72
81
133
77
86
128
72
83
127
69
81
124
70
80
129
77
86
132
78
86
125
76
84
122
77
84
130
82
90
130
80
89
126
74
82
128
81
90
121
77
84
128
82
88
121
73
81
119
61
75
128
55
67
120
50
65
113
44
59
113
45
61
114
43
58
120
44
61
119
43
59
124
51
65
132
57
70
133
69
80
130
75
83
133
82
88
132
78
86
125
64
72
133
63
73
124
49
61
124
50
64
127
51
65
125
45
59
129
51
66
128
49
64
130
48
62
132
50
63
131
46
60
126
41
54
122
39
54
116
36
49
119
39
52
117
36
51
117
34
48
123
37
50
123
36
51
122
36
51
123
42
56
109
39
53
123
63
73
130
75
83
124
72
80
138
80
85
144
76
81
129
61
69
134
69
75
126
68
75
120
69
75
130
75
79
117
61
66
119
70
77
124
72
75
117
27
38
108
31
40
112
33
40
116
34
42
120
36
43
122
38
44
130
47
50
124
40
45
128
48
52
128
45
51
128
43
47
131
50
53
131
50
51
124
43
47
129
53
54
135
58
55
122
42
45
141
63
55
140
63
55
134
58
49
144
70
48
150
76
48
144
70
41
153
75
44
150
70
41
151
72
41
156
75
45
146
66
36
154
74
44
155
73
42
147
68
37
156
76
44
150
70
41
150
67
40
156
70
42
152
66
41
154
65
40
160
67
41
153
61
37
157
65
41
160
66
41
157
60
41
154
60
45
157
61
51
147
53
45
154
62
54
152
59
55
148
56
53
154
65
61
146
59
60
144
60
63
154
71
70
144
59
62
148
65
69
148
66
69
141
58
61
148
63
66
146
62
68
145
61
64
152
66
71
155
66
71
140
58
65
151
73
80
152
75
81
146
68
75
152
77
82
150
76
80
142
68
75
154
76
82
152
73
80
146
69
75
153
73
80
146
73
78
152
73
76
165
76
78
153
67
68
158
72
73
162
68
69
150
52
59
156
53
60
154
49
57
142
43
53
140
44
54
146
48
58
142
36
47
158
45
54
169
54
60
163
51
53
45
6
10
222
149
77
188
12
0
196
0
1
196
0
1
190
36
6
207
139
64
87
28
25
190
47
37
197
45
32
198
44
33
197
43
31
151
42
34
39
13
1
213
138
70
185
40
16
213
117
57
113
81
48
159
46
40
192
51
37
191
58
47
81
20
15
203
137
71
192
43
16
195
1
1
194
0
2
185
18
3
214
142
68
78
27
21
185
53
45
189
47
40
181
45
39
175
36
33
180
41
37
175
40
38
171
34
32
179
41
39
179
40
38
175
38
34
181
44
40
184
48
42
179
49
44
86
31
28
211
139
66
188
34
4
194
1
1
195
1
1
186
11
1
223
142
58
72
43
30
191
110
92
198
108
87
198
108
85
202
106
87
150
80
68
126
90
46
224
138
65
188
14
1
226
132
56
97
66
30
173
102
89
183
104
86
143
92
80
146
107
49
210
108
46
192
2
1
194
2
1
191
3
1
219
128
59
95
65
21
160
93
88
187
93
83
203
71
59
210
76
66
197
57
52
192
50
46
193
54
49
189
55
52
180
66
60
172
82
76
174
99
88
153
98
85
57
39
18
220
153
74
200
63
24
198
1
1
196
1
1
197
66
28
181
125
57
88
53
48
182
99
89
192
104
92
192
105
93
146
90
84
146
107
56
220
119
54
195
5
0
196
1
0
192
7
1
217
121
47
136
104
49
135
83
76
175
105
98
178
107
100
130
82
81
136
101
50
212
112
53
192
2
0
196
0
1
193
2
1
218
126
56
114
82
43
150
88
86
177
99
92
174
99
94
151
91
90
63
39
9
221
135
60
188
1
1
195
0
1
196
0
1
192
37
12
207
136
65
76
44
42
169
104
100
168
105
101
161
104
98
43
23
3
228
146
68
188
8
0
195
0
1
195
0
1
198
70
26
178
127
70
107
71
70
165
99
100
168
99
100
143
90
92
77
48
17
213
125
58
192
17
6
195
0
1
197
0
2
193
44
11
194
134
60
69
49
40
170
96
97
192
98
97
187
100
100
178
93
99
173
92
97
182
97
100
178
92
95
174
93
98
176
94
98
162
86
92
154
88
94
154
91
96
147
85
92
143
82
89
144
86
93
135
83
90
143
86
94
151
88
97
136
73
83
151
86
94
133
77
88
115
63
75
137
81
89
128
72
79
120
67
77
129
78
87
125
70
78
127
74
82
129
80
89
128
77
85
132
76
84
131
75
83
122
70
78
130
80
89
127
78
84
124
74
81
121
69
78
127
60
72
122
47
60
111
43
59
116
49
63
107
40
56
108
38
55
120
44
60
125
50
63
128
52
65
128
56
67
127
72
79
130
79
87
132
76
84
120
57
70
121
51
64
132
51
62
120
44
57
126
50
64
132
52
65
126
39
53
130
44
59
135
48
60
133
37
48
143
46
55
141
45
53
128
35
46
134
42
53
127
43
56
124
39
51
132
51
64
133
56
67
134
66
75
134
67
77
134
72
81
137
80
88
127
74
82
138
84
90
146
82
88
138
75
81
150
76
81
148
70
75
138
64
71
141
73
78
130
66
71
134
69
73
134
67
70
132
67
71
129
65
69
127
69
73
122
37
44
111
30
38
121
36
42
116
36
44
116
36
43
132
49
49
128
46
48
121
46
50
125
50
51
128
45
46
132
51
48
130
54
52
128
50
46
136
56
51
127
48
48
135
53
48
140
57
50
133
57
45
137
62
48
144
71
50
137
66
36
151
78
47
152
76
42
145
67
35
152
75
41
151
73
40
150
68
35
155
75
38
152
73
40
155
73
39
159
76
40
150
68
35
158
72
37
160
70
36
155
67
34
161
70
38
167
67
38
165
59
31
171
67
38
171
66
37
167
64
36
163
65
39
159
62
39
164
61
40
163
64
41
155
61
41
161
62
41
165
65
46
153
56
43
164
60
49
167
59
51
156
53
44
165
59
54
165
65
61
158
57
56
165
66
64
161
62
59
162
60
59
161
71
71
155
66
71
162
65
67
160
66
69
159
66
70
162
66
69
158
74
80
151
73
78
151
77
82
153
79
85
149
74
80
149
78
85
148
76
82
148
69
76
154
76
81
148
71
77
151
75
80
151
76
81
152
78
83
150
66
71
165
75
81
151
57
64
149
50
58
143
47
57
142
45
55
144
40
49
152
39
47
161
37
45
176
46
52
173
55
56
46
7
10
221
148
76
188
12
0
196
0
1
197
0
1
191
35
6
208
140
65
95
33
29
191
49
39
194
44
31
198
49
37
199
50
35
188
52
40
83
28
25
185
133
64
194
86
35
211
118
54
114
83
48
157
47
39
192
52
38
195
60
49
84
22
18
203
136
70
193
44
16
196
0
1
195
0
1
186
18
2
215
141
68
73
24
16
185
54
44
193
46
37
190
48
38
185
45
39
186
47
40
184
46
41
180
40
36
183
42
37
189
46
39
189
47
38
187
48
40
189
58
48
181
60
51
89
40
34
210
137
66
188
33
4
193
1
1
194
1
1
186
10
2
221
143
61
73
45
32
191
110
91
196
106
85
196
105
84
196
106
87
187
100
84
79
45
36
209
144
79
187
50
16
225
134
58
97
66
30
175
100
86
190
104
87
141
86
75
146
106
50
210
109
48
193
2
1
194
1
1
190
3
1
219
126
59
95
64
22
166
94
82
186
90
75
186
74
64
199
63
55
206
68
57
196
58
49
192
64
55
190
79
73
173
76
70
187
94
86
187
106
94
163
105
92
60
41
18
222
143
73
191
4
1
196
0
1
196
1
1
202
74
36
174
123
61
135
83
73
194
107
89
190
108
91
192
107
92
185
108
95
68
43
24
228
146
62
191
9
1
196
0
1
194
2
1
208
100
35
145
108
47
122
73
69
179
104
96
181
105
94
138
84
81
135
100
49
211
112
54
193
1
0
195
0
0
193
2
1
218
126
56
115
81
42
160
92
86
187
103
93
187
104
93
174
105
95
63
39
10
222
137
63
189
2
1
194
1
0
194
0
0
189
38
11
206
136
64
73
38
37
177
104
99
181
103
94
178
109
99
46
24
6
226
146
68
188
7
0
196
0
1
196
1
1
198
68
25
178
127
71
96
66
67
153
96
100
173
101
100
170
104
99
69
43
19
219
146
67
206
72
29
196
1
1
195
0
1
188
13
1
214
125
54
125
94
56
146
93
92
171
97
101
171
91
95
183
92
94
166
88
96
171
89
91
178
90
92
176
93
97
160
83
89
169
89
95
158
88
96
149
89
98
145
89
99
140
86
96
140
81
93
141
84
95
143
80
90
147
75
83
145
77
89
137
73
83
138
75
83
134
77
86
135
82
91
135
82
88
135
84
92
138
80
86
141
81
89
157
90
100
148
83
91
158
85
92
143
82
88
141
91
97
135
85
91
138
80
88
134
75
84
123
65
76
126
60
70
126
50
62
131
56
67
122
51
64
115
41
54
117
44
59
119
45
60
125
48
62
130
47
62
127
46
59
136
58
69
135
72
81
137
78
87
128
65
73
132
65
74
130
57
66
133
55
62
137
55
64
141
58
67
136
51
61
136
49
58
145
55
62
148
50
54
148
45
52
145
48
58
139
45
57
128
37
51
132
46
60
135
54
67
128
55
66
141
78
87
139
83
91
130
80
88
137
89
96
132
85
92
133
86
94
146
82
89
144
77
83
143
73
80
154
73
79
149
65
71
147
67
72
144
69
76
132
63
68
132
65
72
132
68
77
123
55
63
132
63
71
136
68
75
115
57
65
140
54
50
139
59
54
127
53
49
126
50
51
128
54
53
128
45
46
128
46
45
127
48
46
131
52
50
125
44
44
130
49
46
132
52
48
135
52
47
139
57
47
133
53
45
141
65
49
139
64
48
136
64
41
147
75
45
152
79
44
143
70
36
155
80
45
157
78
41
149
69
34
156
78
40
154
75
38
148
69
34
154
76
38
150
71
37
153
71
36
159
78
41
147
66
30
160
77
38
158
74
38
151
65
29
166
73
36
171
64
33
169
57
28
179
65
37
177
61
34
175
58
31
181
65
38
172
59
35
173
59
35
178
64
37
173
61
35
173
61
35
178
64
38
169
56
33
177
61
36
172
61
40
166
57
35
175
60
38
174
61
41
165
50
33
176
58
40
176
56
42
172
47
38
181
50
42
175
53
49
173
54
51
177
56
52
175
54
51
177
54
51
184
60
57
171
55
55
173
62
64
170
61
64
160
55
59
167
63
68
164
69
75
146
56
65
153
63
70
154
61
69
153
59
67
160
62
70
158
65
74
149
51
59
160
62
70
141
45
53
143
43
53
153
50
58
146
39
48
152
39
48
167
40
47
171
34
39
184
43
45
188
59
57
45
5
7
221
147
77
188
12
0
197
0
2
199
0
1
193
35
5
210
141
65
95
35
31
191
51
40
193
49
37
161
43
34
157
51
39
163
48
37
118
44
36
96
68
34
216
132
59
208
118
54
117
86
50
163
55
46
187
51
40
188
58
48
82
24
20
205
137
70
193
45
18
196
0
1
196
0
1
187
17
2
215
139
66
70
21
14
186
58
48
186
42
34
187
47
38
182
40
37
181
41
36
182
44
40
185
44
40
182
40
35
188
48
42
186
48
40
180
45
39
187
59
50
187
69
59
88
40
34
209
136
64
188
33
3
195
1
1
195
1
1
185
10
1
218
141
58
72
45
32
188
108
88
192
108
87
169
100
82
161
95
80
173
103
80
122
78
57
115
82
44
216
131
68
223
136
57
96
67
29
171
97
85
167
98
89
133
93
88
146
106
49
210
108
47
190
2
1
193
2
1
189
3
1
217
124
55
94
64
20
161
97
88
182
89
77
184
93
84
173
80
77
177
68
63
195
76
66
184
68
60
170
81
76
188
100
90
191
106
95
189
111
97
167
108
95
67
45
17
218
136
65
191
4
0
194
0
1
194
0
1
202
81
38
171
123
60
136
82
73
194
104
87
191
105
88
191
105
93
187
110
96
66
42
23
224
144
60
188
10
1
195
0
0
193
1
0
208
91
33
158
113
55
105
65
61
177
105
98
172
97
90
149
93
85
135
100
49
211
111
54
191
1
0
194
1
0
193
3
1
217
124
55
116
81
41
165
98
88
192
108
91
190
106
91
176
105
94
67
42
11
222
137
61
190
2
1
194
1
1
192
1
0
186
39
11
204
138
64
76
42
40
184
105
96
190
105
91
180
106
94
46
24
4
225
145
67
188
7
0
196
0
1
197
1
1
198
67
25
178
126
70
100
66
66
163
99
100
174
98
97
174
103
101
57
28
26
171
117
53
209
88
31
194
1
1
194
1
1
190
1
1
207
108
49
127
92
54
148
94
89
175
100
101
179
98
99
175
94
97
159
92
98
156
88
93
167
95
100
169
98
105
157
86
92
159
91
99
154
91
98
142
85
91
144
91
100
137
84
93
135
78
87
144
86
95
136
77
85
138
74
83
147
78
87
142
75
84
147
76
85
154
83
92
148
76
81
174
92
92
181
98
98
182
89
90
176
93
96
177
99
106
154
79
84
160
92
98
152
92
98
159
99
103
153
91
97
145
80
90
133
68
78
147
75
85
135
63
71
123
59
69
137
68
76
128
56
67
116
45
56
127
58
70
130
63
75
120
47
61
127
51
64
139
55
67
144
55
63
145
65
71
139
63
71
132
52
58
146
62
67
142
59
63
143
53
54
156
62
60
149
57
57
139
49
53
151
57
59
152
55
58
143
51
56
145
55
64
141
57
68
134
54
66
129
60
74
126
71
83
130
80
90
136
84
92
133
84
93
141
89
96
136
85
93
138
90
99
135
88
95
136
87
93
144
83
89
147
80
86
145
73
78
157
75
80
149
66
72
148
67
73
149
71
76
140
66
70
140
67
71
138
66
72
129
58
64
131
61
70
132
62
70
123
60
68
138
56
47
135
54
44
124
48
39
129
52
42
131
56
46
122
50
41
128
54
46
126
49
40
132
58
49
128
53
51
126
54
39
133
60
46
139
66
50
134
61
39
141
68
46
144
72
48
139
67
41
151
80
45
147
76
41
143
73
39
151
79
42
157
79
42
156
74
36
161
77
41
153
69
36
153
73
38
156
78
43
145
69
32
152
77
41
156
79
42
155
75
37
157
76
39
157
78
41
154
74
39
157
73
37
163
71
36
170
68
37
175
60
33
175
57
32
174
57
32
182
56
33
189
52
31
192
55
34
195
54
32
193
53
31
193
56
32
194
56
33
193
58
34
192
60
35
188
56
34
188
60
38
187
58
37
187
54
35
187
61
42
182
60
41
182
56
37
182
60
41
180
57
43
188
48
36
196
53
40
190
52
41
184
50
39
196
54
43
202
54
41
201
51
40
202
49
36
200
48
38
197
46
38
199
49
41
194
47
40
186
44
40
183
47
47
180
47
46
182
48
47
168
40
45
169
38
42
181
42
45
174
40
45
161
37
43
171
41
46
178
41
43
177
43
45
171
36
38
178
37
38
191
42
41
196
43
38
203
50
44
196
58
53
49
6
9
222
146
76
189
12
0
195
2
2
187
3
3
193
35
5
212
143
68
96
31
26
194
53
39
151
51
40
75
47
26
162
122
68
103
76
47
134
58
50
64
32
21
209
144
68
212
133
54
119
88
50
174
51
37
216
53
36
207
57
43
85
21
16
206
136
69
194
44
17
193
3
3
182
3
3
187
18
2
216
139
65
70
22
15
188
59
46
187
46
34
189
58
44
184
53
43
180
43
36
178
39
35
184
42
37
185
41
36
188
45
40
189
53
43
187
68
56
187
77
61
184
88
72
91
49
38
210
138
64
190
33
3
193
3
2
183
4
3
180
10
1
213
137
57
72
45
33
188
106
87
159
98
79
67
49
31
153
113
62
121
89
55
116
80
63
47
25
17
211
142
73
223
144
59
94
63
28
164
92
82
176
103
93
132
90
83
148
107
50
210
110
47
188
2
0
178
4
2
180
4
1
217
125
54
97
66
21
165
108
98
192
110
95
181
91
82
168
84
80
164
78
72
171
88
79
170
84
76
184
91
80
190
105
92
192
114
100
194
121
104
105
69
60
160
113
55
214
115
52
192
3
1
184
2
2
187
7
1
213
115
48
164
123
61
137
83
71
194
106
87
192
108
90
193
107
91
189
113
98
68
43
28
222
142
59
187
10
1
191
2
2
183
3
1
189
47
11
214
143
67
76
45
22
185
110
95
198
109
90
153
93
80
135
100
50
209
110
53
187
2
0
180
3
2
186
4
2
215
124
51
114
81
39
166
99
85
195
108
89
197
109
91
143
89
81
79
51
17
215
124
59
190
3
1
181
3
2
183
2
1
192
70
26
198
143
70
69
38
35
184
105
95
191
105
91
183
108
96
45
24
5
228
146
71
187
7
0
188
3
2
184
5
3
197
66
24
178
126
69
104
67
65
178
105
103
180
100
95
176
97
97
137
82
84
155
111
55
202
90
33
189
2
1
194
1
1
192
2
1
211
111
50
132
96
56
140
88
77
181
99
96
176
98
99
153
88
93
148
87
92
143
85
92
141
84
92
140
82
90
145
79
87
141
80
87
139
83
90
137
80
86
146
80
86
143
81
90
144
80
88
159
76
79
169
82
85
160
83
89
171
79
83
183
87
90
163
87
92
162
87
91
181
89
88
192
103
99
191
103
98
175
91
88
182
90
90
173
92
95
165
88
95
176
90
92
181
95
97
168
82
87
169
81
85
159
77
84
138
61
72
155
62
70
151
61
67
133
58
69
136
63
74
138
57
68
136
53
62
136
65
75
125
53
67
127
49
62
140
53
65
159
62
70
160
58
61
158
65
64
159
66
65
145
54
55
153
60
61
159
56
54
160
52
48
159
53
52
158
53
52
159
52
51
165
53
54
157
53
58
147
57
65
154
75
87
156
76
83
146
75
82
145
97
103
134
90
98
135
88
96
143
93
100
137
90
100
141
89
98
147
93
101
138
92
100
139
91
97
146
97
102
135
86
93
146
92
99
149
86
91
143
73
79
155
75
81
152
72
77
141
62
67
148
73
76
142
67
72
137
61
67
139
63
70
132
61
70
126
55
62
129
61
70
133
59
45
134
59
46
131
57
46
132
58
43
134
61
49
125
51
39
137
62
49
130
54
41
135
60
45
140
67
47
132
60
36
141
71
46
143
72
45
134
62
34
146
74
45
148
77
43
139
67
33
152
79
42
146
74
39
142
68
35
155
76
39
156
74
38
156
72
35
161
75
38
153
68
32
155
72
36
161
79
40
145
66
27
153
78
42
152
76
41
143
65
29
157
78
41
153
74
36
147
68
32
158
78
40
149
70
33
155
72
37
162
71
36
156
66
32
160
71
35
169
70
35
171
59
29
179
60
32
179
61
31
176
60
29
181
63
34
186
56
31
188
54
30
189
57
31
192
55
31
192
53
32
195
56
35
192
50
30
196
51
33
201
53
35
195
52
33
193
52
34
196
59
44
190
46
33
197
52
36
204
59
42
193
49
34
204
56
39
207
58
37
201
52
29
209
62
36
208
62
35
201
53
28
207
60
35
206
59
36
202
53
32
204
54
37
201
54
40
199
50
42
196
46
43
195
42
40
193
48
43
192
55
51
184
50
46
190
47
44
195
48
44
190
40
37
195
43
38
198
47
40
195
43
38
204
47
40
203
52
46
191
59
53
49
8
9
221
148
77
182
15
0
180
6
4
172
6
4
181
34
6
212
143
68
100
31
26
188
57
46
76
27
24
192
133
72
214
133
53
142
107
52
128
37
28
134
57
49
118
87
48
195
147
71
105
80
51
180
56
42
215
51
35
207
54
41
87
22
17
207
138
69
190
45
17
177
5
4
167
6
5
176
20
3
216
139
64
74
24
16
186
64
50
184
56
43
183
74
59
174
73
59
180
69
59
175
49
45
179
45
40
185
51
44
189
62
50
182
78
64
190
98
80
190
86
69
192
96
77
100
57
45
212
141
69
187
33
4
182
5
4
169
6
5
169
12
3
210
134
55
73
45
32
184
106
85
104
70
58
170
120
65
200
116
48
168
118
57
126
83
66
88
54
44
126
91
47
198
143
69
88
59
34
181
109
93
199
120
100
152
102
86
149
108
51
211
112
50
178
3
3
160
6
5
166
5
4
214
124
53
97
65
20
165
107
93
192
116
96
194
115
97
193
113
98
191
115
99
188
116
100
191
114
100
192
113
97
191
115
98
192
116
100
195
123
105
65
37
30
216
152
62
200
78
31
185
4
2
166
4
3
171
14
2
213
138
63
99
67
51
174
104
89
198
110
90
194
111
90
195
113
95
189
112
95
70
44
29
222
145
61
181
12
1
175
6
4
166
6
4
176
29
3
220
143
60
80
49
18
187
112
94
200
111
89
162
99
84
137
100
49
208
110
53
177
3
2
167
5
5
169
6
2
213
125
49
115
81
38
169
102
88
197
109
89
198
109
91
108
64
57
187
140
68
206
101
41
179
6
3
167
6
5
170
7
3
204
111
45
121
89
43
113
69
63
191
109
93
194
110
91
174
104
92
46
25
7
227
149
73
182
10
1
172
5
3
167
7
5
193
70
26
178
127
69
118
72
65
193
106
93
189
104
92
182
102
98
146
88
88
142
104
50
207
106
39
182
4
1
185
3
3
189
5
2
206
102
39
192
137
63
57
30
24
177
104
101
178
99
99
164
89
91
148
83
91
153
91
98
140
83
90
145
86
92
152
88
95
141
79
85
143
81
87
158
85
91
164
76
80
166
79
85
180
84
86
187
86
84
187
90
87
194
94
89
184
94
93
167
88
89
173
88
89
173
90
89
178
87
87
192
99
96
187
95
90
184
101
95
186
102
95
185
104
97
181
105
102
184
96
92
186
87
84
183
77
77
170
61
64
162
56
59
154
58
64
153
56
60
142
47
52
134
49
60
135
50
58
142
50
60
149
54
59
141
53
64
139
52
62
145
58
68
156
63
69
159
56
58
168
54
52
173
60
51
167
54
48
167
56
51
172
55
49
170
52
47
174
54
49
164
51
47
165
52
50
164
52
54
150
53
58
157
73
81
155
90
96
148
89
96
151
87
93
142
85
91
141
91
98
139
89
96
143
89
96
150
93
101
143
87
94
146
87
95
150
92
101
144
89
98
146
86
94
151
96
104
136
84
93
142
89
97
143
94
101
135
82
90
147
89
95
145
84
90
135
69
76
146
80
86
140
71
78
136
66
73
139
74
80
129
66
74
120
57
66
126
68
77
128
50
41
133
56
43
134
60
48
128
51
38
139
63
50
142
63
47
127
49
40
138
62
49
142
67
46
138
63
41
145
73
42
144
73
43
143
73
41
148
76
40
144
74
41
146
76
40
148
76
41
143
72
38
148
76
40
151
76
40
146
71
35
155
78
41
155
74
38
148
69
35
156
77
39
154
75
38
149
74
38
152
76
38
149
75
40
149
75
38
154
77
39
149
73
37
152
76
39
149
72
36
147
71
36
148
72
38
150
74
40
149
71
37
150
72
38
154
74
39
153
72
37
156
70
34
163
70
35
169
70
36
169
68
35
169
68
35
173
64
32
175
64
33
174
66
33
179
61
33
179
59
33
182
59
35
187
57
34
193
62
36
194
63
37
194
58
35
197
57
37
194
53
38
195
53
36
202
65
43
201
60
40
203
57
39
205
56
38
209
62
39
211
71
41
211
77
42
216
83
46
212
81
43
213
80
43
210
77
43
208
73
40
212
73
42
210
70
43
204
57
38
206
63
45
206
55
46
197
54
43
196
68
60
193
65
58
195
52
46
196
45
39
199
49
42
195
46
38
200
51
41
201
47
38
200
44
37
203
56
51
192
65
60
49
10
10
221
147
76
173
19
1
168
6
5
169
7
5
165
32
4
210
142
67
96
31
27
128
39
34
115
88
47
219
136
66
203
104
45
146
109
54
142
40
29
186
51
38
130
49
39
108
49
38
148
59
46
203
60
43
212
58
40
204
59
44
86
25
18
206
140
69
178
43
15
172
7
5
173
9
6
167
21
5
215
138
65
79
31
22
186
70
55
193
68
54
187
75
59
178
74
60
190
79
66
179
56
48
179
63
55
193
78
66
198
75
56
200
97
72
203
111
81
199
111
82
203
117
86
102
61
47
213
140
69
176
34
5
170
6
4
175
6
5
162
14
4
211
134
56
78
47
33
154
97
76
74
53
23
211
136
67
181
80
33
167
118
56
134
81
65
197
117
92
125
81
65
120
80
67
170
109
91
204
123
96
202
120
93
157
103
84
149
107
53
207
111
50
167
7
5
168
7
6
167
7
5
214
124
54
96
64
20
166
107
94
194
117
98
195
116
96
190
116
99
191
117
97
186
118
97
191
122
101
188
120
100
185
118
97
189
122
102
191
124
105
62
35
28
220
152
64
186
62
24
171
5
4
169
6
6
161
18
2
213
140
67
106
64
54
196
115
96
200
114
92
199
115
92
197
114
95
192
115
97
83
56
43
213
146
66
177
40
13
165
7
4
166
7
6
159
24
4
223
146
67
81
51
18
189
115
96
201
113
89
165
103
85
138
100
47
202
111
53
161
4
4
158
4
3
162
6
4
208
125
50
114
80
37
170
101
85
201
112
91
180
105
87
72
43
34
205
143
66
180
56
21
169
7
5
172
9
6
168
37
10
213
142
61
92
71
40
150
92
81
196
109
90
195
107
88
189
109
92
51
28
11
225
150
74
167
12
3
168
7
5
166
7
5
186
72
29
176
128
70
120
74
66
197
109
93
198
110
92
194
107
95
158
93
86
136
102
50
215
128
48
176
10
4
173
6
5
169
6
4
193
86
31
212
145
58
61
32
23
176
105
101
189
103
97
199
99
90
184
91
89
181
98
100
170
95
98
164
89
93
173
93
93
173
86
86
182
89
88
187
89
84
195
93
87
197
100
89
200
104
87
205
106
86
206
107
85
204
107
86
196
104
89
193
107
97
192
101
91
192
103
94
189
101
93
191
101
93
190
104
95
189
104
93
185
103
92
189
102
94
187
95
86
176
74
70
175
60
58
172
57
60
168
50
56
159
44
48
155
49
54
150
50
56
135
41
50
138
47
58
148
51
58
147
45
54
147
48
57
143
46
54
156
50
56
161
53
60
158
51
57
176
56
52
196
67
55
189
62
54
185
53
48
192
64
56
191
62
53
175
51
48
180
58
57
179
56
56
171
59
63
170
72
79
159
83
91
157
90
97
154
95
101
146
88
97
147
86
94
153
89
97
146
86
94
152
88
96
154
90
98
145
86
95
148
88
97
154
94
100
148
86
93
155
94
102
151
91
98
147
89
96
152
91
99
146
87
94
141
86
95
144
92
101
134
87
95
129
86
93
134
90
98
128
83
89
132
85
91
135
88
93
130
82
89
129
79
87
126
76
83
118
71
79
128
51
39
127
53
39
128
56
43
120
45
32
130
54
44
130
52
40
123
46
36
129
56
41
136
63
39
131
58
34
142
72
40
140
70
39
136
67
34
146
76
40
139
69
35
141
71
35
148
74
40
139
66
31
144
71
36
150
77
39
139
63
28
159
74
38
161
69
35
156
63
31
163
70
36
156
70
37
145
63
32
151
74
38
141
67
33
143
70
35
152
77
40
138
65
31
143
71
37
146
72
39
135
62
29
145
72
39
147
74
42
136
62
31
148
72
40
147
71
39
143
66
34
155
75
41
148
66
33
153
67
35
163
69
36
158
60
30
167
65
35
172
67
37
164
57
30
169
60
35
173
60
38
173
55
36
180
56
37
182
62
39
179
57
37
190
60
41
188
54
38
187
55
38
194
57
39
190
51
34
195
51
35
203
59
42
199
58
40
196
53
34
208
63
41
207
65
39
210
70
42
210
70
40
208
68
37
213
75
42
213
75
43
207
65
35
214
73
43
213
70
40
212
69
38
218
73
46
206
62
36
208
68
46
204
65
48
198
54
44
195
47
39
202
50
41
197
46
37
202
50
40
211
64
46
208
53
39
206
57
48
196
70
63
51
11
11
220
147
77
170
19
1
166
6
5
169
8
5
160
30
3
208
140
65
59
23
21
85
43
30
194
129
59
185
58
17
207
103
44
150
110
55
145
47
33
205
57
38
204
53
35
200
55
36
207
58
41
201
54
37
202
56
40
203
67
49
84
25
17
207
139
69
179
43
15
168
7
5
172
9
6
167
21
5
216
139
66
83
37
28
190
80
64
200
78
59
192
78
60
180
74
61
185
66
54
191
59
48
198
71
57
200
69
52
201
80
63
188
85
67
197
100
78
197
90
67
203
109
83
99
56
44
212
139
67
174
34
6
170
7
5
169
7
4
164
13
4
214
136
58
58
37
24
78
56
47
156
105
48
184
78
33
179
74
29
168
117
56
132
82
67
199
115
91
199
117
92
200
118
94
201
118
95
200
114
93
197
111
91
155
98
84
149
106
49
204
110
48
163
8
7
169
8
7
167
8
5
213
126
57
95
64
21
165
106
94
195
118
103
201
120
100
194
117
101
194
115
98
196
118
98
196
123
102
192
124
101
191
122
99
190
123
100
191
125
105
60
34
28
227
149
68
170
18
0
168
6
5
164
6
4
161
18
3
212
139
67
110
69
57
200
119
97
201
115
90
202
118
91
201
117
93
197
117
96
110
73
64
136
96
42
203
107
44
152
5
2
163
8
5
164
10
5
199
119
65
87
54
23
188
116
95
202
116
89
167
105
85
138
101
46
201
113
53
156
5
5
158
5
4
160
4
3
205
123
51
112
79
38
127
80
71
150
89
76
91
56
40
176
130
63
212
116
51
179
15
5
170
9
6
165
22
7
204
120
57
166
125
61
105
68
60
188
108
92
196
109
88
198
110
90
191
112
93
46
24
8
221
149
74
157
11
3
168
6
5
169
8
6
184
73
29
177
130
72
120
74
65
198
112
93
199
111
92
199
110
92
184
110
98
78
49
9
223
146
63
169
12
3
175
9
6
170
7
5
162
6
3
214
139
64
63
34
22
184
106
95
195
104
90
202
100
85
204
87
73
186
75
66
199
82
70
204
90
75
199
84
70
204
85
71
191
89
79
206
99
79
211
99
76
218
108
76
221
111
73
220
110
74
218
108
76
220
106
74
209
98
76
204
94
78
198
95
80
201
98
82
196
96
81
197
95
81
191
94
83
188
91
81
187
83
73
180
66
58
182
62
57
174
52
51
179
54
55
169
46
50
159
42
49
163
45
50
151
41
48
148
45
53
143
47
55
146
44
52
158
53
58
155
49
54
158
47
51
163
54
56
161
52
53
171
53
53
189
60
53
198
65
50
187
56
47
184
55
49
195
51
44
202
64
54
186
56
53
175
55
57
180
69
71
170
73
76
158
76
83
161
84
89
157
91
98
147
84
90
151
93
99
145
91
99
149
92
99
153
92
98
147
93
100
151
92
100
157
94
103
148
88
97
156
94
102
156
97
104
147
87
96
152
95
103
152
95
101
142
86
94
151
94
103
145
87
95
141
85
93
144
91
98
129
84
92
126
86
96
133
89
99
118
78
85
124
83
92
132
87
95
116
71
79
122
78
86
120
73
81
110
64
71
129
54
43
132
57
45
129
55
44
126
51
42
134
57
48
134
57
44
132
59
45
132
61
43
146
75
48
142
71
44
140
68
37
145
75
45
146
75
42
140
69
36
144
73
41
151
78
42
143
68
34
149
74
40
152
75
41
153
73
39
158
65
33
171
66
33
177
64
32
179
63
31
178
63
32
178
64
35
179
66
36
165
63
31
163
72
40
156
69
36
154
69
37
148
68
34
156
73
41
151
67
37
143
64
33
150
71
40
150
71
40
144
63
32
152
70
40
151
72
39
151
71
38
155
71
40
154
67
35
159
70
40
160
65
35
163
62
34
168
64
37
173
63
39
169
56
33
176
57
37
176
52
35
171
50
34
175
59
40
175
57
39
180
53
38
185
54
39
179
55
38
180
57
39
184
59
42
184
55
40
196
55
39
202
60
46
194
55
41
190
55
40
199
63
46
195
54
39
203
63
44
205
64
43
198
59
37
203
63
43
208
73
43
206
63
34
208
67
39
207
65
39
205
64
35
212
68
43
208
65
39
210
62
42
207
57
39
203
51
42
201
51
41
199
50
41
200
48
38
203
52
39
206
58
41
211
61
43
204
57
45
195
71
59
49
10
9
219
145
76
158
17
1
159
9
8
153
7
5
155
24
4
223
142
64
171
118
61
191
133
67
215
114
51
168
23
7
201
104
47
153
110
55
151
50
35
196
51
34
198
53
36
198
52
38
196
51
37
199
56
40
200
60
42
202
71
53
90
33
23
208
140
69
176
42
14
158
7
6
157
7
6
162
23
6
215
140
66
78
34
25
195
88
68
194
72
53
200
76
60
195
67
57
176
61
54
188
63
57
192
68
61
185
80
71
185
94
82
187
103
88
186
103
87
204
110
87
204
114
89
100
59
47
212
139
69
170
32
7
163
8
5
170
11
8
159
14
4
225
138
56
168
114
56
170
118
59
212
125
55
171
19
5
178
78
33
171
121
58
135
85
69
196
114
90
199
112
89
199
114
90
198
112
92
196
110
91
198
112
93
154
97
83
149
108
50
203
111
49
161
8
6
158
6
5
163
8
6
212
127
58
96
65
21
167
104
96
196
109
98
201
115
96
202
121
102
193
110
95
190
109
96
193
112
96
192
113
98
190
111
94
189
116
100
191
122
103
59
33
26
219
140
65
161
13
1
164
8
7
159
5
5
157
19
5
212
139
68
112
71
58
205
125
101
204
118
92
204
120
93
204
121
94
205
120
94
161
101
87
133
96
48
201
108
45
162
8
5
155
7
6
154
8
5
212
132
70
88
57
23
191
116
94
206
118
90
168
104
83
138
101
46
200
111
52
152
4
3
156
7
6
155
5
4
208
124
53
181
129
60
160
115
60
161
116
59
202
138
68
208
109
41
189
35
13
178
11
6
165
12
5
199
105
46
205
150
73
64
43
30
166
102
88
200
113
92
201
113
90
201
112
89
193
113
92
46
23
7
220
148
74
160
13
5
167
7
6
167
8
6
183
76
32
177
132
74
116
71
63
198
111
91
202
112
90
203
112
91
188
113
97
78
50
11
221
147
65
160
13
4
167
7
6
166
8
5
163
10
4
215
140
65
66
37
24
190
112
95
202
108
86
204
105
84
214
99
77
214
87
65
214
85
64
217
93
68
209
93
71
216
94
64
216
97
68
215
100
73
215
96
70
219
93
62
214
88
61
217
91
63
215
90
63
223
92
62
221
92
69
203
80
67
202
93
79
205
83
64
216
83
56
202
64
51
182
55
54
172
50
50
178
50
47
171
44
46
170
47
49
165
44
49
164
45
48
165
48
49
158
44
49
156
44
50
152
43
50
154
45
51
153
48
55
152
43
49
163
50
54
165
49
54
164
42
45
174
53
53
178
53
53
188
59
52
194
60
51
199
62
51
199
63
54
195
63
59
199
59
58
201
71
67
186
74
76
184
88
92
183
85
85
167
92
97
159
93
101
159
90
96
163
93
99
155
88
94
153
91
98
157
93
101
153
89
98
155
89
97
159
99
105
153
90
98
153
91
99
157
95
103
154
93
101
151
95
102
153
96
104
149
93
101
148
91
98
149
97
104
143
92
101
141
89
97
136
86
94
136
87
96
139
86
92
130
84
91
121
79
88
124
80
85
128
79
89
125
71
80
119
69
78
122
73
82
119
71
78
111
66
73
131
57
41
128
51
38
120
47
38
128
51
41
128
48
39
128
46
36
131
50
40
124
45
32
137
61
39
136
64
41
128
56
28
137
68
39
141
72
41
127
60
28
141
72
39
145
74
38
135
63
29
148
75
39
147
72
35
144
69
33
158
74
37
163
65
31
168
64
31
178
62
33
176
55
28
179
57
30
182
60
33
174
52
25
181
56
30
181
58
30
167
55
28
171
60
31
176
58
33
173
57
32
177
64
39
169
58
34
171
58
36
175
61
36
170
56
34
166
59
37
174
62
40
172
53
34
178
57
38
182
64
43
169
54
33
185
61
41
186
55
40
189
57
43
192
56
42
193
55
45
193
52
42
195
59
45
189
55
41
185
55
40
194
58
42
188
50
38
191
56
41
190
54
40
187
50
41
194
54
40
197
58
41
195
53
38
201
56
40
201
55
41
202
68
52
189
58
48
205
59
45
210
55
40
212
61
46
200
54
46
211
58
42
214
63
41
215
63
43
210
55
40
205
53
36
219
68
47
199
52
40
199
52
42
206
49
35
209
52
40
209
54
40
205
52
41
207
53
42
210
55
45
203
50
38
212
55
40
212
62
45
202
67
52
54
12
11
218
146
75
158
17
2
156
8
8
155
8
6
149
12
5
180
63
29
176
67
28
184
74
33
178
40
21
166
9
5
202
107
48
155
113
58
154
53
37
197
54
37
198
56
40
199
53
38
196
54
39
203
60
44
203
64
46
203
70
53
91
33
24
206
141
71
165
41
14
160
11
9
154
9
7
158
21
7
214
141
67
83
45
37
189
99
85
196
85
72
196
95
81
188
95
85
184
92
83
194
102
91
199
103
89
196
105
93
193
104
90
194
105
92
198
108
93
197
108
92
199
111
91
98
59
49
211
137
69
162
30
7
163
11
7
169
12
6
173
16
8
189
69
29
186
69
26
182
72
28
181
49
22
170
12
5
191
83
33
177
125
61
139
87
72
199
116
94
200
113
91
197
111
91
199
112
91
200
113
92
200
113
93
155
98
82
149
109
51
199
112
49
153
8
7
156
8
7
156
9
6
210
127
58
97
66
22
166
107
94
197
114
98
200
114
95
204
120
97
196
110
95
195
110
95
205
118
94
195
109
91
190
109
95
187
114
99
197
123
102
64
37
28
225
147
69
158
16
1
160
9
8
159
7
5
152
22
5
213
142
71
114
72
58
206
126
99
206
121
93
204
122
92
207
122
95
208
121
92
164
106
87
132
99
52
208
118
51
152
6
4
152
7
6
152
10
7
206
131
70
87
55
23
193
119
96
207
118
88
170
106
84
139
102
46
201
114
53
159
7
5
160
7
6
158
6
5
170
51
23
172
71
29
172
69
27
176
71
27
181
64
27
168
10
4
172
10
6
169
20
7
200
111
48
203
144
69
81
58
32
141
87
76
200
116
94
203
115
89
201
113
88
202
114
87
198
116
93
47
23
7
220
148
75
155
12
4
162
7
6
164
10
8
178
76
33
177
133
76
121
78
67
201
115
91
205
116
87
205
115
89
194
118
99
76
47
10
222
149
69
156
10
5
158
9
8
162
10
8
159
12
6
215
141
66
66
37
25
191
114
99
196
107
90
191
99
89
214
102
73
214
95
66
205
90
66
212
98
72
209
99
76
211
101
72
211
104
79
217
102
72
217
101
68
219
100
68
223
93
61
220
85
56
221
90
58
224
89
54
221
80
51
218
77
57
203
66
56
203
62
51
180
51
46
178
49
48
169
50
52
159
42
45
167
48
49
165
45
48
162
42
45
164
45
49
164
44
48
172
45
48
170
43
47
165
39
43
174
48
52
173
50
53
163
42
49
176
50
52
179
45
44
185
50
47
183
57
53
194
61
51
211
72
55
204
61
46
199
62
52
196
55
48
209
71
57
196
79
73
191
79
77
189
86
84
178
83
82
178
92
95
166
80
85
168
84
89
165
91
97
158
89
95
161
94
101
158
90
95
154
92
97
159
95
100
156
96
102
150
89
97
158
100
107
149
92
101
149
91
98
157
99
104
144
90
98
150
93
99
151
95
102
138
94
103
133
92
99
135
98
106
125
91
101
126
90
98
134
91
98
126
79
88
130
76
83
128
74
82
107
52
65
125
69
79
119
58
71
114
54
65
124
64
74
114
58
69
112
58
66
120
66
74
133
55
41
133
57
44
131
55
46
127
50
36
132
53
43
132
51
41
133
54
40
131
52
40
134
60
42
133
61
41
136
66
37
139
71
41
137
70
38
138
71
38
140
72
39
145
77
40
143
72
36
147
75
39
147
75
40
148
75
39
151
73
36
160
72
38
169
67
35
176
63
34
177
59
33
174
61
35
173
62
35
175
61
31
179
65
37
175
63
35
182
65
39
186
66
38
180
63
38
182
65
40
186
68
44
180
62
39
186
69
49
188
75
59
186
65
52
197
71
58
197
74
61
190
63
53
194
69
55
193
71
55
185
68
52
199
84
70
195
70
57
189
68
57
198
77
65
192
69
59
180
65
56
196
74
64
200
72
62
197
63
51
200
62
50
195
62
51
192
60
51
206
63
50
198
51
41
198
52
41
195
57
43
194
54
39
205
58
41
209
62
42
211
67
45
202
65
46
202
56
42
213
64
47
214
59
44
199
52
43
208
57
43
215
62
43
212
55
38
213
55
39
205
51
38
217
61
43
205
53
40
207
56
42
214
61
41
214
58
39
212
61
43
211
57
41
207
54
38
212
60
41
210
57
36
214
60
38
215
63
40
204
68
47
54
12
9
219
148
79
159
16
2
157
7
6
157
9
8
152
7
7
154
7
6
157
8
6
157
5
4
158
6
4
160
9
6
198
106
49
154
113
59
150
51
36
201
60
40
204
62
42
206
64
44
199
58
40
200
63
45
207
71
51
206
75
56
91
34
24
206
142
72
166
44
19
153
7
6
152
8
7
155
21
7
213
140
67
84
50
41
196
116
94
204
111
91
205
114
95
198
111
96
192
109
96
188
107
97
195
108
94
195
110
96
183
108
97
195
110
97
201
112
96
199
109
94
201
112
93
94
56
47
208
135
66
159
30
5
163
12
8
163
10
6
169
15
9
169
15
8
162
12
5
166
13
7
164
11
5
169
14
7
185
82
34
178
128
62
140
84
72
200
114
94
200
112
91
199
113
92
196
113
92
199
112
92
199
112
93
156
98
83
148
109
52
199
113
52
156
8
7
158
7
7
157
10
7
210
126
59
99
67
24
169
107
93
198
115
96
197
111
92
203
114
95
195
109
94
187
105
92
204
115
94
199
111
93
195
111
94
189
112
95
199
122
99
63
36
26
223
147
69
155
13
2
151
6
6
157
8
8
152
23
5
209
138
69
115
74
59
207
125
98
210
124
95
205
123
93
206
122
92
207
122
94
166
108
89
132
100
55
205
117
52
149
6
4
149
7
6
149
9
8
205
129
70
86
54
23
191
119
95
208
120
88
170
107
86
139
103
46
203
115
53
157
6
5
164
8
6
166
11
6
155
8
5
150
10
7
150
8
6
147
7
5
144
5
4
152
9
8
157
8
6
186
79
43
216
147
63
96
65
28
95
60
54
194
115
95
203
117
90
205
115
87
205
115
87
206
115
88
200
119
94
46
22
7
219
149
76
151
9
4
158
7
7
158
8
6
175
74
31
176
133
76
122
78
68
201
113
91
206
113
85
207
116
89
195
119
98
76
47
9
219
146
68
151
10
5
156
9
8
156
8
6
156
11
5
216
141
68
68
38
24
193
113
96
201
111
91
203
110
92
215
106
79
213
105
76
213
105
77
204
103
84
203
105
87
207
106
85
205
104
85
211
103
79
217
99
69
221
97
64
219
87
58
205
75
55
210
83
63
196
71
55
190
63
54
183
57
54
178
49
49
168
47
48
172
54
54
170
50
51
172
56
58
157
46
50
166
50
54
166
48
51
165
45
48
166
46
48
168
46
49
175
45
49
179
46
50
173
42
44
174
46
51
180
49
52
173
42
46
193
54
51
202
62
55
192
60
53
210
81
68
213
82
66
207
68
57
211
68
61
201
72
65
206
85
75
200
84
78
177
91
92
170
83
86
179
92
93
178
91
93
179
95
98
179
104
109
163
92
96
168
96
100
167
99
105
163
96
105
158
90
96
164
99
106
160
92
97
158
94
101
156
95
102
151
96
103
151
97
106
154
96
104
151
93
101
156
95
103
152
92
99
142
93
100
134
97
107
135
97
105
131
90
98
125
87
97
128
85
94
125
74
81
129
72
80
122
59
69
128
61
73
119
53
66
118
54
66
120
56
69
121
59
70
121
59
69
124
65
75
121
64
73
119
64
71
118
48
34
124
50
38
129
57
42
115
43
28
131
56
45
135
55
41
123
45
31
131
57
42
132
59
39
126
51
30
137
68
40
133
65
37
132
63
33
140
72
40
132
65
35
138
70
37
141
73
39
134
66
33
141
72
39
148
77
41
139
66
30
161
80
43
168
67
34
165
57
29
176
67
40
171
63
38
169
54
32
175
62
36
172
64
40
165
53
31
177
58
38
180
65
41
174
58
37
178
59
39
175
58
42
183
71
59
175
76
68
183
95
85
181
89
79
195
91
79
173
81
73
185
87
76
177
86
77
186
84
77
191
85
73
177
76
70
171
83
78
185
91
80
169
82
78
176
87
82
182
92
85
174
84
77
182
83
74
184
82
71
178
73
67
185
85
74
179
83
75
192
77
63
202
78
60
198
72
55
202
81
65
202
76
58
206
83
63
205
71
52
215
72
47
220
82
52
217
87
54
205
65
43
218
70
54
214
63
45
208
59
45
211
60
42
211
59
41
207
57
37
211
59
40
208
53
34
213
65
38
212
62
37
216
71
45
210
59
36
211
56
35
218
64
40
218
64
42
214
57
36
218
65
38
219
70
42
213
66
41
206
73
52
55
11
7
219
149
80
157
14
2
160
7
6
160
9
8
149
19
6
203
108
47
199
115
61
204
113
59
167
51
27
152
8
7
187
99
47
148
107
56
141
49
36
202
62
43
202
61
44
202
64
46
203
69
48
204
72
50
207
83
56
208
96
71
92
44
32
205
142
71
157
43
18
150
7
5
152
11
8
150
22
5
211
139
66
84
50
40
195
112
88
206
111
86
208
110
87
208
110
89
205
107
89
198
111
96
197
112
96
199
112
96
198
114
97
197
114
99
201
112
94
202
111
93
201
114
92
94
58
47
203
132
64
154
29
6
153
8
7
155
8
5
168
19
9
203
106
50
205
117
63
207
122
65
176
60
27
164
12
7
185
84
34
176
127
61
140
84
69
203
115
92
201
113
88
201
113
88
200
111
88
201
113
91
201
112
91
156
97
81
147
108
50
196
113
50
146
6
5
154
7
6
150
7
6
209
127
59
101
69
25
174
108
92
202
115
93
202
111
89
200
110
93
205
115
94
204
113
90
200
111
95
200
113
99
199
113
91
196
113
97
200
122
103
67
38
29
221
147
70
151
13
2
149
6
6
154
8
8
149
23
5
207
137
69
115
74
58
208
128
97
207
122
92
207
122
93
210
124
94
209
124
97
168
110
91
132
99
55
207
116
50
148
6
4
148
7
6
149
11
9
203
128
69
83
53
22
193
119
94
209
119
87
170
106
84
140
104
49
197
113
54
155
8
6
159
7
5
167
11
7
184
84
39
207
132
64
203
130
59
203
122
47
163
54
19
146
15
5
141
8
7
144
7
6
164
61
25
200
129
60
121
89
48
112
69
57
202
121
95
207
118
90
207
117
88
208
116
88
200
117
93
45
21
5
220
149
76
148
13
5
152
7
7
150
8
6
173
74
32
176
133
77
124
79
65
204
118
91
205
118
90
205
116
89
196
120
99
77
47
8
217
144
65
142
7
4
153
10
9
155
9
8
148
8
4
217
141
68
70
39
25
194
116
97
201
110
90
200
108
90
200
103
89
195
103
92
196
104
96
192
104
100
190
104
99
189
105
98
191
106
100
190
105
100
198
103
96
194
96
89
192
99
92
180
83
75
172
69
65
166
53
50
178
62
59
173
53
50
186
53
49
179
52
50
180
50
48
171
47
47
165
50
51
167
51
50
162
43
43
165
50
52
172
51
50
171
40
41
182
50
51
181
46
46
184
49
48
183
51
49
182
54
53
190
53
54
191
52
53
206
75
58
219
92
62
214
81
55
222
86
57
212
79
57
203
66
60
192
73
73
204
89
80
200
90
82
181
88
89
177
94
93
176
94
99
176
90
89
172
95
96
163
90
95
158
87
92
148
93
100
155
91
97
166
97
102
154
89
95
144
86
93
155
99
106
142
91
98
140
93
101
145
98
104
137
91
97
137
92
99
145
102
109
141
91
98
143
93
99
143
94
101
126
77
86
140
87
95
134
75
82
128
65
75
138
69
76
133
69
77
116
55
64
126
61
71
123
54
65
119
50
62
122
50
63
113
43
56
120
49
62
129
62
73
118
54
62
129
68
75
125
65
73
111
57
64
124
54
36
132
62
42
129
60
45
125
56
36
131
59
43
132
57
42
128
54
39
131
60
42
135
63
43
129
57
37
135
64
40
136
68
41
138
69
39
140
71
40
138
70
39
141
73
40
142
71
39
143
73
38
148
76
39
150
78
43
143
71
37
155
78
43
164
73
39
166
65
35
169
71
40
171
67
41
167
62
37
177
66
44
186
71
55
182
68
53
181
75
60
181
73
58
184
75
62
186
89
76
186
90
78
197
100
90
191
101
88
197
108
93
197
110
93
199
111
94
200
111
94
200
114
96
200
115
98
202
110
94
206
115
95
201
113
97
201
112
96
202
114
98
200
114
99
202
117
99
200
116
100
199
113
97
199
112
95
192
108
94
188
101
92
188
103
89
181
99
88
188
88
83
189
88
78
190
83
72
181
83
74
176
77
72
193
101
87
198
101
81
211
107
82
208
108
80
208
106
73
211
90
59
215
79
56
214
64
47
213
67
48
222
83
53
225
94
56
221
94
57
228
93
53
224
91
51
224
98
54
215
75
41
219
73
42
213
62
43
206
55
47
200
50
40
201
48
40
199
47
41
206
51
43
204
52
37
211
60
40
209
76
51
56
14
8
218
150
81
154
17
4
156
8
6
158
9
8
149
26
5
210
136
64
63
37
17
116
78
41
202
122
62
149
38
15
187
98
44
146
105
53
146
75
57
201
94
68
198
89
65
199
94
71
204
100
75
210
107
82
209
114
83
204
118
89
95
56
42
206
143
70
157
44
17
148
8
7
148
10
9
144
21
5
209
138
65
82
49
39
194
110
85
205
107
83
204
99
82
204
103
82
198
97
79
196
105
88
197
107
87
200
108
87
198
107
87
196
107
87
201
108
86
200
105
83
204
112
88
97
58
47
204
134
68
145
26
6
146
8
8
152
9
7
158
27
8
226
151
73
79
48
22
121
87
46
219
142
72
167
36
11
182
80
33
172
123
60
139
84
67
206
117
87
207
116
85
206
117
88
205
115
87
206
114
86
206
115
87
161
101
82
147
109
51
193
114
51
149
7
6
152
7
7
150
8
5
209
128
61
101
70
26
178
111
91
203
116
91
206
113
89
202
112
89
202
111
90
206
115
95
200
111
93
201
114
98
202
116
93
200
116
95
203
123
101
69
39
29
224
151
72
153
16
2
148
6
5
155
8
7
143
20
6
208
137
71
114
73
58
208
126
97
208
119
90
207
123
93
209
123
93
211
123
96
167
108
90
132
98
55
205
118
53
152
8
6
145
6
5
146
9
8
202
129
68
83
53
22
194
119
95
210
120
86
172
107
84
139
103
47
199
116
53
151
7
5
158
8
6
166
10
6
217
132
66
132
95
49
99
71
34
140
102
48
197
144
72
200
122
51
149
34
13
138
5
6
143
8
7
161
51
25
202
139
73
114
81
52
177
110
90
210
122
93
210
119
90
209
117
89
203
121
96
44
21
6
216
150
76
143
10
4
148
6
5
150
6
5
171
72
31
176
133
77
126
79
66
205
118
91
207
117
89
207
116
90
196
119
98
77
47
8
218
146
64
143
7
5
146
9
7
153
11
8
148
8
3
218
143
70
71
41
26
194
118
98
200
113
91
200
110
91
195
107
95
189
107
100
185
106
101
176
98
96
176
98
96
187
107
103
182
104
99
183
102
98
186
103
101
176
92
91
171
81
80
176
72
68
186
61
55
183
48
41
192
53
50
191
57
53
174
48
47
173
56
53
173
52
51
170
44
45
175
50
52
175
48
51
175
44
45
181
49
51
185
50
50
182
48
48
190
53
51
200
59
49
198
59
47
200
63
53
202
70
55
207
75
59
214
83
63
219
96
66
222
96
62
222
92
59
220
98
67
209
91
70
206
92
79
200
99
91
197
97
91
189
98
95
185
104
104
179
95
92
177
100
101
176
96
97
180
103
105
176
102
106
173
95
100
178
102
104
171
92
95
165
94
100
163
91
98
160
86
91
158
90
97
145
88
96
142
91
98
149
96
103
141
94
102
136
89
95
141
90
97
137
87
93
137
89
96
142
84
90
133
73
80
137
72
80
141
73
80
130
63
73
137
67
75
135
66
74
126
61
70
127
60
70
125
55
66
129
58
70
125
54
65
125
55
66
124
56
66
127
60
68
126
60
68
128
66
73
131
69
74
119
62
68
131
62
39
127
59
35
126
56
36
127
55
33
127
57
36
125
54
34
130
58
38
126
53
34
127
55
34
135
63
40
128
55
29
137
65
38
142
70
39
131
60
29
138
68
37
143
73
39
134
62
29
150
77
39
149
75
38
143
70
34
151
75
38
149
71
37
153
72
37
162
78
44
155
70
39
164
68
41
176
63
46
198
97
82
196
94
80
202
97
85
195
95
83
197
102
89
200
102
87
196
104
92
196
104
91
195
106
95
202
111
96
199
111
94
200
113
95
200
113
95
200
113
95
202
112
92
201
114
93
201
113
92
206
117
91
204
119
96
202
115
95
202
116
98
199
115
97
203
116
96
200
116
97
199
113
96
197
111
94
194
109
94
199
110
95
195
109
91
192
112
97
196
112
100
195
110
98
188
106
96
194
112
99
189
107
98
196
111
96
195
112
95
198
111
96
196
108
90
191
105
91
197
91
76
206
85
63
202
76
56
205
79
58
210
88
62
214
91
58
214
87
59
221
93
60
223
101
61
227
106
59
222
102
58
227
102
54
228
93
52
211
70
44
212
68
50
208
63
47
209
57
36
223
84
48
221
82
46
217
86
50
214
109
72
59
25
15
218
150
79
149
19
3
152
9
7
152
8
8
146
28
7
203
133
65
84
58
48
98
64
51
136
94
55
194
108
58
186
101
45
150
108
53
148
88
67
197
108
80
202
110
83
204
112
85
206
112
86
206
113
87
203
115
88
206
121
94
96
57
43
209
144
72
158
48
20
147
9
8
144
7
7
139
19
6
208
137
65
84
50
40
200
111
84
206
110
80
207
111
83
206
114
87
199
111
87
202
114
88
203
112
86
204
111
87
207
112
87
206
112
87
207
112
86
204
113
85
207
115
86
99
60
48
204
136
70
140
25
5
141
8
7
145
9
7
143
17
5
220
147
72
64
42
29
118
87
71
128
90
48
198
116
58
173
80
34
169
121
58
143
85
68
210
118
89
207
114
84
207
115
87
206
115
87
208
115
88
207
115
89
162
102
82
149
111
52
194
116
51
141
6
6
148
8
8
145
7
5
208
128
61
101
70
26
182
113
86
207
116
87
202
111
91
203
112
91
204
115
89
201
115
92
206
119
96
204
118
96
204
118
94
203
119
96
206
125
102
73
41
31
225
156
72
153
23
2
152
8
7
147
6
6
141
20
5
204
137
68
113
74
58
207
126
98
209
123
93
208
123
89
209
124
90
211
123
92
167
107
86
132
99
56
205
119
54
149
8
5
146
8
7
143
8
6
206
129
66
85
54
22
192
120
94
210
122
87
170
107
82
137
101
44
196
116
53
139
6
4
151
9
8
154
7
4
211
133
66
121
89
47
155
100
81
153
95
75
86
59
46
164
121
55
200
118
50
132
13
5
138
8
8
143
9
6
200
119
54
174
125
56
132
82
66
210
120
91
212
119
89
210
117
87
203
121
93
44
21
6
217
150
76
139
13
3
149
6
5
149
10
8
171
73
31
175
131
76
127
80
65
206
119
91
208
118
89
206
115
88
195
118
96
79
50
10
222
151
67
140
11
5
141
8
7
145
9
7
146
11
6
217
143
70
71
40
25
194
118
98
197
111
90
202
111
93
193
107
98
189
108
100
183
106
101
181
104
105
169
93
92
170
99
101
155
86
89
165
89
89
164
90
92
162
85
88
169
81
82
181
69
66
191
60
54
185
53
48
186
51
53
181
47
48
180
49
48
173
49
49
178
54
54
180
45
45
180
48
49
180
45
46
184
52
51
184
56
57
182
58
53
185
72
62
196
82
67
202
70
56
209
80
58
203
85
71
210
92
70
215
96
70
215
97
72
217
99
72
211
92
70
210
86
70
202
95
84
187
94
89
192
99
94
195
97
92
190
98
96
181
97
97
179
98
100
175
93
94
170
97
100
160
85
91
169
91
95
160
91
98
159
87
92
164
90
94
151
84
90
154
88
95
162
93
99
149
77
82
140
76
82
145
84
92
148
86
91
140
81
88
146
93
99
142
82
87
136
75
80
141
80
85
138
78
85
135
68
75
139
69
76
132
65
73
134
64
71
136
65
73
128
58
67
134
62
72
130
59
69
113
43
54
126
55
64
129
57
67
119
48
59
131
62
70
124
56
64
123
54
63
129
60
67
124
57
65
125
60
65
126
64
68
131
64
37
129
63
36
128
61
38
131
62
35
131
63
39
130
62
36
134
64
39
131
61
38
134
64
38
138
66
38
133
62
33
143
71
40
146
72
40
139
64
32
149
70
40
150
69
38
144
64
33
157
70
37
158
67
37
157
66
36
161
68
37
159
69
40
162
69
38
164
69
42
160
70
44
168
73
49
181
79
58
182
83
67
178
77
60
186
84
68
186
87
73
188
88
76
195
89
77
195
97
87
193
99
82
177
83
70
182
90
75
181
91
75
181
86
69
193
98
83
201
108
91
200
108
91
200
110
91
200
112
93
202
114
93
201
113
94
201
113
93
202
112
96
200
110
94
201
107
86
202
108
87
194
105
88
192
104
89
194
106
90
193
106
91
192
107
90
194
109
93
196
108
94
193
109
97
197
111
95
196
111
97
196
113
98
197
111
96
197
112
95
198
111
94
196
108
94
194
108
95
195
92
82
198
87
77
190
94
86
194
102
94
194
103
95
195
105
93
197
106
96
198
97
89
205
105
89
206
106
85
198
85
70
215
86
60
214
85
57
208
73
47
208
78
56
209
80
59
207
74
53
208
81
60
212
84
62
206
93
74
204
115
96
56
26
22
218
149
77
143
18
3
144
8
7
142
7
7
144
31
7
202
135
66
110
68
54
186
113
85
87
55
47
202
138
74
208
128
53
155
110
51
153
91
69
194
109
82
177
104
81
177
104
82
190
107
85
206
113
88
203
114
91
206
120
94
95
56
42
209
144
72
161
49
19
147
10
8
142
6
5
145
22
7
209
138
65
88
53
41
202
111
81
209
108
75
208
108
77
207
111
80
208
112
81
207
115
87
206
118
90
187
113
92
180
110
89
188
112
88
213
122
91
212
118
85
214
122
89
102
63
49
203
135
69
144
27
6
145
10
9
144
8
6
140
16
5
214
143
69
75
48
34
189
124
89
86
57
42
196
139
75
190
108
44
170
120
56
147
90
68
213
121
88
212
119
86
210
118
87
210
118
87
210
116
86
211
117
87
166
103
82
149
111
52
193
117
52
144
10
8
148
9
8
147
7
5
208
129
63
100
70
27
184
117
87
214
124
84
204
113
84
203
111
87
204
112
84
205
116
85
206
115
87
201
119
94
178
112
91
177
111
89
199
125
98
74
43
30
226
158
72
154
28
4
148
7
7
147
7
6
145
21
5
207
138
68
114
74
57
208
125
95
210
122
91
208
123
88
210
124
90
212
124
91
165
106
84
132
99
55
205
120
55
145
7
5
145
8
7
141
7
4
206
132
69
85
55
23
197
123
96
211
122
87
171
108
83
136
100
45
193
114
53
136
4
3
146
8
7
154
10
6
204
128
62
121
89
46
183
113
86
217
126
90
184
113
89
67
44
31
205
140
62
142
36
13
137
6
6
137
5
4
150
36
13
192
131
67
135
86
68
206
122
92
210
120
88
211
119
87
202
120
94
45
22
6
216
150
74
136
8
2
145
7
6
146
10
9
165
70
29
175
132
77
129
81
67
206
121
92
208
119
89
206
116
89
193
118
97
81
54
11
219
149
63
147
14
6
146
9
8
139
5
4
144
9
6
214
144
69
71
42
26
195
119
99
199
114
94
197
115
100
190
111
102
191
110
101
187
108
100
188
107
101
188
108
99
184
106
98
184
104
95
190
104
95
187
104
95
185
105
99
195
102
97
186
74
69
187
63
58
193
58
55
188
49
48
191
56
56
190
52
49
178
40
40
183
50
51
178
47
47
178
60
57
178
58
53
184
70
61
173
75
69
179
89
80
185
103
94
191
105
95
194
103
94
192
103
93
198
108
98
202
101
86
207
101
83
213
101
83
206
96
80
203
99
86
195
98
88
195
104
98
188
104
101
188
101
95
190
106
100
185
104
101
178
102
102
174
100
101
166
90
92
160
95
99
161
87
91
169
86
89
167
95
100
171
89
90
173
95
98
167
93
99
171
87
90
158
79
84
147
80
85
148
79
84
152
73
77
149
75
77
141
69
73
149
74
77
145
70
71
139
66
70
146
73
76
143
72
76
135
64
69
140
71
78
138
69
75
138
67
73
140
73
81
125
58
66
133
62
71
129
57
67
121
51
62
127
54
65
128
57
65
125
52
62
129
59
67
130
61
68
127
59
67
132
60
66
128
61
67
127
60
65
125
61
65
134
64
33
140
70
39
140
69
41
135
62
31
142
70
41
139
66
37
137
60
32
147
63
36
149
66
37
144
62
32
154
69
39
154
61
34
159
59
32
171
59
34
169
53
31
167
56
33
170
57
35
173
50
31
181
52
33
181
56
36
172
50
31
178
57
38
176
56
39
170
53
37
177
62
46
172
59
43
163
57
39
165
64
44
170
65
46
160
56
38
169
68
48
165
65
45
169
66
48
165
62
45
175
67
46
171
60
42
173
67
49
174
71
52
174
69
51
180
68
53
187
84
74
191
90
82
191
87
73
193
95
78
197
93
78
202
95
79
191
83
67
192
89
73
203
102
79
209
105
73
205
103
74
201
100
76
202
104
82
197
102
82
198
105
86
200
106
85
198
106
86
204
107
88
204
106
86
194
89
71
192
90
75
198
107
91
197
110
93
196
109
92
199
109
90
194
106
90
196
110
93
199
113
95
199
110
92
202
112
93
200
112
93
199
113
94
199
113
93
200
115
96
202
114
96
198
111
93
203
114
94
204
112
91
203
112
88
204
112
90
205
109
91
206
110
92
206
109
89
208
112
93
204
111
90
207
111
88
208
110
90
204
119
98
57
29
25
216
147
76
137
13
3
133
5
4
138
9
7
138
32
6
202
138
69
110
69
56
203
118
90
158
99
78
79
50
27
179
125
61
131
94
55
162
97
78
146
90
72
96
69
36
154
112
54
101
71
52
184
109
82
203
115
89
207
122
96
96
57
43
206
142
70
152
44
16
146
10
7
147
10
8
139
20
4
211
140
67
89
55
41
205
118
85
212
114
80
209
112
80
209
113
81
212
112
81
211
113
82
191
117
94
77
47
29
166
120
61
129
94
55
169
106
78
217
122
87
216
123
87
106
65
50
206
137
71
151
31
8
141
7
5
141
6
4
139
19
7
207
138
63
74
47
34
210
129
92
155
99
75
73
49
24
177
127
63
129
92
48
160
99
72
217
122
85
217
119
80
215
118
81
214
118
84
217
119
85
214
120
84
170
107
83
149
111
52
190
117
53
133
6
6
137
7
6
141
9
6
202
127
62
99
70
27
187
119
86
218
129
84
216
124
83
208
117
82
204
118
85
208
119
86
204
118
87
128
83
69
118
82
47
149
106
63
92
64
52
64
43
36
223
157
71
156
38
12
140
4
3
143
6
6
144
21
4
202
135
67
113
73
58
209
126
98
211
123
91
210
125
90
211
125
91
209
123
91
135
88
70
163
115
62
180
88
40
145
9
7
143
8
7
147
19
9
211
140
72
84
54
23
194
121
95
211
121
88
171
108
84
137
102
47
190
117
55
130
6
5
133
5
4
133
4
3
201
127
59
119
87
45
181
113
88
215
123
87
212
122
91
87
51
41
203
145
69
163
69
29
140
7
6
142
9
7
149
30
15
209
133
61
115
83
44
188
116
89
209
121
87
211
119
87
202
121
95
43
21
6
215
150
76
137
11
4
136
3
3
137
6
5
164
69
28
174
132
77
128
81
66
205
120
90
207
117
89
206
114
88
179
108
88
109
78
34
218
147
60
139
8
4
140
7
7
137
6
4
154
49
21
214
148
65
71
42
26
194
117
99
199
114
94
198
115
98
190
111
100
189
110
100
188
106
99
186
105
98
189
107
99
192
106
94
191
107
97
192
106
96
192
106
96
196
104
94
183
75
69
181
61
55
179
57
54
187
53
51
191
43
43
198
54
53
198
53
51
193
47
46
203
59
55
182
57
52
178
85
79
173
86
80
184
88
77
198
99
85
199
107
93
201
106
89
201
108
92
201
106
90
197
106
94
199
107
97
201
103
91
203
103
90
196
101
94
187
103
97
189
102
96
194
102
93
190
102
97
179
100
98
183
101
97
181
103
100
179
105
101
178
104
101
180
105
103
165
87
87
166
87
86
160
84
89
172
87
90
159
83
87
161
78
78
174
90
92
154
78
83
162
86
89
154
77
80
156
77
75
153
80
83
148
76
78
150
74
75
157
74
74
144
67
69
146
69
71
147
70
72
141
65
69
143
68
73
146
70
73
139
60
64
148
71
76
143
68
73
134
60
69
133
60
69
127
54
64
130
58
68
128
56
66
124
51
59
127
55
63
129
57
66
125
54
60
128
58
65
136
62
69
124
49
56
132
60
66
131
59
64
118
53
58
137
62
26
144
69
32
148
74
39
136
61
27
149
72
39
150
71
37
148
65
30
155
69
36
158
67
37
160
59
30
168
61
35
163
54
32
170
53
31
175
57
35
169
53
31
173
53
32
175
52
33
175
50
31
178
51
33
180
54
37
173
49
32
178
57
40
176
57
39
172
54
36
174
64
45
174
66
47
170
59
42
178
67
48
182
69
52
176
63
45
181
70
50
176
67
48
181
73
55
176
69
52
179
69
50
181
69
49
179
73
55
178
75
55
183
70
53
180
68
51
184
74
57
191
73
57
191
74
52
187
72
51
193
73
51
194
72
51
195
73
50
195
77
56
187
66
47
198
76
52
191
78
57
192
90
72
197
98
82
197
100
83
199
100
81
202
99
78
202
98
78
194
90
77
187
75
65
199
89
71
183
72
57
192
86
75
197
105
91
197
107
88
195
109
89
194
109
89
196
110
90
198
111
92
199
113
92
199
113
92
198
112
93
200
113
93
199
113
92
200
116
95
199
112
93
200
112
88
207
116
90
204
116
91
202
115
89
205
116
90
203
111
89
202
114
90
205
116
90
210
120
93
208
120
92
208
116
89
207
114
96
207
123
101
58
31
25
215
149
74
124
10
0
126
7
6
125
6
5
129
33
6
203
142
69
112
71
59
209
122
95
211
122
92
168
104
79
151
95
71
170
106
79
201
124
92
70
42
31
184
129
57
227
154
57
112
83
47
176
108
80
214
122
87
213
127
94
98
61
45
205
143
71
148
44
18
140
9
7
141
10
9
139
19
6
211
143
70
94
60
43
215
129
88
218
121
81
216
120
82
214
120
84
215
118
82
212
118
84
110
68
53
142
97
49
220
141
59
179
130
68
152
98
71
221
131
89
222
131
90
110
70
53
208
142
74
141
27
5
139
6
4
136
7
5
126
12
3
207
137
64
76
50
37
217
136
96
222
135
90
164
107
74
151
100
72
164
105
76
219
134
94
224
131
91
222
126
88
217
118
83
220
122
85
223
126
84
221
125
85
171
108
83
149
111
54
186
116
53
128
7
6
127
3
3
127
6
4
201
127
63
100
70
29
192
119
87
222
129
85
217
125
86
214
123
86
211
123
88
212
120
85
192
114
86
55
32
14
217
147
68
227
157
69
55
37
28
59
42
37
224
166
68
160
69
24
134
5
3
133
4
4
134
18
4
206
136
68
103
67
51
200
120
96
213
122
92
211
124
89
210
123
89
207
125
95
90
60
43
216
148
66
140
31
11
125
4
4
131
4
4
158
43
20
218
144
69
83
52
21
200
124
98
216
123
91
174
107
85
138
102
48
190
118
57
121
5
4
129
7
6
127
7
5
195
123
56
116
85
43
177
111
88
212
122
89
214
125
93
129
82
65
133
95
38
209
133
57
138
9
6
133
6
4
138
10
6
202
127
59
103
75
34
182
112
89
208
121
89
208
118
88
199
119
92
43
21
6
213
150
77
132
11
6
132
4
4
135
10
10
160
67
29
173
132
77
127
81
68
205
120
94
206
117
92
206
115
91
168
101
84
147
110
52
198
116
46
132
5
4
132
5
6
136
10
9
175
95
40
201
147
67
69
42
28
191
115
96
198
116
93
200
117
94
199
114
96
194
115
100
193
114
100
191
112
100
194
112
99
195
109
96
194
107
96
193
101
89
184
85
77
188
70
62
179
51
47
189
62
57
187
57
53
192
55
50
196
53
49
194
54
49
195
59
50
203
65
53
200
69
57
196
80
70
201
105
93
184
96
84
198
107
88
209
108
85
212
108
82
214
106
81
209
107
87
202
107
88
199
105
89
203
105
89
191
103
91
189
104
95
181
93
88
177
99
94
169
92
90
186
101
95
189
104
99
189
105
99
186
108
102
189
108
102
186
104
97
181
105
100
181
102
97
186
105
99
186
110
105
178
101
101
181
99
97
165
92
94
167
94
96
172
93
97
152
77
78
165
91
95
155
76
82
159
71
71
162
83
86
148
71
75
151
75
78
151
76
80
139
68
73
140
70
77
141
71
77
129
58
64
141
69
76
145
66
72
132
53
60
142
65
71
140
64
68
128
53
60
140
63
69
131
56
63
130
56
65
130
55
63
126
50
58
134
59
66
129
55
64
126
55
60
133
60
66
135
62
68
127
56
60
136
67
71
134
65
69
122
57
61
152
70
34
156
73
35
153
68
35
155
68
34
158
70
38
156
63
31
168
74
39
160
58
30
170
65
36
172
62
36
164
52
29
172
55
37
174
54
35
169
49
30
177
57
37
178
54
35
172
49
32
180
54
37
179
51
36
177
52
36
180
55
40
181
57
43
176
54
37
183
63
46
173
61
44
179
68
51
181
65
47
177
62
43
181
64
46
188
68
48
187
62
43
182
62
42
187
66
47
186
67
48
179
66
47
181
69
51
180
69
51
172
68
50
178
71
54
174
68
48
177
67
47
181
68
48
180
70
46
184
65
43
189
72
49
180
66
46
188
69
47
189
69
46
179
63
41
192
75
48
194
74
46
185
67
41
185
72
48
187
76
52
195
79
60
198
85
62
204
86
63
204
91
73
201
83
70
200
77
58
194
79
59
203
96
83
198
104
91
199
107
85
199
112
87
197
110
87
196
110
87
196
109
88
198
112
88
196
112
91
199
112
92
204
113
91
201
111
87
202
109
91
199
107
88
207
116
88
208
117
89
207
115
84
206
116
84
214
123
90
205
109
87
208
117
92
206
115
89
204
114
90
205
116
88
218
124
90
207
118
96
205
126
103
58
32
26
215
149
75
122
12
0
127
8
7
127
8
7
125
32
4
202
142
68
113
72
60
208
121
93
215
121
91
213
120
88
214
122
89
213
123
89
177
112
83
76
48
19
222
147
67
189
119
56
112
83
49
178
111
83
215
121
86
212
126
90
97
60
43
204
142
70
149
44
18
136
7
5
142
11
8
140
23
6
213
145
72
96
62
42
219
135
86
224
128
80
219
124
78
220
127
81
219
126
80
196
118
82
84
58
45
198
135
62
173
95
40
177
128
69
150
98
69
222
131
87
224
134
91
114
74
54
207
141
73
147
31
12
133
4
2
133
10
8
131
19
6
207
138
63
76
49
35
215
136
96
225
134
89
222
131
87
218
130
89
219
128
92
221
129
94
218
128
92
222
129
89
223
127
87
223
127
88
220
126
88
220
125
88
169
106
81
148
110
53
182
113
53
120
7
7
132
14
13
121
5
2
201
127
63
101
71
30
194
124
87
226
135
86
222
129
84
221
128
84
223
130
86
218
128
85
151
96
70
125
90
45
209
135
71
207
138
69
54
36
27
59
43
38
221
164
67
178
84
40
127
3
2
133
9
8
130
15
6
213
131
56
171
127
68
169
106
85
216
125
92
213
124
89
214
123
89
204
122
92
84
57
40
206
142
67
126
13
8
122
4
3
138
11
9
153
49
22
220
151
77
83
54
24
202
125
98
217
124
91
177
109
86
137
101
48
189
115
57
118
3
2
125
7
7
126
8
6
191
122
56
116
84
43
177
111
87
211
122
90
215
124
90
203
124
99
79
49
16
209
134
61
140
12
7
135
7
5
133
8
4
198
122
54
100
73
31
180
110
87
208
120
89
208
120
90
200
121
94
43
22
7
213
151
79
133
12
8
134
5
4
132
7
6
162
68
28
174
132
79
127
82
67
205
121
94
204
118
92
206
116
92
162
98
80
152
115
56
189
105
43
135
7
5
130
3
3
144
13
11
189
116
53
124
91
52
138
88
70
197
114
90
198
115
91
199
115
91
199
113
92
195
113
95
197
115
96
196
112
96
194
110
96
197
105
91
199
96
81
194
71
58
193
61
52
191
59
50
189
58
49
199
66
55
195
59
51
196
56
46
213
66
53
214
69
51
217
76
54
204
76
58
194
84
70
206
105
85
204
99
78
195
100
81
189
96
81
205
96
79
219
101
71
215
95
66
203
96
75
204
101
81
192
96
79
201
98
82
194
100
89
193
104
95
186
96
90
189
97
91
192
105
97
180
96
88
190
103
93
185
105
97
179
102
95
181
102
95
181
101
99
181
103
98
187
106
100
185
104
98
185
107
100
181
108
105
184
101
95
186
102
99
171
96
96
173
97
100
166
90
91
169
91
94
159
79
83
164
77
78
165
82
84
163
78
79
156
81
84
149
76
80
150
77
79
143
70
76
135
65
72
135
63
71
140
64
73
134
54
60
134
57
64
137
58
64
137
56
62
136
57
66
133
52
59
133
54
63
134
56
65
130
50
58
135
55
63
135
57
64
128
50
56
138
60
64
131
55
59
131
56
60
136
61
66
127
56
60
130
59
63
127
62
67
163
64
33
159
60
30
152
59
31
162
63
35
160
56
30
159
57
32
167
57
35
165
49
29
171
55
35
170
55
36
167
50
31
175
54
36
178
58
40
173
52
33
181
55
36
178
56
37
174
53
35
187
55
39
186
50
38
177
50
37
181
55
42
177
55
40
172
54
37
176
68
51
169
64
47
175
63
46
189
81
62
181
66
47
189
64
45
194
65
44
191
67
46
193
71
48
195
66
47
190
64
46
190
72
54
183
69
52
191
75
58
185
68
52
185
75
57
182
73
54
176
67
52
171
71
58
172
69
53
181
68
54
189
73
58
188
76
61
183
79
66
182
83
69
192
82
64
187
79
61
177
66
47
189
72
46
188
70
47
190
70
44
190
66
39
191
70
41
193
67
37
200
73
44
196
69
44
206
71
45
201
70
45
196
77
65
206
105
89
204
103
81
206
107
82
199
106
84
203
112
89
200
110
88
203
112
84
204
115
88
200
102
84
205
111
87
207
112
85
210
108
84
206
104
81
206
111
86
205
109
86
207
110
82
206
112
83
207
113
85
214
114
86
212
116
88
205
109
84
207
109
88
210
113
86
213
115
84
206
114
92
210
129
102
58
32
25
217
150
77
129
14
0
135
10
8
132
10
9
127
30
4
198
139
67
113
73
61
208
117
90
212
114
84
215
119
85
214
121
89
214
126
96
96
57
43
165
117
64
193
110
56
187
119
59
110
82
48
181
113
81
220
128
86
218
133
92
99
63
44
201
140
71
141
41
18
126
5
4
138
14
12
136
24
9
211
144
73
100
65
43
224
141
90
229
134
83
224
129
80
223
130
82
222
129
80
165
108
76
114
84
45
204
130
64
150
73
33
174
125
69
150
102
70
227
138
85
232
146
92
116
78
55
204
139
71
141
30
12
125
4
3
128
12
11
131
22
10
210
141
65
80
53
38
218
140
101
226
137
92
221
124
83
219
122
84
214
111
87
214
110
87
216
113
87
214
111
87
216
114
91
216
116
89
215
119
92
217
118
93
169
103
84
147
109
52
178
111
52
122
11
10
129
16
15
118
5
3
199
127
61
101
72
29
196
128
89
230
137
85
227
134
84
223
131
84
227
133
87
220
137
95
71
41
26
194
138
68
141
60
27
205
137
70
58
40
30
98
75
60
168
128
61
192
119
47
122
5
3
121
7
5
130
13
11
171
86
45
179
131
68
160
102
82
216
128
94
217
127
91
217
125
90
198
121
90
56
36
13
207
141
67
117
10
7
118
5
4
130
12
9
175
97
45
174
125
60
98
61
46
208
129
97
219
128
91
178
112
86
139
102
49
186
115
58
119
6
5
128
11
10
124
8
7
192
122
58
115
84
43
177
112
88
213
124
92
214
123
90
200
122
96
75
48
15
208
138
63
138
14
10
131
5
4
133
11
7
187
106
51
149
107
54
147
93
75
210
122
89
210
121
87
201
123
93
42
22
6
212
149
78
130
13
9
132
5
4
132
9
8
159
65
28
175
133
82
128
82
67
205
119
92
208
117
91
204
118
91
136
86
70
164
122
56
181
98
41
134
9
7
135
7
6
140
14
11
190
121
57
116
86
48
166
103
79
199
116
89
198
114
92
197
114
94
195
110
94
195
108
92
195
109
93
199
106
90
200
102
87
196
85
72
193
63
49
186
59
51
189
64
55
186
60
51
191
65
52
190
64
54
185
52
48
196
60
48
194
63
49
198
70
52
204
80
63
192
87
74
201
102
84
197
99
83
199
102
87
195
102
90
195
100
86
206
96
78
215
96
70
213
93
66
208
96
72
204
94
74
204
97
76
203
97
79
199
98
85
200
101
86
197
104
93
192
98
90
193
102
98
187
101
93
190
107
100
185
105
99
180
104
99
182
103
99
180
100
94
189
103
97
187
105
101
185
103
97
184
102
92
182
103
98
188
107
103
180
98
96
177
95
90
182
99
97
179
92
92
172
90
93
167
88
93
172
86
88
159
79
81
151
74
77
157
74
76
147
60
62
151
66
69
144
59
64
132
47
52
141
55
60
132
50
58
136
47
55
138
53
59
130
51
59
125
48
55
133
53
58
117
44
52
133
58
67
137
56
64
125
45
53
137
57
65
138
55
62
127
43
50
142
59
62
132
52
57
132
54
58
136
60
64
128
57
61
125
53
57
132
60
64
174
59
33
178
62
37
177
60
39
176
50
30
182
54
35
182
55
36
181
49
32
184
51
37
182
52
37
184
50
34
188
53
38
184
52
37
188
52
39
191
54
39
188
52
38
190
54
39
187
52
38
185
51
39
187
52
41
187
54
42
181
49
38
184
61
48
178
64
48
170
59
44
180
68
52
185
66
49
185
61
44
191
64
46
193
64
48
187
56
40
195
60
43
195
64
45
183
57
38
189
67
46
195
75
55
182
59
41
190
74
56
194
71
53
187
67
49
180
75
58
188
88
75
200
99
83
191
89
76
195
95
86
189
88
76
181
88
80
197
110
97
194
108
94
184
95
84
187
93
81
183
89
78
196
105
88
199
102
83
203
93
73
208
93
71
210
87
61
213
87
59
209
87
61
212
86
61
201
73
50
201
74
51
208
91
71
211
100
82
211
96
75
217
100
73
213
101
77
211
109
81
207
109
80
214
113
78
216
112
74
212
107
81
214
112
83
215
110
78
216
108
76
210
103
69
217
111
74
215
111
75
215
114
81
211
110
78
213
112
78
220
114
81
214
110
76
211
108
77
212
109
78
217
113
78
219
116
79
216
119
84
220
135
95
62
35
24
213
148
78
128
9
0
136
13
10
135
14
10
128
32
5
196
139
66
112
73
55
220
129
86
225
128
82
223
126
81
223
129
85
192
123
90
69
42
27
221
158
81
149
53
27
192
122
60
113
82
49
187
119
81
225
134
86
224
141
91
105
70
47
197
138
70
131
38
16
123
8
7
128
12
10
129
22
7
210
144
72
102
69
46
227
149
93
232
145
87
231
141
84
228
138
84
215
136
89
89
60
42
183
131
65
191
110
57
144
67
31
174
124
69
151
103
68
231
144
84
233
151
90
118
83
57
202
138
71
135
31
15
122
6
4
127
13
9
131
21
11
215
146
67
83
53
38
219
143
105
228
138
95
220
123
85
221
125
85
220
124
86
222
125
88
226
129
89
222
128
91
219
124
90
219
122
88
223
131
91
223
131
91
173
112
87
148
110
52
180
114
53
121
11
10
125
15
14
119
8
6
198
128
61
104
75
30
196
126
92
228
136
89
226
134
86
224
132
85
227
135
89
170
111
83
125
94
51
215
147
67
111
12
0
206
140
71
52
30
16
152
109
80
66
47
24
188
129
61
112
5
3
114
4
4
128
9
8
159
73
38
180
132
65
145
93
74
220
132
96
218
128
92
218
126
90
201
123
92
62
40
15
208
143
69
115
10
7
113
4
3
116
6
5
167
91
39
150
107
50
153
96
73
220
130
91
221
129
89
179
113
85
139
102
50
187
116
59
120
6
5
125
10
9
126
13
11
193
124
59
116
85
44
178
113
88
213
125
90
215
124
89
203
126
98
70
45
13
208
140
65
126
7
6
129
9
8
125
5
5
144
46
22
197
142
68
114
72
58
211
125
92
212
124
89
203
125
95
42
22
6
211
149
79
127
11
7
130
5
5
129
8
7
151
63
27
177
134
82
132
86
69
207
123
93
209
118
88
195
118
93
57
33
13
204
143
66
143
53
14
126
7
6
137
10
8
123
6
0
208
137
61
112
84
46
175
105
84
200
110
88
198
107
88
194
105
90
194
102
90
186
89
78
190
99
90
181
75
66
189
72
64
195
67
57
194
58
46
200
64
55
194
60
49
197
71
56
194
69
55
198
71
55
209
68
50
218
79
52
216
87
60
208
94
72
189
85
72
202
102
81
200
105
83
197
105
85
202
107
86
201
105
83
205
108
82
216
106
74
223
109
69
222
103
66
219
98
64
215
96
69
214
95
63
224
101
63
212
95
70
206
95
75
203
98
84
193
100
91
191
103
96
186
96
88
193
104
93
188
106
96
180
95
90
190
103
94
191
101
86
191
105
94
192
101
92
189
103
93
186
105
95
186
97
88
193
104
97
184
98
92
181
102
98
183
105
101
171
94
94
160
86
87
154
82
85
148
78
81
152
78
82
150
69
73
150
62
66
141
51
57
142
57
63
140
56
62
142
52
57
138
46
51
135
52
58
129
51
59
121
46
55
122
48
56
131
53
60
122
45
54
119
47
55
125
52
60
130
52
58
133
52
57
130
49
53
138
55
58
134
50
52
131
52
55
135
55
58
138
57
60
129
51
52
134
60
63
133
57
61
126
57
61
167
49
27
180
55
33
181
55
37
172
45
26
188
55
37
188
54
37
179
47
31
187
53
39
186
53
38
184
50
34
191
57
40
185
49
36
188
49
36
195
54
39
188
50
37
188
54
41
189
56
45
182
48
39
188
53
43
189
53
42
178
47
36
183
59
47
179
57
45
173
53
41
181
62
48
185
61
46
184
56
42
189
60
45
189
60
45
185
54
38
193
62
45
190
62
44
188
59
43
190
66
46
190
67
49
182
62
41
191
77
58
185
68
51
187
75
58
190
90
76
181
82
74
198
97
82
194
99
85
190
96
83
193
105
89
193
107
93
192
108
93
193
109
94
192
109
94
192
110
96
194
108
91
197
112
91
198
111
90
203
113
89
203
111
87
207
107
82
212
106
79
210
103
76
213
106
82
215
98
70
211
96
63
205
91
58
200
86
64
206
93
68
207
93
68
206
95
75
211
105
81
213
102
77
212
104
77
219
109
76
214
109
73
216
109
70
223
114
65
235
124
59
239
126
59
223
113
63
219
111
65
222
115
66
220
113
66
228
119
64
221
113
67
219
112
67
217
110
61
221
113
64
227
118
63
223
119
66
226
128
82
225
138
92
69
39
26
217
153
82
118
10
0
117
5
1
116
5
1
120
35
5
196
142
68
116
76
57
224
132
87
228
132
82
230
132
81
226
133
83
156
105
78
159
115
56
203
126
62
127
17
6
194
124
64
115
83
48
196
130
89
229
140
90
227
143
92
109
72
49
197
138
71
124
39
16
108
1
1
109
1
1
109
16
3
206
144
72
103
70
48
227
146
95
230
139
86
232
139
86
233
143
90
198
135
96
73
46
20
217
149
74
121
25
9
144
69
31
175
126
69
158
111
76
232
148
89
234
152
93
116
81
57
199
139
70
117
26
5
108
2
0
111
2
1
109
8
1
213
149
69
83
54
40
221
144
107
227
137
95
224
131
91
224
129
88
221
120
82
219
118
80
221
121
82
220
121
81
226
131
83
231
138
85
230
138
86
228
138
86
178
120
87
148
111
53
178
114
53
108
2
2
110
3
3
105
1
1
196
132
63
104
75
29
197
130
94
226
139
91
223
135
89
226
134
88
219
133
91
125
84
65
175
129
70
156
83
32
108
6
0
209
144
72
49
27
12
205
135
91
80
53
34
207
141
73
107
10
3
108
1
1
117
3
2
155
75
38
186
135
63
136
89
69
219
132
95
220
129
89
220
129
88
186
117
85
114
81
36
209
144
67
107
5
1
106
3
1
104
2
1
192
120
51
144
107
57
156
98
70
219
128
86
223
128
85
181
114
84
138
100
49
187
117
61
114
2
1
114
3
2
113
3
2
191
126
62
118
86
45
182
115
88
214
125
88
217
125
86
204
127
95
67
42
11
206
143
66
109
1
1
114
2
1
113
1
1
124
35
12
194
139
67
115
74
57
214
129
91
217
127
87
208
129
93
45
23
7
210
148
78
114
3
0
116
1
1
116
2
1
142
64
27
177
132
81
133
85
68
209
124
91
210
120
87
185
113
88
73
46
16
207
140
67
117
25
3
110
2
0
113
2
0
151
70
37
206
151
76
86
60
39
189
109
83
209
110
84
201
104
83
205
107
87
203
93
75
197
87
75
190
75
64
183
59
48
189
57
48
194
59
49
197
58
45
200
68
51
193
60
49
209
72
53
213
69
46
212
69
47
218
80
55
214
89
61
204
94
69
201
109
87
196
107
89
197
106
86
193
108
89
200
110
88
201
110
90
202
107
84
207
112
87
207
109
87
202
105
84
201
102
87
202
99
78
210
98
78
217
96
68
216
95
69
211
99
74
209
97
72
204
98
76
199
103
85
184
94
87
192
99
87
192
108
95
185
105
96
192
104
92
189
105
96
191
105
93
190
104
93
191
104
92
190
102
92
188
105
95
187
102
91
185
102
95
177
100
95
178
100
96
165
95
94
146
87
90
144
88
92
143
82
86
141
78
82
150
78
83
132
50
57
129
45
51
137
52
58
126
42
48
130
47
51
134
50
55
126
38
43
127
44
49
124
48
55
116
38
45
124
46
53
123
47
55
120
44
53
123
47
54
120
40
47
130
46
50
137
47
45
122
38
40
132
49
48
134
50
47
122
43
43
130
50
50
139
55
53
130
45
44
129
50
53
128
51
55
114
47
51
179
52
35
183
54
37
183
59
43
178
54
38
183
54
41
185
57
46
184
56
43
184
54
42
184
59
45
183
59
46
182
57
42
187
60
46
186
59
46
183
59
46
182
60
48
179
58
47
177
52
44
182
54
45
180
55
46
181
63
52
177
63
50
180
65
51
180
66
52
177
67
53
176
68
52
177
66
50
183
63
49
183
65
50
189
63
48
187
61
45
186
66
47
193
69
47
196
64
45
190
70
51
184
74
57
190
76
56
187
75
58
177
69
54
190
86
68
183
87
78
196
94
86
196
89
74
190
93
81
197
110
96
196
109
93
196
110
92
196
110
93
195
110
94
195
109
92
194
111
92
199
114
93
196
113
92
198
113
90
203
116
87
204
118
89
206
116
89
204
114
88
205
115
88
206
114
88
210
111
85
209
109
84
213
109
82
209
99
76
213
98
71
212
99
68
211
100
69
217
103
70
213
100
67
213
104
73
207
96
62
217
109
69
213
107
67
217
108
65
225
114
64
230
118
60
237
126
60
243
132
55
239
127
49
241
128
49
238
126
42
239
127
49
237
125
47
237
127
46
234
124
52
231
120
58
231
121
60
231
127
73
226
134
86
68
38
24
216
153
83
115
9
0
113
3
1
113
4
0
123
35
6
202
146
69
120
81
59
227
139
86
234
141
81
235
140
81
207
129
84
63
43
25
199
139
65
154
72
31
119
5
1
194
126
66
115
83
49
204
139
91
235
151
88
232
153
93
111
75
49
198
139
71
122
39
15
107
1
0
106
1
0
106
16
3
203
141
71
99
66
46
227
142
91
233
139
87
233
142
87
231
147
96
102
66
48
198
147
78
199
125
59
118
4
1
144
69
32
176
128
70
161
115
78
234
151
89
234
154
93
115
81
58
199
140
70
115
28
4
107
2
0
107
3
0
107
9
1
213
149
69
85
57
40
224
150
101
234
147
87
235
146
82
234
144
80
230
135
70
235
138
70
232
134
67
229
130
64
229
129
62
231
132
67
232
135
71
228
135
77
175
115
80
149
111
52
181
115
53
111
1
0
110
1
0
108
2
0
195
131
65
102
74
29
198
131
91
229
139
84
227
137
84
228
135
86
191
122
84
101
74
36
219
154
78
130
46
16
113
8
0
212
149
75
50
27
11
211
136
89
84
54
34
202
144
67
146
68
33
109
1
1
111
2
0
141
57
28
220
154
67
103
72
38
197
123
90
223
132
88
222
134
89
117
74
53
198
150
75
175
104
47
112
6
1
109
5
1
108
18
4
213
153
74
59
31
6
203
126
85
222
127
85
223
127
84
177
111
80
135
98
48
184
116
60
113
2
1
113
3
1
112
2
1
192
126
62
120
86
46
182
115
86
216
124
84
217
123
82
205
127
94
65
40
10
202
142
65
104
0
0
108
1
0
110
1
0
125
36
13
198
142
71
115
74
57
215
131
90
217
128
85
210
130
92
48
24
7
210
147
76
108
3
0
110
0
0
110
0
1
138
64
28
173
129
78
136
86
68
211
124
88
212
124
89
133
85
68
124
88
39
186
124
66
107
3
1
106
2
0
106
3
0
156
85
41
180
137
67
138
83
63
219
114
77
220
110
72
212
103
72
214
100
73
214
80
57
188
60
46
195
69
53
201
67
49
191
61
46
197
65
52
204
67
49
201
63
46
207
72
54
220
86
54
222
90
47
224
104
58
218
105
65
207
107
81
202
109
89
192
107
89
196
109
91
194
108
90
199
114
94
199
114
94
199
112
93
201
112
93
197
109
89
197
110
94
197
109
91
194
109
94
201
109
92
205
106
90
210
104
83
195
93
81
212
105
82
203
92
66
212
100
74
202
96
79
192
94
82
192
101
89
188
109
99
185
107
100
191
102
89
194
106
93
189
104
93
189
106
97
190
103
94
178
90
83
178
94
87
171
93
90
154
90
93
159
96
99
148
87
89
142
87
90
149
87
89
141
77
79
146
81
85
146
73
76
132
51
57
135
53
60
136
52
60
131
47
56
134
52
58
135
54
58
129
51
57
125
45
51
123
51
58
126
52
59
123
48
54
121
43
50
128
53
58
127
51
55
124
47
50
130
51
54
135
49
50
129
47
48
124
47
52
138
54
53
134
48
45
133
52
51
135
55
50
137
55
50
134
50
48
133
55
54
129
53
52
123
53
55
184
54
44
174
51
40
172
52
44
178
58
49
173
54
46
181
63
55
182
66
57
177
65
56
178
64
54
181
62
54
176
57
48
180
61
52
186
65
53
176
62
52
175
61
53
182
63
53
184
64
55
183
63
54
173
58
50
170
57
50
175
63
52
179
65
54
177
59
48
180
67
55
166
63
52
168
62
51
177
64
51
174
63
50
176
67
53
182
67
49
190
69
51
185
68
49
187
64
46
208
95
74
189
95
78
200
111
92
197
105
89
187
98
84
193
112
94
189
109
93
191
101
90
198
112
95
196
112
95
198
112
96
197
111
93
199
116
96
197
115
94
193
113
93
196
114
94
201
119
97
200
115
92
198
116
93
199
117
94
203
117
90
206
120
88
204
120
89
204
122
93
205
123
92
206
122
92
206
121
91
209
119
91
210
118
90
209
117
90
213
116
87
212
112
77
212
110
72
219
112
73
214
108
68
212
107
68
212
105
66
214
107
67
213
108
67
215
109
68
217
110
68
218
108
68
225
117
69
235
127
65
229
120
66
228
119
63
237
126
54
233
121
52
235
125
58
233
123
57
228
118
62
230
121
65
233
128
66
232
131
75
227
137
89
65
36
23
212
150
81
113
7
0
112
2
0
114
3
1
126
36
6
208
149
70
126
85
63
231
148
90
235
145
82
231
143
84
156
103
70
113
84
43
201
132
59
108
2
1
114
3
1
194
126
67
116
84
50
204
139
91
237
152
89
235
155
96
112
75
50
199
140
72
121
38
15
106
1
0
106
1
1
106
17
3
202
142
69
98
67
45
226
146
88
233
146
84
234
149
86
196
133
89
99
73
46
217
152
79
119
13
0
118
4
1
146
70
33
177
130
73
157
113
76
235
154
89
237
156
93
115
82
58
199
140
69
115
28
4
109
2
0
109
3
0
108
9
1
213
149
70
85
56
39
225
147
97
236
145
80
236
135
59
234
129
53
228
122
43
238
137
50
225
115
45
226
116
49
232
127
54
231
128
60
230
128
62
230
133
71
175
114
78
151
114
55
185
119
54
114
2
1
114
4
1
114
3
1
198
133
67
103
74
30
196
131
87
232
142
81
231
140
78
226
139
82
146
98
66
154
110
51
181
110
54
112
3
0
113
10
0
215
154
80
53
28
11
216
135
90
151
98
67
148
108
55
192
119
55
110
2
0
110
1
1
111
2
1
197
131
58
107
78
34
169
107
81
227
135
88
213
132
87
104
69
50
203
152
78
123
22
0
117
6
1
116
7
1
141
67
31
207
154
77
55
29
6
208
129
83
222
127
80
221
125
80
176
110
79
134
97
47
183
114
58
115
3
1
116
2
1
116
2
1
193
126
64
120
88
46
184
116
85
218
126
83
218
125
81
205
127
93
63
39
10
201
140
66
102
1
0
108
1
0
109
1
0
126
37
14
201
147
74
116
75
57
218
132
92
220
129
85
212
132
92
48
24
7
208
147
75
106
3
0
108
1
0
107
0
0
136
64
27
172
127
75
136
87
68
214
125
88
211
130
95
71
41
29
205
150
67
159
89
46
109
3
1
106
2
1
107
7
0
204
136
65
118
89
45
151
85
59
221
113
71
218
111
73
211
104
75
212
92
70
211
76
55
189
61
44
196
71
53
193
59
47
199
56
37
215
64
44
211
62
45
213
77
46
227
103
56
229
106
50
231
115
54
227
116
60
221
113
67
206
112
88
196
112
93
196
111
91
196
110
93
192
108
92
195
109
90
195
110
94
199
110
92
194
108
93
192
108
92
192
105
90
200
108
89
199
106
90
196
104
89
199
103
88
213
104
82
201
98
84
208
102
85
209
102
82
210
97
77
194
77
63
200
86
74
189
82
71
190
97
86
186
90
81
195
87
75
191
96
84
187
93
83
189
92
83
167
82
79
167
88
87
167
99
99
154
89
92
151
82
85
154
81
84
153
79
81
150
72
74
153
67
68
149
58
60
143
56
62
133
47
54
126
42
51
130
48
54
134
49
54
123
37
45
135
48
51
126
45
50
120
50
56
122
43
48
121
41
46
122
49
55
128
48
52
123
38
43
124
47
53
134
47
51
126
37
39
132
46
48
132
46
49
122
38
41
122
46
49
132
50
48
127
43
40
137
51
45
130
50
45
127
51
48
132
50
42
134
52
44
128
50
44
127
54
51
173
53
47
173
59
51
166
55
50
172
55
50
176
60
55
174
64
60
171
60
55
172
63
59
177
65
60
173
60
54
176
63
57
174
63
56
174
63
55
176
63
54
181
68
57
196
93
75
199
87
68
190
79
61
182
72
57
172
69
58
171
66
52
174
66
55
177
62
50
174
60
49
171
66
54
174
67
54
180
78
63
165
65
56
176
72
61
177
76
63
180
71
58
179
81
66
176
74
61
197
87
70
194
101
86
195
105
90
192
108
96
195
109
94
196
113
91
195
116
95
195
113
96
196
114
93
200
117
94
201
119
98
201
121
96
203
127
97
208
136
101
203
132
97
201
130
97
204
129
95
203
127
95
208
130
98
212
128
93
214
125
89
221
131
89
215
123
86
215
125
89
212
128
91
212
125
89
213
125
90
212
126
94
210
120
94
212
122
96
214
120
93
214
123
94
219
128
90
221
125
87
218
124
87
218
125
87
215
119
82
213
117
82
218
121
82
217
121
81
217
122
83
216
121
82
218
124
83
225
129
84
220
124
85
219
123
87
226
126
81
223
121
81
217
113
90
215
113
90
216
116
92
225
129
87
233
140
85
232
140
87
227
144
95
64
38
26
211
148
79
108
7
0
108
2
0
111
3
1
123
34
4
207
147
68
128
89
66
230
152
97
234
149
89
221
147
99
68
42
24
195
144
74
151
82
37
105
0
1
108
3
0
191
125
65
114
83
49
206
140
91
236
151
88
237
155
97
111
74
50
203
142
75
125
40
17
107
2
0
107
1
0
106
17
3
202
142
67
101
72
48
230
157
93
234
156
90
232
154
90
149
104
72
164
122
57
184
114
53
115
5
0
118
5
1
148
71
34
180
133
75
162
120
81
237
158
91
237
158
93
117
83
59
200
142
70
115
28
4
108
3
0
108
4
0
105
9
1
211
148
68
84
58
39
225
149
97
234
145
83
238
142
73
235
133
62
231
120
44
236
130
47
238
133
61
233
129
62
234
136
72
234
139
75
236
141
77
234
139
77
177
116
80
149
114
55
185
120
55
115
3
1
115
4
0
115
4
1
200
134
67
106
76
31
197
131
87
231
143
80
230
141
79
216
139
86
84
58
29
195
138
65
132
56
26
108
2
0
110
8
0
216
154
78
58
31
14
220
136
92
203
127
83
101
73
42
206
137
65
125
37
11
111
1
0
111
2
1
159
86
38
196
143
76
102
67
50
216
134
93
157
100
72
149
114
62
201
135
60
120
11
0
116
7
1
117
7
0
192
127
58
129
101
49
127
81
54
218
129
81
224
129
79
223
127
79
176
110
77
132
96
46
182
115
57
115
3
1
116
2
1
116
3
1
193
126
62
120
86
44
186
117
84
219
127
83
217
126
80
204
127
91
63
38
10
199
139
68
102
0
0
108
1
0
110
1
0
126
37
14
203
148
73
115
73
55
220
133
90
222
130
86
215
133
94
48
24
7
210
150
76
104
3
0
107
1
1
106
1
1
135
64
26
171
125
73
135
86
65
213
128
88
167
107
79
125
96
55
209
146
66
111
4
0
112
4
1
109
4
1
137
58
23
194
136
73
36
14
4
213
119
76
228
113
55
223
113
60
224
112
64
213
89
52
208
78
50
218
90
55
209
78
52
208
68
50
212
65
43
219
75
42
231
98
36
237
113
41
230
116
54
231
109
50
225
113
63
218
115
75
207
110
82
199
113
93
193
113
94
195
114
96
196
112
95
194
110
91
193
111
94
193
105
91
190
102
88
187
103
90
192
102
90
192
98
85
193
99
85
195
97
83
196
97
82
194
94
78
200
90
73
201
83
67
201
84
66
205
87
64
205
88
67
197
72
57
199
73
57
195
78
64
182
84
74
171
78
73
182
80
70
190
83
71
180
74
66
177
80
73
169
85
83
157
81
81
152
80
80
149
76
75
150
76
76
145
69
71
152
70
71
147
64
65
143
62
65
143
62
65
144
62
65
133
53
57
135
56
63
135
55
61
130
51
57
130
48
54
137
45
48
122
44
50
126
55
62
125
43
49
127
41
45
128
50
57
131
51
56
127
42
46
138
53
55
141
54
57
132
48
48
129
52
52
136
51
49
136
47
44
136
51
49
137
55
51
131
50
45
142
50
43
139
50
43
145
57
49
147
51
39
144
54
44
145
52
45
149
54
50
179
62
56
188
71
63
186
72
67
182
63
58
193
77
72
187
74
72
183
64
59
192
71
69
183
67
64
179
60
52
194
85
72
188
73
62
194
85
72
192
80
69
192
82
68
182
74
59
170
66
51
182
74
54
205
103
78
197
98
79
183
75
59
183
74
57
189
78
62
183
74
63
183
74
62
185
75
59
186
75
60
194
93
78
195
98
84
197
105
88
203
107
91
201
110
93
196
108
90
196
109
93
196
111
96
196
111
92
195
114
95
196
115
95
199
120
95
199
123
96
197
123
95
202
131
98
206
132
98
200
124
97
198
123
95
206
134
99
203
128
95
205
132
97
209
138
99
208
135
95
210
135
96
214
137
97
217
134
91
225
141
96
226
141
93
218
137
92
217
138
94
217
140
94
219
140
94
215
134
91
216
137
92
219
140
96
218
139
96
221
141
98
216
137
97
219
137
95
214
130
93
215
135
97
218
136
93
216
132
89
218
135
90
217
135
88
218
138
91
218
136
91
217
135
90
219
136
90
223
139
93
218
133
92
214
125
89
224
131
89
225
131
89
222
128
94
217
125
95
212
124
96
226
141
97
233
148
92
232
146
91
227
148
96
63
38
25
212
148
77
108
8
0
107
2
1
106
2
0
116
31
4
201
142
67
75
53
40
128
91
64
126
87
60
122
89
67
102
70
28
216
147
67
114
34
15
107
1
1
106
3
0
189
123
62
111
81
48
205
141
92
237
151
88
235
153
94
111
73
48
208
145
74
132
44
18
112
2
1
110
2
0
109
18
3
204
143
68
63
45
32
124
90
60
124
90
59
123
91
60
87
66
45
201
143
64
143
69
29
112
3
1
116
4
0
148
73
34
181
136
75
165
121
80
240
163
95
241
164
99
118
86
60
201
142
69
116
28
4
109
3
0
107
3
0
104
9
1
209
148
68
83
57
39
225
145
94
235
143
82
235
141
80
236
142
79
234
135
70
235
134
74
235
138
78
234
137
78
236
141
81
233
140
78
236
142
80
234
141
80
176
118
81
144
111
53
179
117
54
111
3
1
113
4
1
115
4
1
198
134
68
109
79
31
103
73
51
123
85
53
123
84
53
117
82
55
162
118
54
203
139
65
105
4
0
107
3
0
108
7
0
216
153
78
61
31
15
223
138
94
225
139
91
98
58
38
177
125
59
180
102
43
116
2
1
117
4
1
119
19
5
197
131
70
142
104
61
120
81
62
95
69
41
196
140
69
160
86
40
118
5
0
116
6
1
137
59
27
214
158
75
92
72
40
176
110
70
226
132
80
225
130
79
223
127
77
177
112
77
133
97
46
179
113
54
113
2
0
116
2
1
116
3
0
192
125
60
118
84
42
187
120
85
220
129
81
221
128
81
206
127
91
63
38
10
198
137
68
103
0
0
108
1
0
111
1
0
126
38
14
201
149
73
115
74
55
221
134
89
223
131
84
215
133
93
50
25
7
210
151
76
106
4
0
107
1
1
107
1
1
136
65
26
171
125
69
69
44
32
106
67
45
108
78
50
206
149
73
161
89
39
114
4
0
114
4
0
117
24
4
205
138
68
99
66
32
140
83
56
224
120
62
227
117
55
229
111
47
228
104
41
235
101
44
223
83
45
214
67
41
213
53
35
217
61
38
231
98
44
240
116
39
239
119
38
238
116
46
220
101
53
197
91
59
208
111
80
197
111
89
197
111
92
193
113
94
191
110
93
192
110
95
191
101
88
175
82
68
176
89
76
184
86
72
165
71
60
174
79
67
176
74
63
180
70
55
192
80
63
178
71
58
186
72
54
197
73
53
201
72
52
194
65
50
198
70
52
193
67
49
197
73
52
186
72
57
184
73
59
174
62
50
161
62
57
162
71
69
160
65
60
160
68
65
158
68
67
162
69
67
160
77
77
147
76
78
142
72
75
148
74
76
144
69
73
126
54
58
136
61
65
139
60
61
124
45
50
134
58
63
133
53
59
120
39
43
137
58
62
129
44
50
133
47
51
150
49
50
170
55
56
161
52
54
156
54
57
156
55
57
164
55
56
146
48
53
142
51
56
141
55
59
146
50
49
147
51
50
140
48
49
144
51
47
145
50
45
144
51
43
141
49
43
150
58
49
156
55
46
169
55
43
161
53
46
175
54
49
180
49
42
178
58
50
179
59
54
178
61
56
180
68
58
178
69
62
177
72
67
174
67
63
186
70
62
191
65
55
188
67
55
189
72
59
186
76
60
191
84
66
202
89
66
191
72
52
199
89
65
191
87
68
188
81
64
195
78
58
212
107
78
203
95
67
192
91
66
185
83
60
207
102
75
196
97
71
190
91
68
190
97
79
183
82
65
181
91
76
168
78
69
190
94
78
185
98
84
185
94
80
187
91
73
195
107
87
194
108
91
193
106
91
195
110
94
194
111
95
195
116
100
194
115
96
196
117
96
199
124
96
204
132
98
206
135
98
205
135
98
203
131
96
205
133
98
204
133
100
200
122
97
203
124
100
204
125
99
209
129
99
210
133
99
206
130
98
210
133
97
214
140
100
211
138
94
214
140
95
212
139
94
218
146
94
218
147
94
222
148
95
223
146
93
226
149
98
225
144
94
222
143
94
220
142
92
219
137
89
221
138
93
224
141
93
223
141
92
218
135
91
218
139
93
218
138
92
220
141
94
218
139
93
218
139
93
220
139
92
218
138
92
216
131
88
223
134
90
225
134
93
217
128
89
219
130
86
219
131
86
221
135
90
231
146
91
233
150
91
232
152
98
176
122
86
70
48
33
217
151
80
110
9
0
107
3
0
106
2
1
111
23
5
208
133
64
197
131
68
198
134
71
201
135
71
202
135
71
211
143
73
157
80
39
109
2
0
110
3
0
107
3
1
186
122
60
110
82
48
198
133
85
231
146
85
190
133
91
85
61
43
213
148
73
134
48
21
114
4
1
113
5
0
115
16
3
209
135
68
199
134
69
195
133
68
193
132
67
193
131
65
196
133
63
166
95
45
107
8
3
109
1
0
114
3
0
148
72
32
183
136
74
165
120
79
239
164
95
240
166
99
118
86
59
202
142
70
117
28
4
108
3
1
107
3
1
102
8
1
205
144
65
69
47
31
189
125
83
232
140
80
236
141
80
235
142
80
234
140
79
233
138
79
236
139
78
233
138
76
235
140
76
237
142
78
236
144
81
220
142
90
113
80
57
163
120
56
177
113
54
106
2
1
110
2
0
113
5
1
180
107
53
196
130
61
191
128
64
192
129
66
191
129
65
189
128
62
205
133
63
116
35
6
106
4
0
109
4
1
112
10
0
215
154
78
58
30
12
220
136
89
229
133
80
193
121
80
84
55
28
213
148
70
154
70
31
117
4
1
112
4
1
139
63
34
201
128
62
196
132
59
200
135
64
162
92
45
107
3
0
114
4
1
124
33
13
214
145
68
151
113
57
135
89
61
227
138
82
228
133
79
227
130
78
216
130
84
120
80
58
151
109
53
180
113
56
110
2
1
112
3
0
112
4
1
188
119
58
142
101
51
98
64
46
207
129
87
222
127
76
209
130
91
64
38
11
199
136
70
108
1
0
112
1
0
112
2
0
126
38
15
201
146
72
113
73
54
219
132
86
221
134
89
159
103
78
83
57
31
215
151
75
109
5
0
111
3
1
110
3
1
131
54
23
203
134
61
190
128
60
190
130
62
196
132
65
145
70
30
116
12
2
115
3
1
126
37
15
200
131
63
173
127
64
94
59
41
207
117
66
228
117
57
226
115
55
229
111
57
211
73
45
202
55
41
209
57
42
211
56
42
221
75
44
228
103
44
235
124
54
233
119
47
232
116
51
227
110
60
213
106
71
207
112
85
197
112
89
192
111
96
191
101
86
179
88
74
183
82
67
175
75
63
182
77
62
185
83
70
186
79
64
188
73
58
175
73
64
172
66
56
184
76
64
178
78
66
178
79
67
182
77
62
182
73
60
178
72
64
175
73
64
173
67
59
172
71
61
167
70
62
166
67
58
164
68
61
161
71
64
159
68
64
155
62
58
155
67
63
150
67
65
154
64
61
157
67
65
154
64
63
152
62
62
153
72
72
154
72
72
143
61
59
143
65
66
140
58
59
146
54
55
150
56
57
143
51
56
144
50
53
147
55
56
135
49
52
144
56
61
156
45
46
171
49
50
174
48
47
176
51
50
173
50
50
164
46
47
165
52
52
158
49
48
148
42
42
167
52
50
157
46
48
151
46
45
157
47
46
166
46
43
166
48
43
170
57
53
179
57
51
176
52
46
183
62
54
188
67
59
195
73
62
186
70
63
189
74
61
183
68
61
197
80
67
193
86
74
187
81
72
181
62
53
178
61
55
176
61
55
179
64
59
182
65
57
191
68
58
188
69
58
188
76
64
188
79
62
191
81
65
194
93
73
199
94
71
206
92
66
193
92
70
188
90
69
191
87
66
192
85
63
200
85
63
208
105
81
207
106
81
204
102
77
206
108
87
202
109
85
202
111
92
200
106
84
182
105
85
186
105
91
194
100
82
180
98
80
183
98
82
174
81
68
177
92
75
184
104
86
170
90
76
184
99
82
184
98
85
182
103
90
194
116
101
194
114
100
186
108
90
187
110
90
198
121
96
199
123
96
198
122
96
197
122
95
197
122
95
200
125
96
198
123
96
195
118
96
198
119
95
199
120
95
200
119
95
202
122
96
205
129
98
206
131
96
208
133
97
209
134
96
210
136
96
212
138
94
214
139
97
212
139
96
215
142
98
213
135
92
218
139
94
223
142
92
225
146
93
225
145
93
222
139
91
224
140
92
217
130
89
217
135
93
218
137
91
217
134
89
216
129
85
222
134
88
215
126
86
213
124
83
223
133
88
223
131
86
223
130
85
225
133
88
221
132
87
220
132
87
225
139
87
232
145
87
231
145
89
175
119
85
89
67
43
194
140
78
171
92
47
116
7
0
112
4
0
111
3
1
108
2
0
107
1
0
109
2
0
110
2
0
113
4
0
116
5
1
117
6
0
115
5
1
114
5
1
113
5
1
111
5
1
188
123
59
113
83
48
199
137
91
181
124
83
69
50
30
177
125
61
175
103
52
116
13
4
113
4
1
114
4
0
116
5
1
116
5
0
115
4
0
112
3
1
110
2
0
108
1
0
107
1
0
107
1
0
108
1
1
110
1
0
111
3
1
145
70
29
183
134
71
166
124
82
240
166
95
239
168
100
116
84
57
204
143
70
117
27
4
108
3
0
106
3
0
103
5
1
186
114
50
173
122
59
82
58
39
186
122
81
231
141
81
235
140
77
237
140
77
236
138
76
236
138
75
235
139
75
235
139
76
235
141
78
216
143
92
109
75
52
130
93
51
218
143
70
123
38
15
109
2
1
108
2
0
108
2
1
106
2
0
109
3
0
112
5
0
112
6
0
110
5
0
106
3
0
104
2
0
105
2
1
107
3
0
110
4
1
113
10
0
218
154
78
58
30
11
220
136
88
230
133
76
229
135
77
172
112
75
109
75
38
209
140
71
142
62
28
107
2
1
106
1
1
111
14
2
115
25
4
114
26
7
105
2
0
104
2
1
107
12
2
193
123
59
168
125
65
99
65
44
218
134
83
230
132
75
229
130
78
211
127
84
112
71
51
124
89
48
219
147
77
121
31
8
111
2
1
109
2
1
109
2
0
115
29
7
205
134
69
140
99
51
110
70
50
197
122
80
214
138
95
66
38
15
211
149
79
142
64
31
114
3
0
112
3
1
124
39
14
197
145
67
107
71
54
214
135
92
159
104
76
87
63
36
199
141
72
160
83
41
116
5
1
114
5
0
114
5
1
114
5
0
114
4
0
112
2
1
108
1
0
105
1
0
104
1
0
105
1
1
121
40
14
197
131
64
176
132
66
76
45
26
204
119
71
230
125
62
227
122
62
225
111
54
229
99
52
210
59
45
215
67
41
233
98
44
238
111
45
238
117
46
237
125
51
235
124
54
231
124
60
228
123
67
221
117
74
207
110
82
200
109
85
198
103
81
183
82
65
184
75
60
186
79
64
178
77
63
177
76
62
185
76
59
168
71
61
174
72
60
180
74
63
187
87
79
177
73
65
181
78
67
173
75
68
166
75
70
163
70
64
159
61
55
151
54
49
159
68
62
160
68
63
149
56
51
158
64
59
152
59
54
140
52
49
142
56
52
153
62
57
141
48
45
146
56
54
146
54
51
142
42
42
146
50
51
147
56
57
140
48
46
148
54
55
152
52
52
143
48
48
159
60
62
160
49
49
163
43
46
169
48
47
163
45
48
164
47
48
174
49
49
165
46
46
161
48
49
186
49
47
188
52
52
179
51
51
185
53
54
185
52
54
177
46
48
171
53
51
176
57
54
185
54
52
191
55
51
192
56
50
193
57
52
194
58
54
198
64
58
209
77
65
201
74
62
192
72
63
197
72
64
197
78
68
191
79
67
196
84
74
205
88
76
208
96
70
210
100
78
207
88
63
213
93
65
215
94
73
185
66
60
190
71
64
180
63
57
198
78
69
190
73
61
194
85
70
200
92
72
193
87
68
195
89
71
196
90
77
189
90
72
200
104
76
203
109
82
202
108
83
203
111
86
200
100
77
203
107
81
206
107
80
205
110
85
206
112
84
211
115
88
201
109
94
198
107
93
196
109
97
200
114
94
199
118
92
200
118
93
199
118
91
206
125
92
202
118
93
196
112
93
187
107
88
181
96
81
194
110
91
188
104
90
175
93
83
191
105
89
188
105
86
184
101
88
181
105
93
170
92
84
190
113
95
193
117
98
197
116
97
201
123
98
200
126
97
206
134
99
206
135
98
210
140
99
208
137
97
205
132
96
202
129
95
202
125
96
202
124
95
201
123
95
199
122
94
201
125
95
204
126
97
202
124
95
205
123
95
208
126
96
209
129
95
213
132
96
214
135
97
213
133
96
213
132
93
216
135
93
216
134
92
216
134
89
220
133
89
215
126
90
217
131
88
220
132
86
222
131
84
220
127
85
214
121
82
216
125
83
219
130
87
217
126
85
222
131
87
220
131
86
220
131
87
219
128
83
233
147
87
238
151
88
220
143
91
75
52
29
204
151
74
188
112
54
139
51
19
136
51
21
133
49
20
132
49
20
129
48
20
127
48
19
126
48
19
125
48
19
127
48
19
129
48
19
130
48
18
132
49
19
132
49
19
131
49
19
131
48
18
196
130
60
120
88
50
199
150
102
73
48
21
194
145
71
197
122
50
129
50
18
128
49
19
131
50
19
133
51
20
134
51
20
135
51
20
134
51
20
133
50
20
131
50
19
129
49
19
128
49
18
126
47
18
125
46
17
125
46
16
125
46
16
151
81
32
181
134
69
172
130
86
242
174
101
241
176
104
122
92
63
203
144
71
115
28
4
106
3
0
105
2
0
106
3
0
120
34
14
195
119
54
200
142
66
89
67
35
211
140
83
233
139
71
234
140
70
235
139
69
233
137
66
234
138
63
236
141
64
236
147
73
163
114
75
143
103
51
221
153
71
157
76
36
131
48
18
128
48
20
126
48
19
125
47
18
124
47
19
126
48
18
129
50
19
131
51
19
131
52
21
131
52
22
128
51
21
127
50
20
125
49
19
126
48
18
127
48
15
218
154
76
62
33
12
223
140
89
231
137
80
232
136
78
225
136
82
145
93
60
103
71
41
205
137
67
176
105
47
127
48
22
114
3
1
114
4
1
109
3
1
115
34
15
150
83
37
194
128
55
161
116
57
81
48
27
203
124
73
232
131
66
229
128
66
229
129
71
158
97
62
154
115
63
214
144
71
153
69
31
134
49
19
128
47
18
125
46
17
125
46
17
124
46
17
140
68
35
196
125
57
171
123
66
86
49
28
225
149
102
123
82
56
146
106
60
181
111
56
114
3
0
112
3
0
124
41
16
203
147
68
42
15
5
191
127
90
81
59
34
200
142
68
176
101
47
130
48
18
132
49
19
131
48
20
132
49
20
132
50
20
132
50
20
130
49
20
126
48
18
122
46
17
147
79
35
178
116
53
189
134
66
134
100
52
89
53
33
204
119
71
233
127
61
230
125
57
229
125
61
215
99
58
210
65
44
222
75
38
236
105
32
246
122
29
237
113
25
241
119
22
242
126
30
237
119
43
234
119
58
214
108
67
214
112
83
207
111
85
193
96
76
199
100
79
190
89
73
184
79
65
184
82
68
181
85
71
185
86
71
193
94
82
182
79
68
186
81
71
195
82
68
175
66
57
189
78
66
177
72
64
169
64
57
161
59
52
160
62
56
158
63
59
161
65
58
155
64
60
156
63
59
146
50
46
156
60
55
154
62
56
141
51
49
157
58
53
157
54
48
153
53
50
158
62
59
155
59
55
154
50
48
161
53
52
167
54
53
162
51
47
166
55
54
167
49
48
172
49
47
163
47
46
174
50
50
172
51
52
180
49
47
185
52
51
175
49
48
181
54
51
175
53
51
184
59
55
190
55
51
184
58
54
182
50
47
187
52
47
184
48
46
190
59
55
182
56
54
194
66
61
190
57
51
192
62
52
198
67
59
186
68
66
203
78
69
203
91
76
210
96
69
214
103
68
213
102
67
213
101
66
211
100
68
212
102
69
214
100
68
203
88
64
211
100
65
211
98
71
210
83
59
219
94
61
210
91
67
179
53
48
171
51
47
182
60
53
177
55
49
176
56
51
197
77
61
200
78
57
200
81
62
200
95
75
201
102
81
208
110
82
199
104
81
203
104
83
202
106
88
207
113
90
202
107
88
206
105
85
211
110
81
214
120
85
211
120
85
211
119
85
208
121
89
206
121
93
200
116
95
209
130
99
204
122
91
201
117
91
201
120
90
208
127
93
202
121
90
204
121
92
202
122
92
202
122
93
204
124
97
190
109
91
193
114
95
193
110
92
184
106
88
189
105
87
185
100
87
177
98
93
180
96
86
174
92
81
183
103
90
190
109
95
195
114
102
195
113
99
197
115
97
199
118
94
200
123
95
206
129
97
205
130
95
208
134
96
210
136
97
210
137
97
208
137
95
210
137
95
212
139
98
207
134
95
210
135
96
209
133
96
206
128
94
206
126
92
206
123
91
206
123
90
207
123
87
217
132
90
221
136
86
223
137
87
229
139
86
214
120
82
222
127
83
217
123
81
213
119
80
216
121
82
225
130
85
218
124
81
219
125
82
217
126
82
221
128
84
222
131
86
224
131
86
220
125
80
238
154
90
239
159
90
223
151
91
73
49
27
167
120
58
173
117
58
177
122
65
178
124
67
178
126
70
178
125
70
177
125
69
176
125
69
176
125
68
175
123
68
175
123
67
175
123
67
175
124
69
177
125
69
175
125
67
177
126
69
176
126
67
177
129
68
97
71
44
202
147
93
73
46
19
165
121
64
174
119
57
173
119
61
174
121
63
176
124
67
177
126
68
178
127
68
178
126
68
177
127
68
178
126
68
178
127
67
177
127
67
177
126
68
176
125
67
174
123
66
173
123
65
171
122
65
170
122
62
130
99
58
171
126
80
242
171
95
237
168
96
113
86
59
204
146
70
118
29
4
108
3
1
107
3
0
110
4
1
124
39
15
183
111
51
209
150
60
102
78
39
213
150
85
241
160
76
240
158
75
241
152
68
240
150
64
241
152
64
242
157
69
237
157
71
161
117
73
136
100
51
176
124
61
181
128
68
180
128
70
181
130
73
180
128
71
178
127
70
175
125
69
174
125
69
176
126
69
177
127
70
177
127
71
178
128
73
179
128
72
180
129
72
178
128
70
176
125
66
175
124
64
171
127
67
70
37
17
226
138
85
232
135
76
230
133
72
232
132
71
223
130
73
165
103
65
83
55
33
160
116
60
204
146
79
199
136
69
200
135
71
195
132
68
203
146
75
166
120
62
107
77
39
101
62
35
213
129
71
234
131
57
234
129
56
229
126
56
230
128
60
156
92
53
144
107
59
180
129
63
181
127
68
178
127
69
174
124
69
172
123
67
170
122
66
169
119
64
171
120
64
171
121
60
154
112
62
85
47
26
227
141
88
198
123
75
121
89
54
199
132
68
125
33
14
112
3
1
114
22
9
196
137
82
44
18
1
186
123
80
82
56
31
167
120
59
175
122
62
175
125
66
179
129
70
181
130
73
180
131
72
180
130
71
179
130
72
176
128
70
173
125
68
169
121
65
165
119
60
115
86
47
83
58
38
139
83
46
213
122
64
236
126
50
236
127
47
239
127
46
238
121
47
224
102
43
226
98
40
241
119
34
239
117
26
238
112
28
237
109
24
245
124
20
243
124
27
227
106
49
225
100
65
209
97
73
210
99
75
209
101
78
202
96
76
197
84
67
195
80
60
204
91
69
200
88
74
195
85
72
187
72
60
184
62
54
179
60
51
183
61
49
180
59
49
174
56
46
173
60
52
169
53
47
162
47
42
167
57
51
148
48
45
151
53
50
150
51
48
149
54
50
162
56
51
160
49
44
161
56
52
156
53
50
159
51
48
162
47
44
165
47
45
171
47
46
166
39
37
176
48
45
184
48
46
181
42
43
182
44
44
195
48
45
192
53
50
181
48
47
193
52
50
191
50
48
184
45
44
191
54
52
195
55
51
197
54
51
198
54
52
196
54
51
200
58
52
197
56
50
194
52
47
199
61
56
200
57
50
203
67
53
199
70
57
206
77
61
203
85
68
201
85
67
210
98
73
215
99
67
203
94
69
201
98
78
213
102
77
216
98
64
213
99
67
215
102
72
220
101
64
218
98
63
213
102
71
215
101
70
213
97
67
205
97
74
210
104
72
205
104
79
191
98
80
202
115
88
201
118
93
186
54
45
187
53
43
185
55
44
188
59
49
185
56
48
190
57
48
197
60
44
190
63
51
190
71
55
207
86
58
209
97
68
214
105
75
204
99
70
213
107
75
201
99
73
206
110
86
206
107
84
207
104
82
211
111
85
216
124
87
212
124
85
216
127
85
210
123
83
209
125
87
214
134
90
213
131
87
209
130
91
205
122
92
200
115
88
203
118
89
210
129
93
211
134
95
212
133
91
207
126
90
199
119
93
198
120
94
200
121
93
201
122
93
205
123
93
201
116
93
202
118
98
200
115
96
201
118
100
197
114
97
198
115
101
196
111
99
196
112
97
196
113
98
198
112
96
197
114
94
199
114
96
197
114
94
202
121
94
209
129
94
204
126
91
210
132
94
215
135
97
215
136
98
214
136
95
216
138
93
216
140
94
217
142
92
217
141
94
213
132
91
211
127
87
223
137
89
217
127
83
226
133
86
223
127
79
227
128
81
220
122
81
218
121
83
216
120
80
221
124
81
218
121
79
219
122
79
230
135
83
221
126
80
221
124
81
221
124
79
231
136
81
227
131
79
228
132
80
230
139
83
230
141
84
230
142
83
194
124
74
181
123
78
180
123
79
180
121
76
181
123
77
183
125
80
180
124
77
179
126
79
180
125
78
178
128
79
179
130
79
178
127
77
180
130
82
177
126
79
179
127
80
179
127
79
180
131
81
181
131
81
180
134
83
205
146
88
235
163
87
193
136
75
181
134
85
179
130
81
178
131
83
182
136
87
174
124
75
179
133
83
183
137
85
175
128
78
181
136
85
183
141
88
179
131
80
182
141
89
180
138
86
178
133
83
179
136
85
178
135
83
181
136
86
176
133
82
182
138
85
222
160
92
241
171
90
222
162
101
106
78
39
205
134
66
119
19
4
110
4
0
110
5
0
123
40
15
204
141
72
149
108
53
85
62
34
178
135
87
232
165
89
238
161
80
237
160
78
234
151
70
236
152
64
239
156
69
239
153
67
237
163
77
220
167
96
180
138
84
173
135
88
180
140
90
177
138
88
178
141
91
178
136
87
182
140
91
173
136
86
180
142
94
179
140
94
172
135
88
175
137
92
180
138
93
179
142
97
173
134
88
184
143
98
173
126
80
175
125
79
172
114
72
201
122
74
231
132
72
230
130
68
230
128
60
230
128
57
232
129
63
232
133
69
207
127
73
172
107
64
124
81
52
84
55
23
83
53
22
82
53
22
98
64
32
174
108
61
181
108
56
223
131
60
238
133
53
236
128
47
232
123
45
229
122
48
231
125
52
218
126
66
172
101
56
173
105
62
176
107
65
173
106
65
172
106
65
174
108
69
169
104
65
169
104
65
172
106
68
171
107
67
172
110
69
200
122
71
230
135
73
224
132
71
132
84
55
181
125
65
169
90
46
110
1
0
105
1
1
186
122
72
118
86
47
183
120
76
200
132
79
165
106
67
167
106
70
168
107
70
167
105
68
170
106
70
170
106
68
168
103
66
172
107
69
172
108
70
172
110
70
173
111
70
174
112
68
186
116
64
211
125
59
235
129
50
236
123
43
237
125
41
238
124
37
230
108
40
214
83
30
243
122
23
248
132
16
249
132
17
245
123
25
244
120
30
240
113
29
244
123
27
238
113
41
216
73
40
196
52
39
198
64
50
197
64
47
195
64
49
202
68
51
211
77
58
208
70
48
216
79
50
199
63
48
197
60
43
192
63
46
192
61
43
198
58
43
200
63
47
183
56
41
191
59
44
191
56
43
189
50
43
191
49
42
188
48
42
165
47
43
171
57
52
166
49
44
165
46
41
179
50
46
176
48
43
170
45
41
183
46
43
191
45
42
190
41
39
193
46
44
194
43
43
198
43
40
208
48
46
204
44
41
203
46
44
204
49
47
201
51
48
206
53
48
203
41
40
203
43
40
203
51
48
199
48
44
202
54
46
207
56
45
201
50
41
205
50
43
214
57
46
217
68
47
213
75
50
220
80
55
211
71
53
208
69
52
216
81
58
205
74
59
212
95
69
211
104
76
210
108
79
216
109
74
214
98
58
215
112
75
213
113
79
206
109
84
206
107
88
206
111
94
198
109
92
207
111
87
208
111
86
197
101
89
199
99
91
204
104
93
205
109
91
199
105
87
203
106
89
207
102
78
204
93
65
198
94
73
195
54
42
192
56
45
185
57
46
186
61
53
191
58
43
204
65
44
208
68
43
215
73
45
205
67
47
194
62
44
206
71
49
203
74
51
216
91
53
220
112
62
213
111
69
217
113
72
216
114
69
210
111
75
211
108
79
220
122
81
218
125
77
214
122
79
212
121
82
216
127
86
214
131
85
216
135
87
219
141
92
214
137
91
215
136
95
207
126
91
206
123
92
211
128
92
209
127
89
204
120
88
205
122
88
203
122
88
205
124
90
202
122
93
201
112
90
189
91
77
197
101
87
196
98
85
198
97
82
200
102
89
202
103
90
195
94
85
204
107
91
199
109
95
204
115
97
202
113
93
199
115
95
203
118
97
204
120
96
206
122
93
206
123
92
204
121
92
201
114
90
168
72
65
197
105
84
206
123
92
208
122
88
213
129
91
213
127
91
208
118
86
210
121
87
216
123
86
212
114
79
216
118
82
216
115
77
218
116
77
217
118
76
219
119
75
222
125
77
224
128
77
228
130
79
222
123
76
228
131
81
224
125
80
220
121
79
223
124
79
236
136
78
230
130
76
225
129
77
227
131
78
230
137
80
234
142
81
237
147
80
237
149
81
237
149
83
239
149
82
240
154
83
242
161
88
240
165
91
239
170
94
240
171
94
239
173
95
239
170
92
240
167
90
240
161
87
240
159
85
239
159
84
240
159
85
239
160
84
239
165
87
239
168
90
239
164
84
240
168
86
241
166
86
238
163
83
241
166
85
240
167
87
238
163
82
241
171
88
239
171
87
238
168
85
242
176
91
240
175
90
238
174
88
241
178
92
240
177
93
238
171
88
240
176
91
240
174
90
238
172
89
240
174
90
239
171
89
237
168
84
241
173
86
242
170
86
149
112
73
147
110
52
191
117
53
109
1
1
109
3
1
146
73
29
211
149
76
113
86
48
127
97
65
219
159
92
241
173
91
240
168
86
240
167
87
238
167
87
239
161
80
239
163
79
239
160
73
237
157
71
236
168
83
238
174
89
239
184
100
236
182
101
239
179
98
238
181
100
237
175
94
238
179
100
239
181
103
234
179
100
240
186
108
237
187
110
235
179
102
235
183
107
237
183
106
235
180
103
236
176
102
235
170
95
238
164
92
239
153
81
239
146
78
235
136
73
229
126
69
229
126
68
230
129
63
229
128
60
231
131
63
234
132
64
234
133
63
235
135
64
227
132
67
221
132
72
223
134
74
223
134
74
226
136
72
236
139
61
239
137
55
240
135
48
238
130
43
231
121
43
227
117
43
230
119
42
228
119
46
230
123
47
229
127
55
231
129
60
233
131
63
233
133
65
235
136
68
233
133
67
233
134
67
232
133
66
233
133
67
232
134
67
230
134
66
229
133
65
228
129
63
229
128
63
200
124
77
83
52
26
207
140
69
147
70
33
101
1
1
171
103
52
157
116
61
115
74
44
229
137
69
229
135
65
230
135
67
229
135
67
226
131
67
225
130
69
227
132
69
225
131
69
225
130
68
227
132
68
228
135
68
230
136
67
232
139
67
234
133
59
237
130
47
239
127
42
241
122
33
241
121
25
231
106
26
241
119
25
247
128
18
249
131
8
250
133
8
249
134
10
249
129
17
246
125
29
244
118
33
239
104
33
224
76
43
209
55
43
205
59
42
211
63
42
207
53
38
204
50
43
211
56
44
208
51
41
210
55
43
210
55
43
206
57
44
205
54
38
214
66
45
208
55
39
207
53
42
208
56
43
206
55
42
206
52
39
205
52
40
205
50
39
209
57
44
198
51
42
202
46
39
208
51
42
208
51
42
204
48
40
203
48
43
200
46
41
209
52
42
209
55
43
211
59
44
214
61
46
212
60
44
212
60
43
216
68
48
214
61
46
211
54
42
213
50
42
215
55
45
209
48
41
215
55
44
218
57
46
214
61
43
213
67
43
215
77
52
217
92
61
215
86
56
220
89
59
215
67
46
216
60
47
217
64
39
226
91
53
219
78
45
217
88
55
216
94
64
217
98
68
206
86
69
205
98
78
205
108
86
208
115
88
211
118
86
215
117
84
210
115
82
208
117
88
206
116
88
207
115
89
199
112
92
196
110
101
197
106
95
196
102
92
199
109
99
199
111
102
194
108
97
200
115
97
200
111
93
200
111
92
202
111
90
204
109
88
198
108
90
186
59
51
191
61
49
185
56
42
193
66
52
201
71
49
203
74
46
211
74
47
209
71
44
211
77
46
207
74
42
219
89
46
214
93
47
217
92
48
216
95
52
205
92
51
213
107
61
224
124
64
227
128
57
228
125
55
228
127
58
229
128
56
226
128
57
227
121
53
218
103
49
225
114
65
218
117
71
219
120
76
219
122
82
221
126
90
213
117
88
214
120
90
215
125
88
209
121
86
208
121
87
211
124
86
210
125
86
213
126
84
210
124
84
204
105
70
181
60
49
190
64
57
190
64
57
185
69
61
183
81
78
179
64
59
187
62
55
184
66
60
171
58
59
188
77
69
187
78
66
200
102
80
205
109
84
205
110
84
208
116
89
210
120
87
208
116
88
207
119
91
199
108
89
173
77
68
197
97
75
198
91
66
212
118
88
218
128
90
220
127
84
220
130
85
225
130
82
222
126
77
217
119
77
219
121
75
225
126
73
227
131
74
229
132
73
228
131
73
228
132
74
232
135
76
229
132
76
228
131
75
229
132
74
229
132
73
230
131
71
232
130
67
225
124
65
224
126
69
229
132
71
229
134
73
233
139
76
236
145
80
237
149
80
236
146
76
237
144
76
233
141
74
232
141
74
235
146
76
238
157
85
237
154
81
240
166
91
241
161
86
241
156
81
240
155
79
240
151
77
239
151
76
240
154
80
239
152
77
237
148
73
239
159
81
241
164
84
236
156
76
240
155
77
238
156
77
239
156
76
239
159
78
239
164
82
240
167
83
240
169
84
239
166
80
240
169
81
241
173
85
240
172
82
240
172
82
239
173
85
238
170
84
238
172
85
239
173
88
240
175
89
238
171
85
238
170
84
238
170
84
239
169
84
234
170
92
120
94
65
166
121
62
150
77
32
103
1
0
149
78
35
195
139
68
107
78
37
152
112
74
230
162
93
242
169
88
239
166
85
239
164
82
240
162
84
240
158
75
241
157
71
241
156
68
238
155
71
238
154
71
239
155
75
235
157
78
238
167
87
237
170
91
237
165
85
237
173
94
237
169
91
236
171
93
237
169
93
236
172
96
238
176
103
235
174
100
237
174
101
237
176
102
236
168
94
236
170
95
236
162
89
233
153
81
236
149
79
239
145
77
239
145
80
235
138
80
227
125
77
224
122
71
230
127
64
233
131
65
233
130
65
227
124
63
231
129
64
234
133
65
234
131
65
234
131
65
232
128
60
230
130
62
237
134
58
239
135
50
239
132
45
236
125
43
234
122
45
231
120
42
232
121
40
233
122
43
234
122
48
233
122
45
229
122
49
231
122
48
231
122
51
228
122
53
229
125
56
228
124
54
229
126
55
231
126
58
228
125
56
227
125
57
227
126
58
227
126
59
226
125
60
227
125
62
224
126
66
168
102
65
95
64
41
191
130
68
153
83
40
115
32
15
206
145
75
109
77
44
213
135
78
230
135
66
229
131
63
227
129
62
225
127
63
223
125
64
226
127
65
223
126
64
221
124
63
228
129
61
229
130
63
231
132
63
232
130
60
237
129
47
238
124
34
244
125
27
237
114
21
247
125
12
250
128
12
248
130
7
250
130
6
249
130
6
249
131
7
249
132
10
247
127
22
234
100
35
220
79
31
229
86
38
218
69
31
219
77
40
228
94
38
227
84
39
217
62
42
214
52
43
215
52
44
211
47
40
217
52
42
220
56
46
211
52
39
228
78
55
215
58
46
214
61
49
211
57
45
210
54
44
206
48
40
208
51
40
208
52
41
209
52
40
207
52
42
209
54
42
214
54
45
213
53
44
209
52
42
214
62
49
210
55
46
209
50
41
211
59
45
208
70
51
204
65
47
209
63
48
210
66
47
209
60
44
219
77
54
211
61
41
217
62
46
220
56
46
218
56
44
223
61
44
225
72
48
213
65
41
226
94
55
222
86
46
218
74
46
222
95
63
213
72
54
220
66
48
218
71
50
217
91
59
215
91
59
211
86
56
212
85
56
214
103
68
197
95
73
209
110
82
206
112
85
203
105
81
202
100
74
207
112
82
208
118
85
209
115
83
201
104
82
193
101
84
197
109
93
203
112
93
193
101
93
180
95
90
192
105
93
189
103
90
179
91
87
186
101
95
188
105
97
196
110
97
194
100
89
196
106
94
188
101
92
192
109
97
184
105
95
199
81
58
208
91
65
203
90
64
212
101
69
212
105
67
212
112
72
216
96
56
222
101
55
217
106
56
223
114
58
226
120
62
217
113
61
220
115
64
216
110
63
222
117
68
215
113
65
223
123
67
229
126
63
224
121
57
236
134
51
241
137
36
245
139
28
247
136
17
247
134
12
241
122
18
229
101
19
232
97
23
221
83
22
231
99
29
216
79
36
213
75
38
219
83
48
216
88
58
224
106
68
218
103
68
206
96
71
222
114
76
220
117
73
225
120
69
230
118
65
203
73
48
191
50
41
198
65
53
185
69
66
182
68
63
186
76
69
182
68
64
177
66
64
181
65
64
170
58
58
174
59
59
183
57
53
182
57
47
191
62
48
214
90
56
194
65
45
203
87
65
204
97
75
212
113
85
216
115
82
197
82
63
193
78
68
211
95
68
220
112
68
219
114
72
217
109
66
226
125
69
225
122
67
220
116
63
231
130
69
232
133
69
232
132
70
230
132
71
234
128
66
234
127
67
234
127
61
239
133
59
238
134
55
238
134
53
240
134
50
238
131
45
242
132
37
242
133
35
241
134
36
239
130
37
236
128
42
236
130
48
236
137
54
239
141
57
241
144
58
239
143
63
240
142
64
239
139
59
241
140
60
235
134
58
239
139
61
240
139
61
239
137
59
240
142
63
241
142
65
239
141
63
240
141
63
240
141
64
238
138
61
238
144
67
240
146
68
237
145
64
241
149
67
239
149
65
239
147
66
241
150
68
240
151
67
239
150
66
240
155
68
242
158
70
240
155
67
242
160
72
241
161
70
241
156
66
241
161
74
241
162
76
239
161
74
240
164
77
241
166
80
238
164
78
240
169
81
241
169
83
238
165
78
205
151
87
93
63
27
207
139
61
140
58
25
172
100
47
179
127
61
65
44
18
171
123
77
239
163
90
242
158
79
241
149
66
243
148
61
242
144
53
240
139
51
238
137
45
242
140
45
240
140
48
238
139
50
240
146
60
242
153
71
238
156
77
240
158
79
239
162
80
238
158
78
239
157
77
239
154
74
238
148
68
238
146
71
238
144
70
239
143
71
237
142
71
238
141
72
239
142
70
239
140
69
238
142
72
238
142
73
234
136
71
230
131
71
229
132
72
229
132
74
229
129
70
228
125
65
226
124
60
229
125
57
231
127
59
230
125
60
229
123
57
229
124
56
232
125
53
231
129
55
231
129
57
234
128
50
233
128
47
235
128
38
237
127
31
233
120
36
227
112
42
233
113
46
228
106
42
233
110
43
220
93
52
212
82
47
222
104
49
228
118
47
231
116
44
228
118
48
226
119
52
225
118
52
228
122
55
225
121
55
227
121
55
224
119
55
222
119
57
222
121
58
224
122
60
224
122
61
223
122
62
224
120
61
223
123
64
186
111
69
99
67
41
179
127
66
175
98
51
207
130
62
145
105
52
127
81
51
224
135
72
226
128
67
216
112
60
218
112
62
217
109
62
216
109
59
219
110
62
219
109
59
217
108
58
226
117
63
223
114
60
223
110
49
244
129
33
244
127
21
248
130
14
247
131
10
247
127
14
243
121
18
240
116
16
248
124
18
242
115
17
240
112
19
247
127
17
243
120
19
238
110
26
246
123
23
246
123
20
239
109
26
233
98
37
222
74
37
216
58
39
222
69
42
221
65
38
223
68
41
224
65
41
227
76
39
236
94
40
229
76
39
225
64
40
219
62
42
217
60
46
209
51
42
209
52
42
212
53
43
209
51
39
211
52
42
210
51
40
212
51
42
213
56
43
213
53
43
213
56
45
213
55
42
214
57
43
213
64
46
212
66
47
215
75
49
213
70
48
214
64
46
213
61
46
211
59
46
210
55
45
210
54
44
210
55
43
210
61
51
204
57
47
203
56
46
206
58
48
206
57
45
205
59
47
203
63
49
198
57
41
208
60
47
209
73
58
198
62
50
205
68
57
206
79
62
200
95
68
204
101
73
202
99
73
214
102
74
198
92
67
199
92
74
194
90
69
201
95
73
186
79
64
193
82
65
190
87
69
175
88
70
183
93
76
184
95
79
191
107
87
199
121
100
199
117
97
199
119
101
198
117
99
200
119
96
199
121
102
199
117
99
199
114
94
197
115
95
198
116
94
201
115
93
201
120
95
201
119
93
206
122
93
204
125
96
204
76
57
211
80
56
205
84
65
203
81
60
207
92
61
206
100
70
217
101
63
224
118
62
223
120
61
226
120
62
221
117
64
223
123
70
225
124
72
221
119
71
224
121
72
219
117
70
224
123
69
222
118
65
220
115
65
226
122
67
225
123
67
228
129
68
229
130
63
235
136
57
239
138
48
243
140
40
243
137
31
245
139
24
246
140
18
249
139
16
249
136
17
248
129
23
229
104
21
228
97
24
219
78
27
211
64
38
205
55
39
202
60
47
203
71
50
217
88
58
211
82
50
226
90
57
210
65
47
202
54
50
195
57
53
186
56
51
191
74
64
206
100
83
193
80
71
192
84
74
194
88
75
186
78
67
190
65
55
195
62
57
196
55
45
208
67
44
199
67
52
192
63
61
202
70
59
209
75
52
211
73
52
205
62
52
201
50
39
231
98
44
227
101
45
217
82
43
224
88
48
216
82
45
227
107
53
231
114
56
220
96
53
223
94
51
225
100
51
229
101
35
236
116
29
233
105
36
234
104
41
233
108
38
233
117
35
244
134
30
245
136
31
242
131
33
240
128
35
239
127
37
243
132
37
242
130
34
241
129
32
239
128
32
238
126
37
234
127
43
240
134
49
240
128
48
237
124
46
237
125
43
234
123
46
237
128
45
234
124
43
238
127
43
238
128
40
239
131
42
239
130
43
239
129
41
240
130
40
238
129
42
239
132
45
239
130
42
240
134
47
239
136
50
240
137
47
241
138
48
241
138
48
242
140
49
240
138
49
240
138
48
241
139
49
238
138
47
240
139
47
239
140
47
238
138
46
241
143
49
240
142
51
239
145
58
240
148
61
241
149
61
240
152
64
240
157
70
241
159
73
236
158
76
136
100
63
138
95
41
198
119
47
183
111
53
169
124
63
69
46
24
196
136
87
239
151
77
242
147
71
240
143
65
237
136
56
241
136
51
245
137
47
240
132
43
236
129
42
241
136
45
240
136
46
242
138
49
242
139
49
242
136
45
243
137
49
243
137
45
242
139
46
241
142
59
241
140
52
242
138
44
244
140
38
245
140
38
243
136
41
242
131
43
238
129
49
240
131
48
240
127
45
239
124
48
238
129
51
237
130
56
235
128
55
230
123
55
228
121
52
230
120
49
229
112
40
233
113
28
237
120
28
226
104
35
227
102
49
227
109
48
234
118
47
236
117
48
229
113
50
230
117
51
227
113
53
238
124
48
236
124
47
234
121
42
234
117
39
232
112
39
234
112
43
221
85
43
226
85
46
227
92
45
226
99
55
215
92
54
218
93
52
221
98
49
218
95
50
220
107
55
227
116
54
225
113
57
232
119
59
231
119
57
229
117
61
230
118
63
227
116
59
224
111
60
224
112
60
218
116
66
214
114
65
219
118
64
224
122
63
224
123
63
203
121
72
123
79
53
151
105
56
205
136
63
193
135
72
108
70
46
218
132
75
214
110
68
219
100
62
215
89
58
209
84
57
211
81
55
217
80
56
211
69
49
211
74
51
209
69
44
214
75
50
219
90
45
232
107
40
229
102
32
229
100
29
231
100
29
232
100
36
223
85
37
223
79
40
221
75
32
227
83
37
229
88
35
236
102
29
235
101
28
236
102
29
230
95
28
225
83
32
224
73
40
223
69
40
221
74
33
227
88
32
225
88
29
228
92
28
237
108
24
240
112
27
235
110
17
243
123
21
236
104
29
225
75
35
225
75
36
224
81
43
207
52
43
213
53
47
215
51
43
210
50
42
214
54
48
212
51
42
218
54
46
215
53
45
212
50
42
217
57
44
216
57
43
210
56
38
216
63
44
221
66
44
212
55
37
212
54
42
212
52
41
206
46
38
208
54
46
204
51
45
199
49
41
200
51
45
198
59
51
185
50
40
192
58
48
182
54
44
185
63
53
189
58
49
191
59
52
190
54
45
202
57
48
187
53
46
184
58
52
182
56
49
187
59
53
195
70
62
187
66
55
189
66
57
194
74
65
187
85
71
192
92
76
188
90
71
196
107
80
204
113
83
202
114
83
208
120
85
212
129
91
213
131
91
210
131
90
209
131
90
205
127
91
206
128
94
205
125
90
204
124
90
205
123
89
201
121
90
200
122
92
208
130
94
210
130
93
210
129
92
209
127
89
209
128
88
212
131
92
206
126
91
200
124
94
200
78
57
198
81
58
198
81
55
204
83
57
216
90
54
212
89
53
207
84
50
225
116
61
215
106
58
219
113
62
216
108
64
221
115
69
217
111
68
216
109
68
222
113
68
221
113
69
221
114
68
221
115
66
224
119
67
223
123
70
221
122
69
225
124
73
224
128
74
226
133
75
228
135
76
224
134
72
225
134
70
227
135
65
231
140
66
236
141
64
235
138
58
240
142
51
243
141
41
243
130
10
245
128
10
247
127
15
230
100
22
202
54
34
205
51
41
205
58
46
201
53
49
203
53
49
207
54
40
210
61
48
214
65
46
210
76
47
217
105
62
211
96
65
191
61
54
175
56
58
186
56
52
202
89
76
186
70
67
212
86
63
223
94
51
223
96
63
197
75
63
198
63
56
213
59
47
220
57
40
226
64
46
219
55
39
219
61
45
223
76
47
217
71
43
220
77
43
222
76
45
209
47
39
217
58
46
220
62
43
217
57
44
219
58
45
218
56
41
221
70
42
231
95
39
223
68
38
222
63
40
216
64
33
240
107
34
243
121
22
245
129
19
243
128
19
247
137
23
246
140
29
246
141
29
244
138
26
244
139
27
244
138
31
241
132
29
240
129
29
238
126
27
236
122
34
231
116
38
234
119
33
234
119
36
234
119
35
235
119
36
235
121
37
236
125
33
238
127
33
240
128
33
238
125
32
240
125
27
239
126
26
237
126
27
236
124
29
238
124
31
238
125
30
238
124
27
239
126
25
241
127
26
239
126
28
240
129
33
240
128
35
239
128
32
239
128
30
239
130
32
237
130
34
238
131
39
238
132
41
238
133
45
239
132
48
237
133
51
237
134
54
239
138
59
240
142
62
240
144
64
236
152
79
84
56
34
179
133
58
212
148
59
138
98
47
76
53
36
202
141
90
240
152
79
243
147
71
240
140
64
239
135
52
239
131
41
239
127
39
241
125
35
239
120
30
243
131
38
245
137
41
243
134
40
243
136
41
243
134
38
240
129
35
243
127
32
242
127
36
241
128
40
245
130
36
244
130
29
243
131
29
244
130
25
240
124
24
243
127
22
241
122
25
240
118
39
238
118
41
236
111
48
226
100
46
237
119
39
238
123
42
238
119
41
225
100
39
238
113
35
237
108
34
231
97
32
240
111
22
244
123
26
233
100
40
228
82
45
218
74
39
229
87
38
226
79
40
222
76
43
229
89
41
224
88
48
223
88
49
212
75
42
219
81
47
213
68
43
213
66
42
214
66
41
211
62
47
217
63
41
219
65
38
218
66
44
220
74
48
217
71
45
217
74
49
212
73
47
216
80
47
222
92
50
225
92
52
220
83
52
219
83
51
213
77
56
216
80
53
219
95
57
214
95
59
216
96
56
216
111
62
217
114
64
217
117
68
222
122
67
225
124
64
226
127
65
219
130
75
147
92
61
77
52
28
72
44
23
160
100
66
218
125
68
211
106
66
225
114
65
215
93
51
222
93
57
212
67
43
213
65
44
213
62
36
219
71
44
214
62
40
219
72
46
209
64
42
213
70
43
216
67
45
212
66
47
217
78
40
221
79
43
223
84
39
229
100
27
239
113
23
234
108
19
237
109
26
227
96
27
228
92
34
229
86
38
233
99
33
229
95
31
241
115
22
240
116
18
247
127
14
248
131
8
247
131
11
248
132
7
249
133
3
249
133
2
247
129
8
241
116
15
244
117
22
238
109
25
240
113
26
219
83
33
225
83
48
220
65
42
221
57
36
219
57
40
222
58
43
215
54
36
215
54
42
219
64
45
215
57
38
220
68
46
216
68
42
220
77
48
214
66
45
209
58
44
208
55
46
207
51
43
208
56
46
193
50
44
203
52
45
202
52
45
192
56
48
190
54
46
195
66
55
185
58
47
193
65
53
184
60
48
196
58
46
199
56
45
193
57
48
197
69
54
195
71
59
185
69
56
208
101
78
206
100
76
203
103
77
206
106
74
217
119
80
212
120
80
205
118
82
205
122
82
209
124
82
208
124
78
214
133
83
214
135
85
215
135
85
216
136
84
215
137
84
217
139
87
212
135
87
208
130
89
202
121
89
201
121
87
206
125
87
208
128
88
209
128
90
204
124
90
206
127
92
207
133
93
206
129
90
208
130
92
205
127
91
204
125
92
206
125
94
202
120
94
200
117
94
212
103
66
216
112
70
210
102
65
222
120
74
212
107
64
219
122
75
218
120
75
217
120
73
219
121
76
217
121
74
220
123
77
224
125
76
217
120
73
218
122
77
223
123
75
220
120
70
222
122
69
225
125
69
223
126
69
227
133
77
224
129
74
223
127
74
226
129
71
227
131
69
223
127
70
221
127
72
222
129
71
220
128
70
224
136
76
228
136
74
227
134
73
228
134
68
233
138
64
240
141
52
241
141
33
246
142
23
247
138
11
246
132
19
230
105
25
220
79
38
216
62
37
217
56
43
217
53
41
218
64
42
220
71
43
220
79
46
220
85
44
236
109
54
221
89
45
217
74
54
208
55
48
191
45
45
189
47
53
199
51
51
206
56
43
220
67
43
224
70
46
222
58
42
225
60
41
229
63
42
217
47
37
217
55
35
222
68
30
234
97
29
219
76
29
218
72
33
223
80
30
230
85
40
216
55
38
220
59
44
216
60
47
225
77
56
220
55
40
225
63
43
221
75
31
247
117
26
239
109
17
247
118
30
235
100
22
229
92
28
240
109
31
236
109
22
246
133
17
245
144
25
245
146
30
245
143
27
245
143
29
246
143
29
245
141
27
243
141
32
244
142
32
244
142
35
240
137
37
241
135
37
239
130
34
238
129
35
240
130
35
241
132
32
240
132
36
242
134
37
238
132
41
241
134
49
237
134
55
238
134
51
240
133
46
239
131
42
238
129
41
239
130
39
240
130
37
238
130
36
239
130
36
237
127
35
237
128
37
238
128
40
235
125
37
235
125
40
235
125
41
234
122
41
234
123
44
233
123
47
233
122
48
233
123
49
233
125
50
234
128
51
236
135
58
237
140
63
236
143
63
237
146
71
191
131
76
93
65
35
89
65
36
113
74
43
215
142
83
240
146
71
241
143
66
242
140
60
241
137
50
242
133
35
237
122
34
227
109
43
227
109
43
234
114
39
235
116
37
235
116
34
238
117
30
236
117
24
238
120
22
242
124
23
243
125
24
240
117
27
236
106
31
242
111
31
240
113
30
240
123
28
241
127
29
243
129
31
244
132
29
244
129
34
232
109
44
230
105
49
228
99
44
235
116
49
224
100
43
228
105
45
235
114
45
236
112
46
227
97
40
231
94
46
231
96
38
238
109
33
235
104
39
221
75
42
227
86
43
226
85
38
231
88
31
229
89
35
220
70
45
224
76
46
224
80
45
219
74
44
217
65
42
214
65
46
216
68
50
221
71
49
217
65
46
213
63
49
207
59
48
213
64
42
208
61
47
215
71
54
219
85
54
213
85
54
219
91
52
217
89
51
220
79
55
214
70
47
208
76
57
215
92
68
206
81
62
205
81
57
212
89
57
211
103
66
208
100
64
214
98
68
208
94
62
208
96
60
219
116
67
217
115
65
226
124
66
225
124
64
221
125
66
214
127
71
214
126
68
218
122
63
218
119
63
219
117
70
212
97
60
207
74
47
212
74
50
215
77
44
219
80
49
212
70
42
216
74
38
214
70
38
217
87
29
229
107
30
238
117
34
232
110
21
236
116
26
244
128
25
240
124
17
245
131
14
247
134
12
248
134
8
248
132
4
247
131
5
249
131
8
247
128
11
241
120
14
245
128
8
247
128
8
245
129
4
247
132
4
248
134
4
246
139
14
246
147
27
247
135
3
248
134
1
248
134
1
247
133
5
246
128
13
243
119
22
235
107
25
241
117
28
230
92
39
223
76
43
229
90
43
232
97
42
233
103
48
225
92
42
229
87
42
230
79
45
225
73
42
225
73
46
223
73
42
226
79
46
216
65
46
193
47
39
196
52
42
209
58
48
205
54
45
214
62
48
220
68
49
215
65
47
214
62
49
210
64
47
204
69
48
211
77
56
207
78
51
213
93
60
213
95
60
217
100
61
219
110
70
217
113
77
215
115
75
217
118
78
216
118
77
219
123
79
217
121
77
216
121
77
213
118
77
215
122
81
216
126
81
215
129
80
218
132
83
216
131
82
214
134
86
215
136
87
216
138
92
213
134
88
215
135
90
210
133
88
213
136
92
207
127
89
204
124
89
202
124
91
207
131
92
205
126
90
205
126
91
202
125
92
201
124
93
204
126
92
204
128
93
204
125
91
207
124
92
201
115
88
202
115
90
201
109
87
197
104
85
187
91
80
217
131
84
219
133
86
217
130
85
217
130
84
213
124
81
212
125
82
216
127
82
213
125
81
216
128
81
217
130
83
217
129
82
221
133
81
223
136
81
222
136
83
226
138
80
231
144
80
230
143
79
228
139
77
229
140
80
227
138
82
228
138
84
226
137
80
228
139
81
226
139
82
225
138
82
226
135
80
223
129
72
228
132
71
227
133
73
225
131
75
223
131
76
229
135
75
231
138
75
227
135
72
231
137
72
235
138
64
238
138
47
240
140
40
245
140
33
246
134
24
244
127
22
238
112
25
232
93
26
235
98
25
240
114
21
239
112
19
241
109
23
230
90
30
221
78
29
226
84
36
222
69
32
220
55
37
220
54
43
214
48
42
219
50
41
225
57
38
224
55
36
221
52
40
222
51
40
227
58
38
225
80
28
246
122
21
249
129
10
248
132
5
249
133
7
248
130
13
248
130
12
246
125
13
245
122
22
242
115
31
208
51
36
221
68
54
217
52
39
223
58
43
230
90
36
248
127
17
248
127
11
239
114
18
238
106
18
244
114
29
239
112
28
249
129
22
247
131
15
245
135
30
244
138
42
245
135
37
242
132
43
245
138
41
243
138
41
243
141
45
242
140
43
244
145
49
242
145
56
242
144
62
240
140
63
239
139
66
239
140
69
239
143
70
237
144
71
237
145
71
239
142
68
241
144
73
239
145
75
239
150
80
236
156
85
236
154
83
236
151
83
237
152
81
235
148
78
236
153
82
237
159
87
231
141
73
234
142
75
235
143
78
232
140
72
233
141
73
231
140
74
232
135
71
231
134
69
230
131
63
230
130
62
232
135
66
230
138
68
230
139
70
236
158
89
237
175
98
245
199
109
247
204
112
237
181
99
237
180
100
236
178
99
239
154
78
240
140
61
240
137
54
241
133
47
234
120
39
227
116
46
230
119
48
229
118
55
224
118
63
225
120
69
226
120
68
219
113
63
221
112
62
224
114
62
229
121
62
232
128
64
237
137
67
240
140
70
238
138
68
238
139
69
241
138
68
236
130
64
224
117
57
222
115
55
224
114
54
226
118
55
225
119
57
230
125
66
232
126
70
231
124
69
228
124
70
228
123
65
230
123
63
227
124
64
226
119
62
228
115
57
230
110
59
220
92
56
224
93
57
222
90
52
220
93
45
231
111
45
232
113
46
226
100
37
238
116
42
231
96
46
223
84
37
221
78
45
213
67
48
211
64
43
224
84
53
209
72
46
208
75
55
223
95
47
219
90
39
225
104
52
224
101
45
225
103
46
222
103
51
216
99
56
224
116
61
219
113
61
211
96
61
221
105
63
223
107
63
217
107
60
219
109
62
216
105
63
224
120
66
222
115
61
222
114
63
221
113
66
221
110
66
218
110
63
216
109
64
219
112
64
216
109
63
226
123
64
224
120
61
224
119
61
222
118
60
221
118
61
223
117
60
222
115
58
220
113
57
224
108
58
219
98
51
229
115
49
235
122
41
237
126
41
236
126
34
243
130
28
243
129
27
242
128
20
242
130
15
243
131
10
245
134
10
246
135
11
244
138
17
244
140
22
243
141
30
244
146
44
244
149
49
245
141
36
244
140
34
243
140
33
245
141
37
245
141
36
244
140
33
245
141
36
245
143
40
245
143
38
246
145
37
246
144
35
246
143
26
246
137
15
246
135
5
248
134
3
247
135
2
247
135
2
249
133
10
228
93
27
228
88
30
230
89
39
223
81
35
233
99
42
231
96
38
233
100
35
236
107
36
237
110
30
239
111
28
238
110
33
230
98
42
223
91
50
217
85
60
213
89
61
221
103
65
224
102
62
218
95
56
225
106
60
223
104
59
224
107
58
228
116
65
228
116
66
228
115
66
224
118
68
223
121
72
224
124
72
225
124
71
221
122
69
222
123
70
221
123
71
220
122
73
216
119
71
218
119
71
215
117
73
217
120
74
215
119
76
212
116
77
214
117
78
204
112
79
208
116
82
212
120
80
209
118
81
208
115
79
215
123
81
210
121
86
207
119
85
203
114
86
202
113
88
203
113
86
197
103
80
200
110
85
201
112
88
202
113
88
196
105
83
202
107
84
202
112
88
203
114
89
209
116
89
212
118
90
201
112
85
201
106
84
200
100
78
186
80
67
181
82
70
187
79
68
187
89
75
197
101
83
219
138
86
219
137
85
218
134
83
220
137
84
219
138
85
221
140
87
220
139
85
223
138
85
222
138
83
223
139
84
224
139
86
220
133
81
221
135
82
219
131
81
221
132
81
224
135
81
226
138
82
222
132
79
222
132
80
220
128
77
221
130
80
222
133
80
222
134
80
221
133
81
220
132
80
224
134
79
223
130
74
225
130
74
223
126
71
223
126
74
222
127
75
223
128
74
225
129
74
223
129
74
225
131
76
225
132
80
226
132
79
228
136
80
231
137
77
230
135
67
233
137
60
238
139
51
242
140
43
243
138
34
246
139
24
246
136
14
248
137
10
248
133
10
248
131
14
248
127
13
245
122
14
243
115
24
226
87
26
224
71
30
228
74
34
228
79
34
235
95
35
200
60
32
219
51
43
229
71
37
243
117
21
247
133
5
247
133
3
247
134
3
247
134
2
247
133
4
248
132
4
249
131
4
248
130
4
248
127
14
225
86
33
218
62
38
221
57
46
218
54
45
212
57
38
230
96
30
237
112
24
245
120
23
248
125
18
233
94
30
228
85
34
233
100
29
232
95
34
224
84
33
222
80
41
222
77
41
216
76
45
223
100
54
224
108
59
232
127
73
231
133
79
233
136
78
235
140
80
237
142
79
236
141
77
235
141
77
237
142
78
237
156
83
237
175
101
237
179
105
238
157
88
239
154
88
238
161
94
238
174
106
239
190
118
239
196
122
237
187
112
236
189
113
238
190
112
237
190
113
235
191
111
237
188
112
236
184
110
236
185
111
238
193
118
239
187
112
234
182
106
244
196
119
236
178
101
239
181
103
238
185
106
236
185
102
242
198
116
235
177
96
235
176
96
236
158
86
236
156
82
241
185
103
238
176
95
239
175
91
241
167
77
242
146
55
241
134
42
240
129
31
235
118
30
225
107
45
220
104
51
222
111
56
216
105
58
223
116
66
225
122
67
233
131
72
233
132
72
235
133
73
237
132
71
235
132
69
234
132
68
233
132
70
233
134
71
231
134
73
232
133
70
231
131
70
231
128
64
235
132
63
235
131
62
238
130
62
235
128
63
232
130
66
232
128
66
225
121
64
218
115
64
219
115
63
225
121
65
231
130
71
230
131
72
230
129
71
231
129
71
231
130
75
227
127
72
227
127
74
225
124
71
224
123
69
223
119
65
222
115
62
216
101
57
220
100
55
230
111
50
231
110
45
224
97
46
235
115
55
224
103
50
220
102
51
226
110
48
233
120
44
230
119
45
230
122
53
231
127
61
231
129
66
231
131
67
230
132
71
228
130
73
228
132
76
229
134
79
230
134
79
230
135
78
230
135
78
230
135
79
231
135
77
230
135
76
228
133
73
230
133
72
231
133
72
232
133
72
232
133
71
233
134
71
232
136
73
233
136
73
230
134
72
234
136
71
234
137
69
236
138
65
237
137
62
238
138
62
234
131
57
235
131
54
237
132
53
238
134
55
238
135
58
239
139
59
241
142
59
242
143
56
242
145
54
241
154
62
244
163
71
242
160
69
241
160
67
242
158
65
243
154
59
245
145
43
245
150
52
244
162
73
245
179
92
247
195
107
248
200
113
247
195
108
244
191
106
245
191
106
246
192
106
247
193
110
243
180
99
243
179
98
244
174
90
243
154
59
243
148
46
242
147
43
244
147
42
243
146
38
243
142
29
242
138
24
243
137
26
244
139
25
244
139
28
243
135
31
245
137
32
247
138
31
246
138
32
243
140
34
241
136
37
240
132
40
237
128
40
238
128
40
236
126
43
233
121
45
231
121
56
225
118
66
223
118
71
222
116
69
224
119
66
225
121
63
229
125
63
230
126
62
232
128
66
231
128
65
231
129
60
231
128
64
226
121
63
226
121
64
227
123
66
225
123
64
231
129
65
227
126
66
223
121
68
216
115
69
215
116
72
216
117
72
218
119
74
211
112
71
211
113
75
207
109
74
208
111
75
216
118
77
214
119
76
221
129
76
218
124
70
218
125
78
215
120
76
219
126
79
213
120
84
211
120
84
211
120
86
204
112
84
206
117
87
207
119
89
204
112
85
205
111
86
202
108
85
205
112
91
193
93
76
198
100
83
190
90
77
195
71
65
194
68
62
169
55
56
177
56
56
180
69
65
179
77
66
195
108
85
201
112
88
211
119
85
209
120
85
221
139
83
222
140
85
222
140
85
221
138
83
221
139
83
220
137
81
218
136
81
220
135
81
220
137
81
224
138
82
221
135
79
224
136
80
223
135
79
221
132
79
221
131
78
222
132
78
220
128
75
218
126
76
217
124
75
218
124
76
218
123
74
216
123
74
217
123
74
217
124
74
218
122
72
219
125
73
218
126
76
220
128
77
218
128
76
221
129
75
219
128
74
224
134
78
221
130
76
220
128
75
224
130
73
222
127
73
226
130
73
226
130
72
226
131
72
222
129
72
224
131
74
225
131
71
225
130
72
225
130
75
226
128
70
231
131
65
235
134
51
238
135
41
242
138
34
243
137
24
243
134
18
245
134
14
247
134
17
243
124
18
244
120
20
242
121
16
246
127
18
236
108
28
227
76
36
228
62
39
230
86
28
249
132
14
247
135
8
246
140
34
243
142
42
244
143
46
243
141
47
244
140
36
245
137
27
244
133
24
241
126
22
240
116
33
218
74
37
215
64
37
212
59
45
207
54
44
204
49
41
212
53
33
235
95
33
230
91
26
249
121
23
249
119
20
235
97
33
239
103
33
238
111
21
230
92
35
219
65
41
216
66
45
214
72
41
219
79
48
224
102
59
231
115
59
227
115
65
236
133
70
240
140
68
239
139
69
239
142
72
240
163
90
237
177
100
244
196
116
232
168
97
234
161
94
237
185
113
235
184
111
237
190
115
239
196
118
236
190
110
237
189
109
239
193
111
237
192
109
235
186
105
236
186
106
237
190
111
236
186
108
236
191
112
238
191
112
237
191
109
237
193
107
242
205
112
237
201
103
249
222
113
244
214
106
248
221
109
253
230
113
253
232
118
245
214
109
246
207
110
237
184
93
239
172
86
240
148
55
246
147
38
242
134
22
240
130
28
240
129
25
240
124
20
237
120
27
234
116
32
234
119
32
231
115
35
236
121
41
229
116
37
233
122
43
231
124
48
233
128
54
231
127
58
235
136
69
236
140
75
236
139
73
234
136
73
235
136
71
233
130
63
229
127
66
234
131
63
234
128
54
234
127
59
233
123
56
218
110
52
224
118
57
233
128
63
232
131
68
230
129
65
232
131
65
235
129
65
231
130
71
230
133
78
230
133
78
235
135
76
229
128
73
229
127
71
230
130
66
232
131
66
234
131
68
219
111
62
219
111
61
219
112
63
225
115
58
225
115
58
224
113
59
221
107
54
229
117
56
221
112
52
227
122
59
228
127
66
227
127
66
227
128
67
229
132
74
227
132
75
228
133
77
230
136
79
230
135
78
227
132
75
229
133
74
228
129
71
226
129
72
228
132
71
229
132
73
229
133
74
231
133
74
230
132
71
227
129
68
228
131
69
230
132
71
230
134
72
232
136
73
233
138
75
232
139
78
231
137
76
228
133
73
230
135
73
233
139
72
238
145
75
239
151
75
242
166
88
240
162
85
241
154
75
243
152
72
240
153
75
243
163
82
241
160
82
240
147
69
241
146
68
241
149
67
242
165
79
242
167
78
243
168
78
242
182
95
241
169
83
240
156
74
237
144
61
240
165
81
241
177
90
240
185
94
241
190
98
243
188
96
240
187
96
240
192
101
241
189
98
239
187
97
242
189
99
241
184
97
237
173
92
237
161
83
242
152
73
240
147
70
239
147
68
240
146
68
239
146
65
239
146
66
237
146
69
237
143
63
235
142
66
235
143
72
234
142
69
234
140
66
234
140
66
236
142
68
237
143
67
233
139
70
231
132
68
229
129
65
231
128
60
230
126
57
233
131
60
237
134
61
227
121
58
224
117
61
223
114
63
230
124
64
230
126
59
236
131
61
233
129
55
236
132
53
234
130
48
241
136
48
238
133
49
234
129
52
237
130
54
228
124
60
226
122
65
225
121
66
216
114
68
216
116
72
215
113
70
215
115
75
213
113
75
216
116
78
210
114
78
214
113
79
209
112
78
213
111
75
213
111
76
214
114
75
209
116
77
211
114
78
198
98
70
209
114
78
207
116
80
203
110
79
208
115
80
213
117
83
212
116
85
206
109
81
211
114
84
200
106
84
185
91
77
194
85
72
194
75
64
185
77
69
169
59
54
175
55
57
179
50
53
176
55
57
172
57
55
175
65
62
193
94
77
195
99
78
192
104
76
198
109
78
210
118
82
209
117
83
220
132
75
226
138
76
226
137
67
227
136
68
223
133
69
221
132
69
221
129
70
222
128
74
219
125
72
217
123
69
218
123
68
221
126
71
219
122
68
217
119
67
223
125
68
221
122
67
217
118
69
214
118
69
213
118
69
214
118
69
216
118
68
217
120
72
215
118
72
215
119
72
217
122
73
218
124
74
222
128
76
225
133
77
226
138
78
230
143
80
229
142
83
230
145
85
230
145
85
225
142
85
225
143
85
226
142
84
226
142
84
225
139
83
226
139
80
227
140
78
227
140
80
224
138
80
224
136
77
227
138
78
228
137
78
230
137
72
235
149
73
239
175
92
243
178
87
241
159
59
243
149
45
240
144
55
237
138
55
236
132
50
233
125
42
236
123
32
232
112
32
241
126
39
240
121
37
236
105
37
227
101
43
237
121
34
244
136
31
241
140
47
244
145
60
242
152
81
240
151
84
242
150
75
243
152
78
242
151
77
242
150
72
245
146
62
244
135
42
243
127
30
243
119
28
222
86
33
221
55
47
222
51
42
223
53
41
228
76
33
240
105
26
226
79
29
227
70
39
230
90
27
252
135
9
251
135
9
242
119
17
243
120
22
248
127
23
238
112
19
241
115
20
246
123
24
234
110
28
239
121
19
250
136
13
249
136
12
248
136
13
247
138
14
246
147
30
244
161
51
246
186
84
246
194
97
242
187
95
240
187
102
241
204
117
246
211
116
240
197
109
239
195
109
240
196
112
238
194
113
238
190
109
238
191
109
239
195
113
239
197
113
240
201
115
242
208
116
251
222
117
249
224
109
253
229
110
253
232
109
255
234
110
252
229
108
255
234
111
254
234
110
254
234
112
248
225
110
245
217
111
242
213
111
242
204
106
237
171
86
243
151
63
243
144
56
240
141
65
240
141
66
239
140
62
241
141
64
240
142
63
240
142
62
243
143
62
242
141
56
239
135
44
241
137
46
242
137
42
243
139
39
239
130
27
236
120
35
236
123
49
235
133
62
234
135
69
236
133
61
230
124
53
231
118
51
230
112
38
228
111
38
226
110
44
225
109
45
223
108
44
226
108
43
225
105
47
224
109
57
218
110
57
228
119
54
227
114
48
227
116
57
227
120
65
226
118
65
226
118
59
226
118
58
235
127
53
235
126
46
233
125
48
235
126
52
233
122
50
233
123
50
234
125
52
236
126
55
230
120
54
231
121
55
233
124
55
233
126
58
234
132
66
233
136
72
232
136
73
232
135
73
232
133
71
230
131
68
228
126
65
225
124
64
224
122
67
221
119
65
219
116
64
222
117
62
217
111
59
217
113
60
227
124
61
227
125
60
228
126
61
227
127
64
226
127
63
228
128
64
230
130
65
229
131
65
230
133
68
231
134
68
229
133
68
225
130
68
229
135
71
232
139
73
232
139
72
232
139
73
237
143
77
235
143
73
239
149
77
238
146
74
237
144
72
238
143
71
238
143
71
238
146
70
238
146
69
237
138
64
236
136
65
235
135
66
234
135
65
237
136
66
235
137
65
239
145
70
238
142
67
239
141
63
237
143
61
243
164
82
240
159
72
240
160
74
238
156
66
239
153
61
240
154
64
240
157
70
241
159
73
240
160
75
239
154
70
239
149
67
237
145
69
235
145
74
237
148
77
237
148
78
237
150
81
236
149
80
236
145
79
236
146
81
232
142
79
230
141
78
231
141
79
232
141
79
232
142
78
232
142
78
233
141
75
233
139
71
230
130
56
231
135
68
232
137
69
235
139
65
234
138
63
236
137
59
236
137
57
239
139
54
240
138
51
239
132
49
227
114
51
228
117
50
239
131
46
237
130
43
243
137
37
241
138
40
240
138
47
241
139
49
238
134
55
232
128
57
229
123
59
234
130
60
233
127
63
219
115
69
216
114
77
212
112
78
211
108
75
208
106
73
201
99
73
202
93
72
195
87
65
194
81
59
212
101
68
215
95
55
226
105
51
232
113
54
220
110
64
213
101
58
223
111
64
222
112
64
222
118
71
218
114
73
216
105
67
201
76
57
214
96
71
205
87
68
179
66
57
170
65
59
171
60
57
173
55
53
171
58
58
178
71
63
180
73
59
195
90
69
208
98
69
213
109
72
211
119
83
205
116
85
209
120
86
209
119
86
210
117
83
212
119
84
207
118
86
204
116
89
228
123
55
228
121
54
237
136
43
232
135
47
233
135
45
234
137
40
232
133
47
224
124
59
222
124
60
225
128
61
224
125
59
225
126
66
221
125
68
226
129
65
228
130
65
229
132
61
232
135
50
230
144
63
234
161
83
233
154
71
231
144
62
231
144
66
229
144
63
234
171
84
238
183
87
235
179
86
236
178
87
234
172
83
226
141
63
226
139
64
223
135
66
225
134
69
225
136
73
225
140
79
227
146
83
229
152
91
229
151
91
233
152
92
232
150
87
232
147
85
231
146
85
233
151
90
233
151
90
234
155
93
236
155
91
235
148
74
233
152
80
231
160
89
233
167
96
235
169
94
242
182
104
236
156
89
234
158
96
233
148
86
235
141
73
231
132
59
233
125
49
230
118
41
231
120
44
234
121
39
239
126
36
240
125
42
230
115
50
227
108
46
233
113
38
233
126
64
242
145
77
244
152
83
241
152
86
241
150
80
243
149
76
240
148
76
245
149
70
243
141
44
244
133
26
240
111
31
223
56
38
231
67
39
224
54
39
223
53
41
234
91
32
248
118
27
236
101
27
229
92
26
246
127
12
250
136
2
251
135
2
251
135
1
251
133
3
251
134
2
251
134
2
251
135
1
252
135
1
251
137
1
251
137
1
251
139
1
250
149
8
251
155
12
252
144
3
251
147
12
250
160
28
245
142
18
242
135
19
242
165
43
251
219
93
254
228
99
255
230
105
253
228
108
251
223
108
245
188
90
242
146
52
242
154
57
243
175
86
239
162
75
237
152
63
237
156
67
236
167
72
239
196
89
255
235
110
255
235
109
255
235
110
255
235
112
255
236
113
255
233
113
254
229
112
253
229
111
251
226
110
242
210
106
246
213
115
239
183
100
238
148
65
241
141
54
241
136
49
238
137
56
239
141
63
241
143
66
239
144
69
238
143
71
240
143
68
238
137
55
241
140
55
242
143
59
244
145
60
246
145
54
244
134
29
242
122
23
237
114
31
233
120
46
228
117
54
228
107
44
234
106
31
231
102
30
235
113
30
231
116
39
232
120
41
235
124
41
232
122
44
233
120
43
237
123
48
232
122
53
232
123
45
241
132
35
243
133
33
237
128
45
229
123
55
229
122
53
234
127
53
232
128
55
235
135
65
231
132
61
236
144
72
237
138
66
239
140
70
238
142
72
240
145
74
241
145
75
237
139
71
236
134
65
235
133
63
228
124
58
230
123
60
229
122
57
229
122
57
228
122
56
228
121
55
228
119
53
227
120
54
229
122
54
229
123
57
229
125
58
233
132
63
237
138
67
236
140
70
236
140
70
235
140
69
236
141
71
234
141
73
232
143
76
235
147
79
235
146
78
233
146
78
235
148
80
234
149
80
234
160
90
237
176
104
237
176
105
232
166
94
238
174
103
237
174
104
235
171
102
235
178
108
235
178
110
234
175
106
239
172
107
236
169
104
237
173
104
236
170
102
238
144
74
237
141
71
236
139
71
235
140
72
235
138
71
234
135
69
235
134
67
234
133
66
236
135
65
238
140
59
240
142
55
241
144
51
240
144
48
238
140
39
240
141
41
238
139
38
238
138
37
239
140
42
239
143
49
237
142
49
238
144
54
237
146
62
235
151
70
236
168
90
237
172
94
238
176
96
240
181
101
239
177
98
235
161
86
238
171
95
232
148
80
232
143
81
232
143
82
233
144
83
232
144
82
232
142
81
231
141
80
232
141
79
233
141
76
234
140
67
235
141
69
233
138
68
231
135
65
231
136
67
231
135
65
231
134
65
232
135
60
233
136
58
234
132
57
232
126
53
237
133
54
239
139
54
237
137
59
232
134
59
231
133
60
231
130
65
224
119
58
227
120
61
228
119
64
223
114
64
225
114
63
218
106
68
212
100
71
206
96
71
210
95
69
203
84
56
226
112
69
206
94
65
217
97
54
230
112
50
234
111
41
237
120
43
235
118
45
240
117
39
231
110
45
226
108
57
223
96
50
215
81
49
215
73
50
211
69
51
204
63
51
188
56
52
193
59
54
181
58
52
168
61
53
179
68
58
185
89
69
211
111
71
214
116
73
214
124
82
221
132
83
222
133
81
222
131
79
217
126
78
219
127
79
214
127
83
217
128
84
214
126
86
216
125
83
217
127
84
217
128
85
214
128
86
212
127
88
232
122
52
231
122
49
232
130
45
236
135
42
237
136
42
235
135
43
237
136
50
235
135
55
233
134
52
234
136
50
235
138
51
235
136
54
229
129
58
227
126
59
223
122
60
232
131
55
236
136
50
236
141
51
235
145
54
237
147
52
237
146
51
237
149
55
240
156
59
239
168
71
244
191
82
250
205
88
254
215
96
253
215
94
253
210
89
253
210
90
250
194
84
242
159
57
251
199
95
250
204
99
251
208
102
244
194
93
239
179
87
238
172
85
234
161
82
230
142
73
230
141
72
230
143
73
227
142
73
227
144
75
231
146
77
230
145
82
236
159
96
235
163
98
237
178
108
236
170
100
239
181
106
234
181
107
233
181
107
237
181
103
243
185
102
237
163
84
237
152
70
240
146
66
238
134
48
237
131
42
237
130
38
238
131
39
236
123
35
228
113
36
235
116
40
218
91
38
221
88
38
230
111
51
243
138
60
243
141
55
243
142
47
243
140
43
245
140
35
240
125
29
232
111
28
242
117
39
211
57
28
247
112
27
231
88
30
218
47
47
214
49
39
235
98
28
248
128
15
251
134
7
252
137
2
252
137
1
251
137
1
250
136
1
250
133
2
250
132
2
251
134
1
251
134
1
251
135
1
251
141
5
251
142
5
250
143
3
252
160
17
251
145
3
250
146
8
248
154
25
249
144
10
250
138
7
249
136
6
246
151
24
241
171
45
242
192
70
238
189
66
252
227
100
254
230
102
241
166
42
250
129
2
251
128
2
247
131
11
247
128
7
249
128
12
248
131
15
244
138
25
242
178
71
250
221
102
255
236
111
255
237
110
246
226
103
255
237
113
243
212
102
236
193
100
236
191
98
236
187
93
238
187
94
242
180
83
241
156
54
241
135
35
229
99
30
231
91
32
227
91
29
237
114
33
239
125
36
236
129
52
236
132
55
238
132
49
237
129
40
239
131
37
237
129
39
240
131
41
241
129
34
238
125
23
241
124
24
238
121
30
236
120
36
232
119
42
237
121
35
246
133
23
246
132
22
243
130
33
240
129
36
241
132
33
238
130
31
241
134
38
239
132
42
238
135
50
235
132
50
239
140
51
241
149
61
236
146
66
236
144
68
238
152
80
237
155
83
236
160
87
238
163
94
239
166
97
237
165
96
239
166
97
239
152
82
240
146
75
239
146
76
239
146
74
239
145
70
239
141
66
234
133
61
233
131
58
236
134
58
237
132
58
235
130
57
236
132
57
239
139
62
238
141
65
240
143
67
237
142
66
236
141
67
236
139
65
237
140
67
235
148
78
235
154
83
235
171
99
237
176
101
236
175
99
237
175
100
238
184
107
237
187
112
238
187
112
238
186
110
238
185
108
238
186
108
236
184
109
237
189
112
235
186
111
235
186
112
236
187
112
235
181
108
236
188
114
236
185
112
231
174
102
234
167
97
236
156
87
233
147
77
236
148
78
235
146
75
233
142
69
235
142
68
236
143
70
235
143
72
235
140
72
237
140
70
235
136
66
236
135
63
236
134
60
237
134
51
239
136
36
240
137
30
238
137
32
238
140
40
236
154
66
237
161
78
241
182
98
242
184
100
236
172
90
238
173
96
238
172
97
237
170
96
237
177
102
238
181
106
234
173
97
232
161
89
233
154
85
233
155
87
231
149
84
235
145
83
232
144
80
234
144
82
234
145
83
232
145
83
234
145
83
233
145
83
234
145
83
233
143
81
235
143
81
233
142
79
235
144
80
232
142
77
234
140
71
233
138
68
232
138
70
233
139
71
234
139
71
231
137
69
232
137
71
232
137
71
234
139
68
233
139
68
234
138
68
233
134
65
225
124
68
216
114
65
218
116
70
217
114
68
221
117
67
220
112
65
214
106
63
213
104
65
213
104
65
214
106
65
218
108
65
222
112
64
223
113
65
223
115
63
224
114
62
226
113
57
231
119
52
235
122
50
234
119
44
227
109
53
226
106
56
224
111
60
222
109
60
225
106
58
221
105
61
223
108
66
220
102
62
220
103
65
210
99
69
198
82
60
214
109
75
217
122
79
219
128
79
221
135
82
221
138
83
220
136
82
219
135
84
221
136
82
216
131
82
214
126
82
212
124
84
211
122
83
207
121
86
204
115
84
213
126
86
214
130
85
212
130
88
211
129
89
208
130
92
201
121
91
228
121
48
234
129
39
243
139
28
242
139
27
241
137
24
242
139
26
240
139
24
243
142
24
243
142
25
244
143
24
243
143
27
244
144
30
241
142
36
239
141
42
239
140
49
240
139
54
236
137
54
235
135
48
231
130
48
230
130
55
230
130
59
228
128
58
230
128
61
232
134
57
239
144
41
242
147
32
244
156
43
235
145
44
234
145
47
234
143
48
233
139
47
234
137
48
233
143
49
237
157
63
237
176
82
251
212
98
252
215
98
252
215
101
244
194
94
237
162
72
243
192
87
251
218
90
251
219
90
251
219
91
250
214
97
236
189
98
239
189
97
238
184
95
240
191
99
241
196
102
234
185
93
243
203
102
251
217
110
247
214
103
245
211
98
245
211
97
248
212
97
244
195
84
245
186
77
241
173
70
240
156
59
240
146
49
246
145
38
245
141
32
237
130
29
235
125
29
239
117
33
218
78
33
219
70
38
220
78
35
240
114
29
242
120
23
236
114
28
230
94
32
227
77
42
228
83
40
232
89
35
243
113
29
234
90
35
224
65
41
226
71
37
227
81
28
249
128
13
252
135
2
251
136
2
253
137
1
252
142
3
251
147
7
251
153
14
252
156
16
251
154
17
251
149
12
250
149
13
252
164
25
252
155
13
252
142
2
252
141
1
249
146
9
247
186
63
254
217
92
246
190
69
248
191
72
248
195
77
249
201
79
248
206
85
236
184
65
248
203
82
245
210
83
249
211
83
247
165
31
252
128
1
252
129
0
253
129
1
252
128
4
237
102
17
239
98
14
249
122
5
244
136
8
245
187
73
248
222
103
255
236
110
255
237
109
255
237
111
254
234
116
240
204
105
243
206
109
246
207
107
239
163
57
242
136
15
243
122
15
219
76
18
233
89
32
239
105
28
241
115
29
240
123
36
238
128
38
241
132
39
241
132
32
244
134
32
242
133
29
240
134
32
241
134
35
239
135
37
239
139
42
240
139
38
242
139
32
242
138
33
243
138
35
244
138
32
247
142
34
244
150
52
242
154
64
235
154
71
243
175
91
241
177
89
240
179
93
241
177
95
241
183
102
242
189
109
239
181
102
241
188
110
242
188
111
238
184
111
240
183
110
239
184
108
241
186
110
237
181
106
236
178
104
239
178
102
235
177
102
236
171
98
237
166
91
239
155
79
238
150
76
239
148
71
237
142
62
238
141
61
238
147
68
240
140
58
242
142
59
241
141
61
239
139
61
239
138
59
238
140
62
237
141
65
237
142
65
236
143
68
232
155
82
236
160
89
238
176
102
235
177
102
240
190
114
238
189
112
233
180
104
238
189
111
237
187
110
234
183
106
240
190
114
235
185
111
234
184
109
239
190
112
235
187
110
236
186
109
240
192
114
235
182
108
236
184
109
239
187
112
234
176
102
237
184
108
237
183
110
233
171
99
238
173
101
238
171
98
237
157
83
239
159
87
240
160
87
234
162
87
237
183
105
237
179
103
235
163
88
238
147
74
239
141
64
238
140
61
237
140
58
238
140
56
238
139
51
239
141
52
238
148
67
234
151
73
240
174
99
238
179
106
235
176
103
236
173
101
235
166
98
233
169
98
235
172
103
234
167
98
233
165
95
231
163
96
231
153
91
229
144
82
232
145
84
233
146
86
232
143
83
234
147
87
233
146
85
233
145
83
234
145
83
233
145
85
233
145
83
234
147
84
232
146
83
235
149
85
235
149
84
237
150
85
235
147
83
235
144
80
233
142
75
237
156
79
236
149
70
235
146
70
235
145
70
235
144
70
233
140
66
234
141
67
232
140
69
233
139
68
231
137
65
231
136
66
226
128
63
230
131
69
224
125
67
222
122
69
219
118
66
220
120
67
230
131
71
232
135
74
235
140
79
234
136
77
233
134
72
233
135
69
233
139
73
236
132
68
239
118
54
241
118
53
240
122
56
240
128
56
240
132
59
234
121
50
230
115
55
206
88
52
214
96
60
207
81
52
200
72
52
200
69
51
191
68
50
206
85
53
218
106
64
217
117
71
220
130
77
218
131
75
217
133
77
220
135
77
217
132
79
215
130
81
216
130
82
213
124
81
213
124
79
206
121
82
204
108
76
209
119
85
213
128
89
209
125
86
210
126
89
210
127
86
208
126
84
208
126
86
205
123
87
199
119
88
198
119
91
227
120
45
231
126
46
236
132
46
238
133
42
237
132
39
235
130
40
236
133
40
238
137
40
241
137
36
241
139
34
241
140
32
244
140
31
240
141
33
244
144
32
246
145
27
246
145
25
247
147
27
244
142
25
243
141
29
240
138
36
238
137
39
238
136
41
236
136
51
235
137
49
246
145
28
244
145
31
246
145
36
240
138
40
238
136
44
237
135
43
237
135
42
238
136
43
238
136
43
236
138
47
232
139
58
229
141
66
236
150
74
235
152
77
238
149
75
238
152
79
242
189
101
244
201
100
246
206
101
243
201
98
245
204
102
250
216
105
254
226
106
254
227
105
255
227
105
255
231
106
254
232
104
255
231
102
254
231
99
255
232
97
254
232
95
254
234
95
253
234
95
253
234
101
254
234
104
254
233
106
247
216
101
249
211
99
247
195
86
242
160
54
245
146
37
246
144
33
246
135
21
246
121
26
223
71
36
221
53
39
217
50
36
214
53
37
220
61
36
228
75
44
223
56
42
220
54
35
237
92
34
233
91
28
234
89
36
233
87
36
238
99
32
241
107
29
240
111
20
251
133
5
251
134
3
250
131
6
249
135
5
249
147
5
252
156
15
251
152
14
252
154
14
251
152
12
252
163
26
243
138
13
251
139
6
253
140
2
253
140
1
250
147
12
248
163
40
248
164
40
245
173
50
250
201
78
244
173
42
243
191
64
254
231
104
249
206
83
244
147
15
248
151
22
248
147
18
250
134
4
253
126
1
253
127
0
252
128
0
252
128
2
239
105
19
229
74
16
243
121
15
247
190
74
249
220
97
249
227
98
255
237
106
255
237
109
255
235
110
255
234
112
255
230
113
249
209
94
250
196
77
246
156
36
247
129
2
247
124
5
247
123
11
243
126
8
241
130
12
241
142
40
239
161
72
240
168
77
239
162
74
240
151
68
241
155
69
238
159
72
237
168
82
241
173
88
238
174
87
238
168
78
238
170
81
238
175
88
239
179
92
244
199
102
247
207
104
247
203
100
247
210
106
254
228
118
254
233
119
254
233
119
242
209
110
243
204
112
241
200
113
237
197
110
240
197
111
240
195
113
237
192
112
237
189
109
238
192
113
237
193
112
238
192
110
238
194
111
240
191
111
235
187
107
238
192
109
238
194
111
238
196
113
236
191
108
238
192
110
239
192
111
238
185
106
239
186
107
240
182
105
237
176
99
235
155
75
239
167
89
241
176
100
237
177
101
238
180
100
238
181
103
238
178
101
238
184
105
237
185
109
239
194
119
239
193
116
237
192
114
236
189
111
236
185
109
237
188
111
237
185
108
236
187
110
237
188
111
235
185
108
237
186
110
238
187
111
236
186
109
237
188
111
236
188
111
237
187
110
236
185
109
237
186
110
236
185
109
236
183
106
235
181
104
236
182
107
237
180
107
236
181
107
235
179
105
232
175
102
235
175
103
234
173
101
234
178
103
234
175
101
235
181
104
234
179
103
234
178
101
236
170
96
235
162
89
237
165
93
237
174
102
237
171
100
241
178
107
236
173
103
236
171
104
236
175
104
234
172
103
233
168
100
234
162
95
232
161
95
232
157
92
233
161
96
234
162
97
231
158
93
234
156
93
232
154
90
232
152
89
234
152
89
233
149
88
231
147
85
233
150
87
233
149
86
229
146
83
233
149
86
232
150
85
229
144
82
234
151
85
236
155
89
232
150
83
236
155
88
235
155
86
234
149
81
234
145
79
236
147
80
234
158
82
235
175
89
241
187
97
237
179
90
238
164
73
238
153
66
239
146
59
239
146
65
237
145
62
237
145
61
237
143
62
234
140
63
236
142
69
234
139
68
237
143
69
239
142
70
235
138
73
237
139
73
236
136
69
233
132
67
236
132
71
234
131
69
243
136
65
242
139
59
240
139
61
240
137
59
242
134
56
235
121
54
216
91
51
212
96
58
227
109
57
228
101
49
231
105
51
227
99
58
207
64
48
185
56
50
152
52
49
166
64
58
163
58
53
184
69
56
195
84
59
214
110
68
220
117
68
220
120
68
215
120
70
214
119
72
209
112
68
210
112
67
210
111
72
209
113
74
204
114
81
199
110
81
202
113
87
204
116
85
211
128
83
211
131
83
215
134
85
213
132
86
210
128
84
212
131
84
210
129
83
211
130
85
214
135
88
204
57
44
207
64
47
199
62
44
208
71
45
219
84
47
213
80
36
234
119
42
233
124
44
233
125
46
233
128
43
235
131
40
236
129
42
226
124
44
233
130
44
232
123
44
226
110
43
232
119
41
237
127
37
235
127
36
237
130
41
235
127
38
242
136
39
239
137
40
235
135
46
236
136
47
238
136
40
240
136
39
230
125
50
223
120
55
228
125
59
226
124
56
227
128
59
231
130
59
230
130
56
229
130
56
227
129
57
226
130
60
227
131
61
228
133
65
229
134
68
230
139
76
231
142
80
232
145
83
234
148
89
233
147
88
231
149
89
234
158
93
234
161
94
237
174
100
244
191
102
243
192
99
241
193
98
245
201
100
243
199
99
248
214
101
252
225
101
249
218
103
245
207
101
244
208
102
245
205
100
243
198
96
243
189
87
241
177
79
234
147
60
235
132
50
236
129
45
236
116
39
228
92
33
223
69
39
217
48
38
222
50
42
216
46
40
216
48
40
215
51
41
216
58
35
241
110
27
244
117
24
230
94
27
235
97
34
235
92
37
232
83
33
230
90
30
236
98
24
242
115
20
241
119
11
250
135
8
252
143
7
252
146
4
253
147
4
252
137
0
253
138
2
252
135
4
246
126
7
251
130
13
251
127
9
249
124
10
249
124
6
253
129
8
246
118
12
247
122
6
251
141
5
251
157
11
252
159
13
250
175
36
249
176
41
248
142
16
252
127
2
253
125
0
254
126
1
254
126
1
254
125
1
254
126
1
254
127
1
252
128
0
252
127
5
250
136
16
246
170
45
250
212
88
249
216
89
249
212
82
250
207
77
250
198
75
244
166
43
246
168
48
248
162
40
248
144
12
250
138
6
250
136
4
247
138
5
242
140
11
242
166
49
245
190
76
247
203
88
246
206
94
250
223
110
251
226
113
253
227
116
243
210
109
247
214
113
249
214
113
248
218
117
243
213
111
246
218
113
252
228
115
247
220
107
246
219
107
254
232
115
253
231
115
246
222
111
245
218
112
250
226
116
243
215
106
248
223
113
247
217
113
243
210
109
252
230
116
254
234
117
253
233
115
254
234
118
250
226
113
246
220
112
247
220
115
248
221
118
246
219
117
246
216
117
248
222
121
245
213
116
242
207
116
240
200
110
243
203
115
239
198
111
237
194
109
240
199
116
238
193
112
233
188
108
240
195
114
238
191
110
234
183
103
238
191
109
239
193
112
235
191
110
240
198
117
236
191
110
235
186
105
239
189
108
236
187
106
235
184
104
240
191
112
236
185
107
235
184
106
240
190
111
235
181
104
237
185
107
239
189
110
233
178
100
236
183
107
238
187
112
233
178
102
237
186
109
237
187
109
233
177
100
238
187
109
238
185
108
234
178
102
239
185
109
236
181
105
232
176
101
237
185
107
236
181
106
217
158
97
238
188
118
236
181
105
234
178
103
238
184
109
234
179
104
233
176
99
236
178
102
233
179
102
235
182
106
238
187
110
235
182
108
234
183
110
237
183
111
234
181
110
234
178
109
236
180
110
232
176
106
235
175
107
234
178
107
234
174
105
232
167
98
233
163
97
235
170
103
233
164
98
233
167
99
235
163
96
229
157
89
233
164
96
231
163
93
232
166
93
240
183
104
235
176
99
237
187
106
240
192
110
239
194
111
238
190
105
243
200
113
238
191
106
237
178
101
238
185
106
236
170
97
233
166
92
237
171
98
234
169
93
239
184
102
237
180
98
238
182
99
241
194
104
235
177
91
234
170
86
234
172
87
238
165
82
232
148
68
239
161
77
239
158
68
241
165
71
245
164
67
245
152
57
242
146
60
237
144
63
237
138
54
236
127
41
235
117
49
230
113
55
233
120
59
233
120
59
232
115
64
213
88
55
217
97
61
219
89
57
225
108
55
233
116
52
233
112
47
234
124
56
228
116
57
223
109
63
212
103
59
215
87
55
214
71
53
207
60
46
217
67
49
200
52
43
192
64
58
176
62
55
182
62
58
180
56
51
181
59
56
176
53
52
187
58
52
189
61
51
182
65
51
212
112
73
217
121
72
221
119
65
224
124
66
219
120
70
213
119
73
215
123
78
209
118
76
214
129
85
215
132
85
215
135
85
214
136
89
216
135
87
210
126
81
211
129
81
214
132
79
217
136
84
218
137
85
215
133
83
203
53
45
214
58
46
216
55
43
215
55
39
222
76
39
241
120
29
241
130
17
244
134
17
242
132
18
245
138
13
245
139
11
244
138
16
241
134
22
240
129
31
211
80
44
213
73
51
216
81
50
214
85
48
220
94
49
213
86
52
215
89
51
226
110
56
229
121
51
226
120
52
213
105
48
224
117
50
221
110
47
224
115
52
225
120
56
228
120
53
229
122
53
223
116
51
228
122
54
231
126
51
228
128
50
228
127
50
228
126
52
227
128
53
226
129
56
230
130
55
230
131
58
229
130
58
228
130
57
229
130
60
231
133
64
228
131
62
231
134
67
231
136
72
228
140
80
232
146
88
228
142
85
231
145
85
234
148
87
231
146
86
230
146
83
229
148
81
225
143
79
230
142
80
231
139
73
233
141
69
231
140
68
230
135
62
235
129
51
220
111
55
227
114
53
223
93
47
213
67
45
206
53
41
209
54
40
205
54
40
206
56
37
211
71
44
222
94
46
230
109
45
234
120
39
240
131
32
233
122
37
238
117
37
238
109
36
224
90
27
245
125
20
245
129
15
249
130
11
249
128
10
251
130
6
251
133
2
251
135
2
251
134
1
250
134
1
251
135
2
251
135
2
252
132
7
236
100
17
236
91
22
233
86
20
242
99
23
240
95
22
234
82
26
240
100
24
253
129
11
251
130
1
251
133
2
250
133
2
250
132
2
251
131
2
254
126
1
254
126
1
254
125
0
254
125
1
254
126
0
254
125
0
253
126
1
251
132
4
251
131
2
253
128
0
250
132
3
249
142
17
250
141
14
250
139
11
250
134
10
242
114
7
246
112
6
240
109
8
243
118
16
239
117
20
242
151
55
240
159
59
240
178
73
251
213
104
251
221
107
253
230
114
254
232
114
253
230
111
253
228
110
251
226
109
252
225
110
253
228
114
252
227
115
253
229
119
254
235
122
254
236
120
254
236
120
254
237
119
254
237
117
254
238
115
253
238
114
253
237
112
241
214
101
246
209
111
236
193
105
239
194
106
242
202
110
240
200
108
240
199
106
246
214
114
249
228
109
254
237
111
255
237
112
255
237
114
255
237
112
254
236
115
243
214
107
239
206
104
241
209
106
237
193
104
236
195
104
241
198
107
238
191
104
235
184
98
239
194
110
238
193
109
234
186
104
237
188
107
237
188
108
236
187
107
237
189
109
237
189
109
236
185
105
238
190
108
236
188
107
237
186
105
237
189
108
237
188
109
235
184
106
237
187
109
236
188
108
237
185
105
237
186
107
238
186
108
236
185
106
237
187
108
236
184
108
238
186
108
237
183
106
236
184
105
236
185
108
237
187
109
236
184
105
236
186
108
237
187
109
235
182
105
236
186
109
237
185
111
236
181
104
237
184
107
237
185
108
234
180
104
236
184
106
236
187
109
185
139
92
195
151
103
235
186
109
237
183
106
236
180
103
235
177
103
235
177
100
235
178
102
236
182
106
235
180
103
234
182
105
237
183
108
235
181
109
236
178
109
235
179
109
235
179
109
234
176
107
233
177
107
238
184
114
233
178
107
237
176
107
236
176
106
235
178
106
234
175
104
231
172
97
236
187
102
237
190
105
245
210
112
245
214
106
251
225
113
252
228
115
243
215
110
240
204
111
238
198
109
235
188
104
233
183
103
234
186
101
235
186
100
233
179
99
235
174
99
234
174
98
236
171
97
233
176
96
243
201
108
242
207
106
240
204
107
240
202
109
240
199
109
240
195
106
234
180
95
236
177
95
237
179
96
236
171
92
235
167
86
239
173
91
238
166
74
241
157
54
242
150
45
244
141
37
241
130
33
239
127
38
242
129
41
242
128
41
231
114
51
238
124
49
229
111
49
210
83
52
216
81
55
224
94
54
231
111
54
217
83
48
210
72
49
217
77
51
220
74
48
220
83
49
220
95
61
201
67
49
199
68
48
203
67
55
197
55
48
214
82
60
213
76
56
203
65
54
178
59
55
180
58
50
197
64
54
178
60
49
180
62
57
184
59
55
184
64
58
175
66
58
188
74
60
208
101
63
216
119
70
216
124
73
217
130
76
217
133
79
217
135
81
216
135
81
216
134
81
218
136
84
213
134
84
215
136
85
211
134
86
212
132
84
211
127
83
212
126
82
213
128
79
216
129
82
216
130
81
217
125
80
189
53
48
197
53
46
209
56
45
223
86
47
233
100
42
227
98
28
245
131
25
244
128
22
242
122
25
240
122
21
246
132
22
245
134
15
248
138
11
248
137
11
241
124
27
242
127
30
243
129
24
239
126
25
240
127
31
233
119
26
231
115
35
227
113
33
236
128
37
233
126
40
233
127
48
229
122
48
232
125
49
231
123
48
229
119
53
217
99
53
211
87
50
208
73
52
205
68
49
206
75
47
216
95
48
210
87
51
203
77
47
211
91
51
223
107
51
218
102
49
223
104
49
212
92
49
213
91
50
211
87
50
218
102
50
219
111
47
226
124
53
225
123
50
226
126
52
228
127
52
229
128
54
229
132
64
228
131
66
226
131
69
225
132
71
226
127
66
225
124
68
223
121
66
213
101
56
216
98
50
209
93
55
202
82
46
215
97
41
231
126
47
228
125
48
225
116
54
234
126
54
236
130
56
241
136
62
242
135
60
242
136
60
240
137
60
239
140
57
237
138
56
236
136
53
236
138
51
239
140
47
240
135
29
246
136
20
248
138
21
247
143
14
247
145
15
248
146
17
249
143
7
250
141
4
251
137
3
253
131
1
252
132
1
251
131
1
251
138
9
251
136
6
253
135
7
246
117
15
246
114
19
246
112
23
232
83
24
237
87
32
233
74
27
228
73
22
242
109
19
252
127
2
252
127
1
254
126
1
254
126
1
254
126
1
254
126
2
254
126
2
254
125
1
254
125
1
254
125
1
254
126
0
254
126
0
254
126
0
254
127
0
253
128
1
252
129
1
246
122
4
247
125
6
247
130
11
242
137
33
243
162
64
243
175
78
239
170
75
243
187
93
243
190
96
239
189
96
241
197
105
240
196
104
236
189
101
241
203
113
238
198
105
237
198
104
238
194
101
237
190
98
237
189
96
236
185
95
237
177
90
235
177
90
236
183
95
237
187
98
240
194
101
238
191
101
240
198
106
240
198
106
240
198
105
244
210
110
248
227
111
253
237
113
246
216
108
236
198
102
238
198
103
242
204
105
240
203
103
236
195
100
236
196
94
248
223
107
247
221
106
251
224
113
240
205
102
244
216
109
252
226
117
249
220
114
252
224
115
252
226
118
248
216
115
244
208
111
241
200
106
238
193
106
239
191
106
234
189
104
236
187
105
239
189
108
234
184
102
237
187
105
240
191
109
235
185
104
237
189
108
240
194
113
235
186
107
237
189
109
239
192
110
235
184
103
237
188
109
240
191
114
234
184
107
237
189
113
238
189
112
234
184
106
238
189
110
238
188
111
233
183
106
239
191
114
238
191
114
235
182
105
239
190
112
237
186
108
234
181
103
239
190
110
236
187
107
234
181
103
238
186
108
235
184
108
236
183
108
238
188
111
236
182
107
235
184
107
239
187
109
232
178
100
235
184
106
174
125
80
79
50
50
200
157
103
237
183
103
232
173
95
235
178
103
236
181
104
232
171
94
237
182
106
236
184
107
233
181
102
238
190
110
235
187
109
234
183
105
236
188
108
241
201
112
238
196
105
244
208
117
243
208
115
234
194
104
242
202
115
242
199
113
239
194
107
240
201
109
250
220
113
254
231
112
254
233
111
254
234
110
255
236
109
255
236
111
255
236
113
254
233
114
249
225
113
248
221
112
251
226
115
248
222
114
249
223
116
245
216
112
243
209
109
243
206
110
237
195
102
244
209
106
251
225
109
254
234
111
254
234
110
250
226
106
250
223
110
242
212
106
245
211
108
240
200
105
237
185
102
234
180
96
237
181
100
237
183
99
234
177
94
234
171
89
237
159
69
241
147
44
243
136
25
234
116
24
226
102
42
210
75
39
214
64
44
215
69
45
224
91
44
227
108
53
219
110
59
204
84
51
214
78
50
225
92
47
217
94
51
219
97
58
227
100
59
219
74
47
205
60
47
206
67
57
188
62
54
193
70
61
183
59
52
199
68
56
186
54
44
195
57
51
189
57
54
190
77
56
213
110
70
221
114
68
218
112
65
217
107
70
200
92
62
204
95
62
207
104
68
214
119
73
222
132
76
220
135
78
217
131
78
220
135
81
217
133
79
215
131
77
219
134
79
217
133
79
218
132
80
220
132
80
218
129
76
218
128
73
220
125
70
212
110
64
215
106
60
211
104
60
210
97
59
221
102
61
206
74
56
168
48
48
169
45
44
176
50
44
185
51
44
194
49
38
202
51
39
210
58
40
212
53
33
218
56
38
220
62
35
229
92
41
227
95
35
235
112
27
243
120
24
220
81
28
229
99
27
224
98
18
246
132
16
244
133
8
248
136
6
247
136
6
245
137
9
242
135
16
241
129
29
237
128
43
236
130
46
234
132
51
234
131
50
226
119
50
212
93
47
212
90
48
220
97
49
213
79
52
207
72
50
209
71
54
205
61
53
206
68
45
227
108
63
219
104
57
228
113
59
222
98
58
228
104
63
212
80
52
212
71
47
220
87
47
226
104
53
216
97
50
211
94
45
216
101
48
218
106
52
222
107
48
218
106
45
227
117
53
216
100
50
223
116
56
217
106
51
216
102
51
226
123
61
229
120
51
235
123
54
227
118
58
232
123
63
228
116
49
231
123
49
235
124
43
224
106
42
226
110
43
238
129
43
233
125
40
236
126
39
237
130
44
237
132
45
235
130
44
232
129
50
235
128
38
236
128
29
237
132
33
243
142
48
245
146
52
245
146
48
245
147
48
247
149
39
250
148
17
251
145
13
251
140
5
252
135
5
252
126
8
248
123
7
249
121
8
245
114
16
231
90
18
236
92
25
237
88
31
232
70
29
236
84
25
232
89
22
246
110
19
250
122
10
252
126
8
253
127
6
252
127
1
252
126
0
254
125
1
254
126
2
254
126
1
253
126
0
253
126
1
253
125
0
253
124
0
253
125
0
254
125
0
254
126
0
254
126
0
254
125
0
252
128
2
251
129
1
251
135
4
251
142
4
250
148
12
247
164
38
243
167
51
243
171
60
243
177
71
240
187
89
240
191
97
239
190
97
240
195
101
240
198
104
238
200
106
247
211
114
242
209
113
246
217
119
245
213
115
241
204
106
241
206
107
242
204
107
240
196
100
239
196
98
243
205
102
239
196
99
240
199
99
240
193
95
247
210
109
242
205
109
241
207
110
246
217
116
241
203
100
245
215
106
249
225
112
255
234
116
254
233
115
254
234
110
254
236
108
254
234
108
248
223
102
243
215
98
246
219
103
240
204
96
246
214
107
243
209
108
240
204
103
242
208
105
248
220
110
243
208
105
239
207
103
248
219
113
243
213
107
245
214
109
247
217
113
239
203
106
237
196
104
239
192
105
234
184
100
234
183
100
238
186
103
235
179
97
237
186
105
238
184
104
235
180
102
237
182
105
238
181
103
235
172
94
238
175
100
238
170
94
236
164
89
237
171
96
237
170
95
234
168
91
237
172
96
237
175
99
237
173
96
237
174
97
239
179
105
236
175
101
237
178
102
239
179
102
235
175
99
239
178
101
236
178
100
235
174
98
240
179
102
235
174
95
237
171
95
238
175
97
239
174
98
236
172
93
239
176
98
236
175
97
235
173
95
202
142
86
161
118
78
153
115
79
236
175
99
234
168
91
237
173
96
237
173
97
235
171
94
238
183
106
239
186
107
233
179
99
238
188
108
240
196
109
247
214
113
252
227
118
255
232
118
255
233
116
255
233
116
255
233
116
255
233
118
243
213
107
236
199
102
250
224
114
247
221
108
246
221
105
253
231
108
254
234
109
254
236
108
255
237
110
255
237
111
255
237
113
254
235
114
255
237
116
255
237
116
255
237
115
254
237
116
255
236
115
255
235
116
255
234
116
254
231
116
254
232
117
254
231
115
254
231
112
254
231
110
254
234
109
254
233
108
254
232
110
255
234
113
254
236
116
254
234
119
245
213
111
239
195
105
242
200
113
239
192
109
238
178
99
236
173
97
236
168
93
236
169
91
243
170
84
241
144
43
236
131
35
243
129
40
223
96
44
221
106
60
234
124
60
233
129
58
229
131
61
231
128
60
234
125
52
232
112
46
221
90
50
205
59
48
220
71
50
210
71
50
199
62
50
176
53
49
187
67
55
185
63
54
186
59
51
186
65
56
173
57
52
182
62
51
206
96
63
222
125
72
220
131
75
223
133
74
226
133
72
226
132
72
225
129
74
220
121
69
221
125
74
225
121
70
221
117
70
213
114
73
212
108
65
213
112
70
215
110
66
219
111
62
220
112
61
216
110
66
206
93
60
215
93
58
212
101
58
216
101
58
220
96
57
217
96
56
224
102
61
211
79
51
216
68
47
214
71
46
214
82
55
166
49
49
173
51
49
172
50
47
173
50
47
179
53
49
183
52
48
184
47
44
197
49
44
200
48
43
210
49
39
222
65
35
230
77
32
233
97
34
237
110
39
239
110
36
242
123
21
247
134
13
246
135
6
246
136
5
245
136
5
246
137
5
246
138
6
247
139
11
232
118
29
209
81
37
234
120
44
236
130
43
237
131
45
236
131
45
231
123
44
231
124
48
232
123
45
233
122
47
234
120
53
219
97
46
222
92
54
216
82
49
213
87
53
214
90
51
215
94
52
226
101
54
227
109
52
227
104
51
204
63
44
215
82
42
208
70
37
207
63
40
228
94
50
213
69
40
213
68
42
223
90
48
212
70
37
219
83
41
230
109
47
232
110
46
221
102
46
224
101
44
224
101
45
227
99
42
222
88
43
219
86
37
224
89
35
225
95
37
231
103
35
237
114
30
237
117
32
238
120
40
232
117
42
230
117
42
225
112
42
221
109
43
221
111
43
224
115
46
225
114
45
225
114
42
238
134
44
241
140
49
240
139
44
242
140
38
243
138
32
246
139
28
247
134
16
249
131
3
247
123
9
244
117
12
246
119
9
238
106
17
234
96
23
234
97
22
244
105
23
241
100
23
238
93
24
237
88
23
239
98
18
245
115
14
252
128
6
251
129
1
249
131
0
250
135
1
250
131
1
253
127
1
254
126
1
254
126
2
254
126
1
254
126
1
254
126
0
253
125
1
253
125
0
253
124
0
253
125
0
254
125
1
254
126
1
254
126
0
254
126
0
254
126
0
254
127
0
253
128
0
252
129
1
251
138
6
251
151
12
251
150
13
249
147
10
247
143
5
244
141
15
245
148
31
245
159
51
240
166
62
243
197
97
252
219
110
244
213
103
253
226
114
248
222
112
246
218
111
250
221
113
247
216
109
247
214
107
251
217
108
249
215
102
246
214
99
253
228
108
253
232
109
253
233
110
254
235
112
254
237
116
254
237
120
253
236
119
237
192
95
238
186
93
238
193
98
234
190
92
239
205
96
254
237
109
254
236
106
254
237
106
254
238
105
252
234
104
255
238
107
254
239
107
255
238
108
254
236
107
252
234
107
253
238
108
253
239
109
253
239
109
253
239
109
251
235
107
254
239
110
254
239
109
253
239
109
253
238
112
253
237
111
247
224
105
251
226
112
246
221
108
240
210
99
249
221
109
245
213
104
240
198
93
243
202
99
240
188
89
236
162
62
243
150
50
244
145
46
242
142
45
243
143
46
240
141
44
241
142
49
241
145
52
239
146
56
238
144
56
243
146
60
241
145
60
242
147
65
242
151
70
238
148
67
242
151
73
242
155
76
239
148
69
240
155
76
241
157
79
237
148
69
241
159
78
242
156
76
241
156
74
246
160
77
243
160
78
242
157
80
241
161
84
239
158
85
216
143
79
238
169
91
237
170
97
236
164
86
239
169
92
238
166
89
238
164
87
240
168
90
216
157
93
229
170
106
240
183
102
237
178
97
236
175
93
235
168
86
233
174
88
237
191
99
245
209
106
241
210
104
246
220
113
246
219
112
246
217
109
248
220
111
252
226
114
247
219
108
249
223
111
246
217
104
247
220
106
250
225
107
254
235
112
244
220
106
247
220
110
241
207
105
244
211
108
244
213
110
245
218
110
252
227
117
249
224
115
245
217
110
241
205
104
236
189
95
235
187
95
234
185
93
237
187
91
236
185
89
239
199
100
239
199
100
236
186
93
237
186
94
236
176
90
234
170
88
237
173
92
232
165
89
236
161
88
232
155
83
234
151
81
235
153
84
234
153
86
236
154
82
234
147
69
236
137
47
232
126
37
233
131
52
234
136
70
231
138
73
234
140
72
235
140
68
232
134
62
220
113
50
223
115
49
228
120
53
228
111
58
205
69
51
205
67
54
190
60
50
173
54
50
171
56
54
172
54
47
180
67
54
182
66
52
212
93
58
218
111
63
224
123
69
223
128
70
221
126
68
220
125
69
217
123
71
219
120
72
215
109
64
213
106
67
207
94
60
209
91
60
206
77
56
202
67
53
191
61
53
185
61
55
182
59
55
189
53
50
186
51
46
193
59
48
198
59
50
203
58
48
212
60
45
211
62
41
211
60
40
205
59
45
212
77
48
214
90
54
214
97
63
211
99
59
226
123
71
212
117
74
170
49
50
176
54
52
173
50
47
175
48
46
178
53
50
172
50
46
172
50
46
179
53
49
174
49
46
179
47
43
194
51
43
205
55
43
211
54
35
218
55
36
216
53
33
228
86
35
234
102
29
237
106
26
241
119
20
247
135
14
246
135
11
242
129
18
226
102
25
232
110
38
221
86
40
227
103
45
229
109
46
235
124
44
237
128
41
233
124
45
228
124
49
233
125
51
230
122
51
228
121
52
227
115
50
232
118
52
224
107
54
219
97
53
224
104
54
231
109
55
225
95
49
218
80
43
225
97
48
221
97
49
223
104
39
228
107
44
216
82
39
210
65
37
214
61
39
211
50
37
211
50
35
217
54
39
211
48
36
214
49
40
213
49
41
211
51
43
212
51
40
210
50
38
215
55
43
216
55
40
217
67
37
215
62
35
213
59
34
228
78
40
216
68
30
223
74
37
230
87
39
227
88
33
232
108
40
238
128
43
237
133
45
234
134
44
239
136
41
239
135
36
239
136
40
234
132
36
238
134
30
243
130
23
243
126
22
241
118
21
236
106
19
236
105
15
246
120
15
247
120
14
243
116
10
251
130
5
250
129
4
247
121
9
249
124
10
244
114
8
249
121
8
250
123
4
252
124
3
250
126
2
250
133
6
251
128
0
251
129
0
250
140
6
251
143
5
251
137
5
253
127
0
254
126
1
254
125
1
254
126
1
254
125
1
254
126
1
253
125
0
253
125
0
253
124
1
253
125
1
254
125
1
254
126
1
254
126
0
254
126
0
254
126
0
254
127
0
254
127
0
251
134
5
250
156
29
250
164
50
247
167
58
246
173
62
247
174
60
249
167
53
248
153
35
249
147
20
250
147
12
248
150
15
246
156
24
242
162
42
243
169
55
247
179
66
243
165
46
243
168
47
246
178
59
246
162
33
245
160
29
244
159
29
240
159
33
242
195
77
250
224
104
249
225
103
252
230
106
254
231
113
243
211
101
247
217
106
244
209
104
245
217
112
251
229
115
254
234
113
254
237
110
253
239
108
247
225
98
254
236
105
254
238
105
242
218
95
254
237
107
253
239
107
253
238
105
253
239
107
253
239
108
252
239
108
253
240
108
253
239
108
253
239
109
253
240
108
253
240
109
254
239
109
249
228
105
247
224
102
249
221
98
244
205
81
248
205
80
245
192
65
246
186
61
247
184
58
247
182
57
247
181
56
243
184
61
250
218
93
253
231
106
246
214
97
243
202
88
245
203
92
240
191
81
249
218
96
251
223
100
250
222
100
249
219
100
242
193
84
240
166
65
240
165
67
240
165
67
240
166
68
239
166
73
240
170
80
240
151
63
243
146
59
243
145
58
241
142
59
240
141
58
242
145
60
240
145
63
239
145
63
225
140
64
194
125
72
149
94
60
206
140
85
125
77
48
173
119
72
229
165
93
238
158
77
235
151
73
237
153
78
236
152
75
237
154
77
239
158
81
168
108
63
124
86
65
208
147
84
238
174
94
241
189
106
243
193
107
236
182
100
237
185
101
236
182
99
234
179
94
233
176
94
234
179
97
234
176
96
233
176
94
233
170
92
233
177
98
236
179
95
238
190
98
243
211
104
247
221
106
254
233
112
247
219
106
243
214
104
238
202
101
242
203
107
238
198
104
239
200
106
240
199
106
240
203
105
241
203
105
251
223
113
254
229
115
254
229
116
255
228
116
249
217
109
237
181
92
238
180
98
236
163
87
235
158
86
234
148
80
236
149
82
233
149
82
236
153
87
234
150
83
236
149
82
238
151
83
238
151
84
239
150
81
238
145
70
231
134
58
226
125
53
231
130
57
232
133
65
232
139
73
231
140
74
231
141
75
231
139
70
233
138
68
234
135
66
230
120
54
222
109
57
207
80
50
205
63
45
200
60
48
199
65
54
181
69
53
198
78
57
210
97
65
212
104
59
222
117
65
224
123
73
221
119
67
224
120
68
217
111
61
223
111
61
215
102
56
212
87
57
200
76
56
196
68
52
202
69
54
200
62
50
201
58
48
193
58
51
200
56
51
208
55
48
202
57
54
188
60
57
195
59
51
198
54
51
195
52
45
205
67
49
203
78
51
217
101
59
216
108
61
221
116
66
218
116
66
221
122
72
223
125
72
218
123
71
216
122
72
219
125
70
214
119
70
213
117
78
173
51
50
171
49
46
174
52
48
174
50
48
177
54
48
175
53
47
174
54
47
176
53
47
176
53
48
179
52
48
177
50
46
181
53
48
190
48
41
210
48
39
216
47
38
220
50
37
223
58
38
219
71
27
236
111
23
247
131
19
244
130
15
248
130
27
223
85
33
227
75
44
220
62
40
221
66
48
207
63
34
241
127
47
237
128
42
241
126
42
225
109
42
216
91
44
222
96
49
232
116
49
223
106
46
227
111
46
229
107
52
221
89
48
217
75
47
217
72
46
221
84
44
226
93
46
219
82
39
217
79
44
216
79
36
223
93
39
226
97
36
223
95
35
223
89
36
219
72
34
216
58
35
215
55
36
217
56
37
218
53
38
215
49
38
216
55
41
214
53
36
217
54
37
205
45
36
208
46
37
210
43
35
215
47
37
212
45
36
217
49
38
213
49
38
209
47
36
221
60
39
221
64
36
217
65
33
225
90
38
225
107
36
236
132
36
234
127
32
235
127
32
237
129
32
235
124
32
231
112
30
231
105
25
232
103
30
236
111
28
244
122
26
240
120
26
244
126
26
247
126
18
251
128
7
252
128
2
251
129
1
251
128
0
251
128
0
252
126
1
251
127
1
253
126
1
252
126
0
251
127
1
251
128
1
252
128
0
251
128
0
253
127
1
254
126
1
254
126
1
254
126
1
255
126
1
254
126
1
251
124
3
251
124
5
252
124
4
254
125
2
254
124
1
255
124
0
254
124
0
254
125
0
254
126
0
254
126
1
254
126
1
252
127
1
253
127
1
253
128
2
251
129
1
249
133
4
249
150
16
249
157
23
249
158
28
249
159
30
246
159
30
249
173
54
247
155
31
249
155
31
249
152
25
250
147
2
248
147
2
249
148
4
252
149
3
252
150
2
250
149
4
249
155
16
247
156
21
248
157
25
246
157
25
243
171
58
240
163
41
244
184
71
237
174
58
238
176
48
239
176
52
241
181
76
240
186
74
245
211
93
250
231
108
254
238
111
254
240
109
253
240
109
253
240
110
254
236
108
254
239
109
254
239
109
254
239
107
254
240
108
253
239
108
253
239
108
253
240
108
253
239
108
253
239
109
253
240
109
253
240
109
253
239
108
253
239
109
253
239
108
253
239
109
250
230
105
252
232
107
236
182
62
244
191
72
239
164
38
245
175
54
241
162
37
247
184
61
247
187
63
242
182
60
244
202
79
236
193
76
240
203
87
234
194
83
242
203
93
237
194
88
238
197
86
239
202
83
240
206
86
239
193
69
240
195
71
240
195
71
241
195
70
240
199
73
254
233
99
255
236
105
255
236
112
254
235
119
242
209
102
243
196
94
242
187
90
240
177
87
239
168
81
238
156
70
241
149
60
238
147
64
106
53
21
86
54
37
60
37
32
91
64
43
51
34
26
61
43
30
157
109
66
239
159
81
241
160
85
239
161
87
239
161
86
241
164
89
241
159
80
186
117
64
184
129
82
170
123
80
222
160
93
238
173
97
234
167
93
236
164
92
235
170
95
234
164
89
236
170
95
236
168
95
233
169
93
237
177
100
235
176
99
236
175
97
237
186
105
240
196
106
248
215
113
254
230
118
249
224
110
250
225
112
250
224
114
249
221
113
246
213
109
243
207
107
247
212
111
244
203
105
245
204
107
245
205
107
245
204
107
240
195
105
233
167
89
233
160
87
233
161
86
229
155
81
234
154
85
233
144
78
233
144
79
234
144
81
233
144
80
234
147
82
234
150
84
234
150
84
234
146
77
235
146
75
235
143
73
233
138
67
231
131
59
233
133
57
232
134
62
235
138
68
233
139
68
235
136
61
231
133
59
235
134
62
233
132
58
232
127
56
225
108
51
220
101
55
219
97
51
224
105
53
228
105
57
229
84
50
215
74
54
195
67
54
211
76
55
215
70
51
197
71
52
189
64
44
190
63
43
197
64
49
202
62
45
199
57
45
201
61
45
206
67
44
211
69
50
210
61
45
211
67
49
204
66
51
208
65
47
206
61
47
206
64
47
216
74
54
199
76
50
216
105
64
218
109
65
221
114
66
227
124
69
229
129
72
232
130
72
229
130
71
232
134
70
225
131
66
222
132
69
224
132
68
225
133
67
224
131
66
224
129
66
222
127
67
224
128
67
226
130
67
222
126
71
220
126
75
183
53
51
176
48
46
178
51
49
181
56
51
171
48
45
176
52
47
180
56
50
174
51
45
176
50
46
181
52
49
178
49
45
178
51
46
192
51
46
209
48
40
213
45
37
218
49
36
228
83
43
233
100
32
240
113
25
233
102
29
236
109
30
233
104
27
234
100
32
231
95
33
229
88
35
219
78
29
229
93
37
225
95
32
223
89
32
228
90
36
223
86
37
226
80
40
214
54
35
223
75
43
216
71
39
227
95
53
227
99
47
234
112
51
233
111
55
224
95
46
238
114
48
233
107
43
228
105
45
229
109
47
229
102
42
223
94
41
225
96
36
229
105
37
236
115
41
233
103
39
229
93
41
225
78
37
224
69
38
225
69
42
221
60
39
218
59
41
215
55
39
219
57
38
224
61
43
214
50
39
217
52
39
219
53
38
218
52
38
214
48
35
217
52
38
209
49
34
215
63
33
222
77
32
221
82
32
231
111
31
239
129
32
232
126
33
233
125
37
233
125
35
235
129
34
240
130
35
241
130
35
244
134
29
245
134
24
246
133
17
248
131
6
248
129
4
248
129
4
249
130
2
252
130
0
251
129
0
251
129
0
251
129
0
251
128
0
251
127
0
252
127
1
254
126
1
254
126
1
253
126
2
252
123
4
252
126
1
253
125
1
254
125
1
254
126
1
255
126
2
254
126
1
254
126
1
252
127
0
253
128
3
241
110
10
248
119
11
254
126
3
255
124
0
255
124
0
254
125
1
252
128
0
252
128
0
250
131
0
249
145
3
249
156
6
250
140
2
252
139
1
252
144
2
250
146
2
252
157
5
253
161
7
251
161
15
247
166
25
248
167
26
244
165
27
247
183
59
246
187
64
246
186
59
247
185
47
247
186
46
249
184
45
246
159
16
249
153
4
244
165
33
248
211
88
251
227
107
250
225
107
250
226
105
247
226
108
248
227
107
250
228
108
248
226
107
253
237
113
253
236
110
254
238
113
254
240
112
253
240
109
254
240
108
254
237
106
253
232
97
253
231
97
246
220
91
240
204
76
239
207
81
255
239
110
254
241
109
254
239
108
253
240
107
253
239
108
253
239
107
253
239
108
253
239
107
253
239
108
253
239
108
252
239
108
253
239
108
253
238
109
254
239
109
253
239
109
254
239
109
255
238
109
254
238
110
253
235
107
254
236
109
252
233
105
253
237
106
254
238
104
254
237
106
254
238
106
253
237
106
252
235
106
251
233
109
248
230
107
252
234
112
249
230
110
251
234
109
254
239
112
255
238
107
254
237
103
254
237
100
254
236
97
254
236
97
254
236
97
249
227
89
242
204
74
242
215
90
251
231
105
254
235
109
252
229
111
238
192
90
240
192
96
237
182
88
241
171
78
230
150
66
102
42
17
71
42
26
62
37
27
47
28
23
67
48
33
51
35
21
158
113
70
239
162
85
243
161
83
237
154
77
239
154
76
237
157
81
239
151
71
204
130
69
237
163
85
242
170
94
239
168
93
240
164
91
234
158
85
236
163
91
235
160
88
233
154
81
237
164
90
237
171
97
231
158
85
234
159
88
235
163
89
236
169
95
235
170
97
234
166
93
236
168
93
234
170
93
237
178
99
233
171
95
235
166
92
235
165
91
233
163
90
234
163
89
237
166
91
236
159
88
236
159
87
239
162
90
237
159
88
237
158
87
236
152
83
238
154
85
237
153
86
237
154
86
239
160
90
237
153
85
238
151
83
236
150
82
237
150
81
238
148
76
236
139
62
237
140
60
235
135
56
234
131
53
235
129
49
234
126
44
241
130
41
241
131
43
241
132
49
237
123
49
232
118
44
238
119
34
224
97
39
222
91
48
202
75
45
201
66
42
207
64
44
225
88
46
208
65
38
214
64
42
212
58
42
211
59
40
205
62
45
201
62
52
208
58
49
199
61
51
210
72
50
221
83
46
228
97
56
214
77
43
228
92
46
222
89
45
230
104
51
230
111
50
229
113
52
222
108
50
230
122
63
225
121
63
233
128
66
229
127
66
233
132
72
228
126
69
228
130
73
222
126
69
224
128
72
221
127
71
226
131
68
223
126
64
219
121
69
219
123
70
217
121
67
220
125
68
222
125
70
220
125
70
222
126
71
224
125
67
224
122
61
225
122
64
226
122
62
229
123
66
226
121
65
225
125
69
183
53
49
184
52
47
179
51
47
176
51
47
175
50
47
177
53
47
180
55
48
180
53
47
176
51
45
181
52
47
178
50
44
179
50
46
180
47
44
197
49
44
201
48
41
197
48
40
201
51
39
215
54
34
218
56
35
220
64
32
227
93
26
233
105
18
243
119
19
233
107
16
249
132
14
249
131
9
249
131
9
249
129
11
249
130
17
236
111
22
238
110
29
230
92
32
226
79
39
223
56
40
222
51
39
213
48
39
217
52
39
221
62
39
221
68
38
224
71
38
222
66
37
219
64
38
219
67
38
223
75
39
225
74
38
228
81
42
227
81
39
228
87
40
226
82
36
226
75
36
224
71
34
226
78
40
217
61
35
215
56
40
212
51
36
215
55
39
213
55
37
213
57
34
214
60
31
215
66
28
225
88
28
226
90
24
238
108
28
235
103
25
240
113
20
243
118
21
242
122
17
248
131
11
247
131
13
244
132
11
247
135
16
245
134
23
243
135
31
243
134
30
243
136
30
245
139
31
245
137
30
244
135
21
246
137
21
245
131
10
249
132
8
250
129
2
251
128
1
251
128
0
251
129
0
251
129
0
251
129
0
251
129
0
251
129
0
251
128
0
251
127
1
254
127
2
254
126
1
254
125
3
247
114
5
253
124
4
254
124
0
253
123
1
254
125
1
254
126
2
249
121
5
253
126
4
253
128
0
253
128
0
253
128
1
252
130
1
251
131
1
252
132
2
251
132
2
249
130
1
251
153
6
250
155
4
254
170
5
254
172
3
253
174
3
251
167
6
249
166
15
247
174
37
246
179
45
245
182
52
246
194
78
244
206
96
251
230
111
250
230
109
252
235
114
255
242
121
254
241
119
254
241
113
253
236
104
253
235
104
249
219
89
249
189
40
245
196
57
254
234
105
254
243
113
241
219
95
254
242
116
254
246
122
253
241
115
254
243
119
253
244
119
254
244
119
254
243
115
254
239
110
254
240
110
252
237
108
250
233
103
243
214
88
242
204
77
241
189
52
241
190
55
251
228
96
254
238
106
254
239
108
254
241
109
253
235
107
241
218
93
254
240
106
253
239
107
252
238
106
252
239
105
252
239
107
252
239
106
253
239
106
253
239
107
253
240
107
254
239
107
253
239
109
253
239
109
253
239
109
254
240
110
253
240
109
253
239
109
254
239
108
253
240
108
253
240
107
254
239
106
254
240
107
254
240
107
254
240
108
254
240
108
254
240
109
254
241
110
254
240
112
254
241
113
255
241
112
254
240
111
255
238
111
244
221
95
249
230
96
254
237
98
254
236
97
254
236
97
253
236
98
254
236
99
254
236
100
254
235
100
254
235
103
244
216
96
246
215
104
246
201
93
231
165
73
129
70
36
77
41
23
87
41
25
66
45
28
45
26
18
47
27
19
51
35
23
70
55
31
101
70
45
238
170
105
245
163
85
242
155
74
242
153
72
243
156
76
242
156
76
194
121
65
212
138
71
224
146
75
235
154
83
241
156
86
236
152
79
236
150
78
237
151
79
238
151
78
237
159
85
237
159
86
236
160
86
238
161
89
237
155
86
237
155
87
235
153
86
237
161
93
238
160
92
237
162
92
239
166
95
236
165
93
239
158
88
238
159
88
240
163
90
239
161
87
238
154
80
237
152
78
238
150
73
239
147
68
239
150
69
239
144
60
239
143
57
238
140
51
241
141
53
239
140
56
238
134
49
238
132
48
238
132
44
234
126
39
237
130
39
236
126
33
234
119
28
237
121
28
235
121
31
225
111
33
231
116
34
226
114
35
233
123
36
236
121
43
223
97
44
226
97
46
221
98
47
221
100
46
224
105
46
228
109
46
223
109
53
222
109
46
234
120
38
232
114
44
231
109
47
231
109
43
229
110
43
238
123
48
232
120
53
225
108
60
223
97
59
217
100
58
224
112
62
214
102
55
217
106
58
219
105
58
221
113
56
226
116
58
218
109
55
228
127
56
226
128
59
232
131
61
220
118
61
219
116
64
218
116
63
220
118
66
214
115
64
212
113
63
218
118
61
204
108
61
211
113
63
210
110
61
213
112
58
215
110
56
203
103
58
208
107
61
202
103
59
200
104
60
204
101
57
202
99
55
206
104
57
200
103
57
207
107
54
206
106
58
209
106
57
198
98
59
205
99
59
209
108
63
182
53
46
183
54
47
181
52
47
177
49
45
182
54
49
179
53
47
176
50
44
183
55
48
181
52
46
178
48
44
180
49
45
185
53
49
184
48
44
185
50
43
190
53
42
207
76
37
207
88
28
227
98
27
231
98
23
244
120
20
246
128
9
249
129
9
249
131
10
249
131
12
244
120
14
241
112
18
234
104
17
233
97
20
238
103
23
236
98
26
229
85
28
221
55
31
227
65
41
225
59
37
225
59
40
222
53
38
221
51
39
222
52
40
223
53
39
222
52
36
223
55
38
223
59
39
221
56
37
223
56
37
221
55
36
224
59
39
225
58
37
225
59
38
221
56
33
226
67
38
230
75
38
225
71
34
219
64
34
219
65
38
223
80
37
229
92
32
233
99
28
239
112
28
245
120
25
248
124
21
248
130
15
245
128
13
251
131
16
247
127
14
241
120
10
246
124
15
243
120
13
242
118
13
245
122
15
242
121
14
237
118
20
243
124
24
242
124
24
242
124
23
243
124
21
246
124
21
242
122
16
243
117
19
245
121
20
243
115
10
244
115
10
247
118
10
249
121
9
240
111
7
249
122
10
247
121
8
251
127
2
251
128
0
248
122
4
249
126
3
251
127
2
252
126
1
253
125
0
253
124
1
253
123
0
253
123
0
254
124
0
254
124
1
254
124
1
254
125
2
249
120
6
252
125
5
253
128
1
253
129
1
252
138
4
249
147
5
252
161
9
251
154
5
254
172
7
253
171
5
252
172
5
252
180
7
249
197
53
249
201
67
248
209
76
250
221
88
250
224
93
255
242
115
255
245
118
254
246
123
254
248
134
255
249
140
255
247
135
254
247
128
255
246
127
255
243
124
250
228
103
250
223
92
244
202
61
244
199
55
245
197
53
243
200
60
251
224
88
252
228
95
251
227
94
250
224
92
252
233
111
244
221
107
238
194
78
252
233
113
253
236
113
243
213
90
248
220
100
241
206
87
251
233
104
250
233
100
249
227
92
252
230
92
254
238
99
254
242
101
254
241
103
255
242
104
254
241
105
254
241
106
254
241
107
254
241
107
254
239
108
253
240
106
252
239
105
252
239
106
252
238
105
252
237
105
252
238
105
252
238
105
253
239
105
253
239
105
253
239
106
253
239
107
253
239
107
254
239
109
254
240
110
254
240
109
254
240
109
253
239
108
253
239
108
253
239
108
253
240
106
254
239
108
254
239
108
254
239
107
254
238
107
253
239
106
254
238
108
254
239
109
254
239
111
254
239
114
248
230
115
255
238
118
254
237
110
248
229
103
255
238
102
255
237
99
254
236
98
254
236
98
251
225
93
251
225
89
251
224
86
251
222
86
248
210
85
246
190
76
222
151
59
160
101
48
116
45
27
87
41
20
94
48
25
97
51
28
42
16
8
29
18
13
33
17
15
41
27
22
86
59
46
169
120
86
214
149
86
232
155
79
237
151
65
241
152
73
243
155
74
168
104
62
55
25
17
52
27
18
169
107
54
243
144
52
243
142
42
241
143
46
242
146
51
243
148
55
241
148
58
240
146
56
241
150
62
240
146
58
240
147
57
241
148
60
238
146
57
240
147
56
241
144
53
241
147
54
240
146
51
241
147
49
242
146
48
242
146
47
242
144
42
241
141
39
243
137
28
244
136
22
244
133
15
245
131
10
245
131
8
244
130
8
245
132
10
244
131
17
241
130
21
241
132
30
245
132
24
239
122
24
243
128
29
242
127
32
237
128
38
237
131
42
236
132
42
237
134
42
239
137
44
241
140
46
239
138
45
237
137
48
236
139
53
236
139
55
235
138
58
235
137
60
234
136
54
231
134
50
233
134
44
232
127
44
224
117
51
224
119
54
228
124
51
227
122
51
233
127
50
231
123
44
229
118
47
219
106
52
218
105
56
224
114
57
230
120
58
226
119
56
230
124
58
232
126
59
226
122
57
228
127
58
231
131
58
230
131
57
234
137
59
231
135
57
226
129
59
223
123
63
225
128
66
229
133
64
228
132
63
226
131
64
227
133
63
229
134
59
234
136
58
231
133
59
229
132
59
233
135
58
232
135
59
235
139
60
234
137
56
232
134
55
230
133
57
229
133
60
230
134
61
232
132
54
230
132
52
233
133
52
231
132
52
232
133
50
232
133
54
229
133
57
227
130
52
229
135
54
178
50
46
182
53
47
181
52
46
181
50
44
185
54
46
182
53
46
177
50
44
182
54
47
182
53
46
181
47
41
194
50
42
204
49
38
208
61
31
225
97
28
241
117
25
245
126
12
249
132
8
248
132
5
249
134
7
239
114
18
231
93
22
232
87
31
226
83
24
232
89
27
223
75
26
226
73
30
229
82
29
228
79
33
223
62
28
231
72
37
227
59
34
229
62
37
224
58
34
221
61
33
221
60
32
225
61
38
223
57
36
222
55
34
225
66
36
225
77
35
223
78
30
225
76
34
226
78
33
229
82
33
228
79
32
222
67
31
226
82
32
227
88
33
226
87
28
231
98
28
228
83
30
231
87
32
225
78
29
226
80
28
232
94
28
227
83
24
223
74
21
229
81
24
229
82
26
226
74
24
233
86
26
230
85
26
232
83
25
235
85
26
230
82
28
232
84
28
231
82
30
233
84
29
235
88
31
231
84
29
232
88
27
236
96
25
240
107
18
245
117
11
243
115
9
241
112
13
251
126
12
236
102
16
239
106
20
245
116
13
245
115
10
249
121
9
250
124
6
250
123
8
248
119
5
249
121
7
251
127
2
251
128
1
251
124
2
252
126
3
245
113
8
253
124
5
253
123
0
253
123
1
252
123
0
253
123
1
253
123
0
252
124
1
251
126
1
251
141
4
251
143
3
249
145
3
249
143
3
248
141
5
247
153
12
247
186
46
248
197
62
249
189
55
250
196
51
250
197
49
250
197
45
250
195
36
249
208
62
249
215
78
248
217
78
248
216
73
249
213
68
245
193
44
246
194
44
248
211
62
247
216
74
247
219
81
245
207
60
246
195
32
248
200
47
248
200
49
250
191
24
250
190
16
247
191
25
247
190
23
247
191
21
247
190
21
250
188
12
251
187
9
251
186
7
251
185
7
250
195
47
250
199
59
250
205
67
248
198
54
250
193
42
252
184
27
248
194
56
249
215
86
249
216
79
244
208
71
252
232
88
253
237
90
253
237
92
253
238
91
253
237
92
252
232
92
252
233
95
254
241
104
254
241
103
254
240
102
254
240
102
254
240
102
254
240
102
254
238
102
254
238
104
254
237
107
253
238
106
253
238
105
253
238
103
253
238
103
254
238
102
253
238
102
254
236
101
252
223
92
253
223
93
251
226
95
254
238
107
253
240
107
254
237
105
252
226
96
252
226
94
252
225
94
252
224
90
252
223
81
252
222
76
251
223
68
248
221
63
248
219
68
249
218
67
251
218
74
206
164
79
216
181
96
244
203
78
246
201
71
247
198
67
246
191
55
246
192
57
246
188
56
247
163
35
246
156
17
246
155
11
245
150
13
240
150
22
214
137
40
146
82
39
65
27
15
117
48
24
116
53
22
116
57
28
89
39
16
47
18
12
18
6
7
31
15
12
44
29
20
60
46
35
38
20
21
60
36
30
87
56
40
152
104
64
187
120
65
197
127
66
96
54
33
59
37
25
35
21
13
165
102
34
247
140
7
251
140
2
250
141
3
249
141
2
250
141
2
251
141
3
249
139
4
250
139
4
250
139
3
249
139
5
246
138
12
246
137
19
245
136
17
244
134
19
245
137
25
243
135
20
243
134
19
245
136
18
244
138
21
244
136
13
244
137
16
249
144
21
250
148
28
249
147
28
248
147
28
248
147
28
247
146
31
244
143
33
243
137
28
242
133
26
240
133
26
239
132
28
237
131
35
238
137
44
238
137
42
239
136
38
238
136
39
238
138
41
238
137
39
241
138
42
237
134
44
238
133
41
240
130
40
235
126
41
227
115
41
229
117
40
229
119
45
224
113
44
231
118
46
231
118
54
227
113
55
226
115
48
226
114
49
226
115
49
227
115
50
231
119
53
230
118
49
231
120
51
232
122
52
236
125
50
234
125
50
224
114
49
231
126
54
230
127
54
232
127
53
232
129
51
235
133
48
234
133
52
226
123
53
229
120
53
224
116
55
228
119
57
229
123
54
230
128
54
232
133
51
232
131
47
232
130
46
233
132
52
229
127
52
233
128
54
229
125
52
229
125
55
231
126
53
231
128
53
232
128
49
232
129
51
234
132
46
236
134
45
233
131
47
235
130
44
238
131
40
240
134
39
241
135
38
238
132
39
233
128
38
240
133
38
234
122
36
239
129
35
229
121
42
186
54
47
185
52
44
186
54
47
184
53
46
184
51
44
184
52
45
184
52
46
186
52
45
189
49
43
211
52
41
221
53
37
225
55
33
229
75
30
237
103
25
237
102
21
234
95
21
235
95
23
233
100
17
239
107
24
232
93
30
232
88
32
227
73
33
228
71
31
231
76
31
227
75
30
226
80
30
230
91
24
226
87
27
228
85
26
228
86
28
225
77
26
231
80
32
225
77
28
232
97
33
230
96
30
230
89
28
226
77
26
223
76
27
233
99
30
231
106
24
239
119
23
239
112
24
237
111
24
241
118
19
250
130
16
242
118
17
242
121
14
246
130
10
245
130
9
248
132
9
244
122
12
242
119
14
245
119
19
240
117
13
244
122
10
245
123
12
248
125
11
246
123
11
248
126
15
247
121
16
243
115
12
248
121
13
251
123
14
246
118
11
246
117
12
245
115
13
243
113
15
238
102
23
242
111
17
247
116
15
244
111
14
242
107
16
245
115
13
251
124
2
251
125
1
251
126
1
251
127
1
251
128
3
252
129
3
252
130
0
253
130
0
253
130
0
252
129
0
251
129
0
250
128
0
250
128
1
248
129
0
249
128
1
250
128
0
250
127
1
251
125
3
253
124
2
253
123
1
253
123
1
253
122
0
253
122
0
249
137
8
249
154
12
252
167
7
253
174
4
251
177
3
254
192
15
253
190
12
251
197
43
252
199
49
244
175
35
246
172
33
248
171
31
247
171
31
246
172
30
244
185
35
245
180
21
248
176
8
245
168
6
249
188
22
252
195
18
252
195
16
250
196
20
250
208
47
249
208
53
249
209
62
250
219
78
251
219
80
253
221
89
253
224
99
253
225
106
253
228
109
253
229
109
253
229
107
253
229
106
253
230
107
253
230
104
251
219
72
251
215
60
251
213
59
251
210
55
252
206
49
251
197
39
251
192
29
254
184
4
255
184
3
255
184
2
253
184
5
252
184
6
253
184
4
252
183
5
251
189
12
249
189
12
250
189
14
248
190
14
243
175
15
246
173
18
250
188
30
250
193
41
250
194
40
250
194
39
249
193
39
250
194
38
249
193
38
249
192
37
247
200
54
249
203
66
248
186
47
248
186
45
248
185
44
247
185
43
246
185
45
248
206
69
245
181
46
246
158
11
246
159
13
244
162
18
247
179
43
247
180
44
248
176
39
247
155
11
248
155
8
248
154
9
248
154
9
248
154
4
247
154
1
246
154
1
246
154
2
246
155
4
247
155
3
247
155
5
200
123
28
125
64
37
161
104
55
234
150
33
254
155
7
254
153
4
254
152
2
254
150
3
253
149
7
247
148
16
222
136
25
184
113
33
130
77
32
81
40
23
85
37
26
79
38
18
101
54
20
111
54
20
127
59
29
103
44
23
55
20
14
41
22
18
47
24
18
73
50
41
75
56
42
49
35
25
51
41
30
42
32
24
39
26
21
61
41
41
63
35
35
60
33
30
53
35
28
56
37
29
171
105
34
249
139
6
251
139
1
252
140
1
251
139
1
252
139
2
252
139
2
252
139
1
252
139
1
251
139
1
251
139
3
250
137
8
249
137
13
248
137
15
249
136
13
248
137
11
247
136
9
247
137
11
247
136
10
247
138
13
248
138
8
247
140
16
248
144
19
246
142
19
249
142
19
249
140
16
246
139
16
245
136
13
243
135
17
241
135
24
242
133
26
241
134
26
240
134
28
238
134
31
239
135
38
240
137
39
239
136
36
237
136
36
237
132
32
237
129
31
238
129
30
239
130
29
241
130
31
235
116
33
229
112
36
231
117
34
239
126
38
235
126
41
238
127
45
233
121
46
232
119
45
232
123
43
238
131
41
237
130
41
237
131
42
237
131
46
235
129
47
236
132
47
236
132
48
237
132
52
234
129
53
230
122
54
230
122
54
232
125
53
230
124
53
232
123
53
230
122
51
234
126
49
231
125
46
237
130
44
233
122
42
232
121
45
231
119
50
229
119
49
230
123
51
228
123
51
229
123
50
228
121
46
233
125
40
241
132
32
244
132
24
240
125
28
243
127
31
238
124
25
246
134
21
245
132
19
243
131
21
247
136
17
249
139
12
246
136
14
249
137
13
249
135
13
246
132
10
250
137
9
249
138
9
241
125
15
248
131
16
236
115
17
245
130
16
241
135
21
195
60
49
191
52
42
189
53
44
191
55
47
187
52
44
188
53
44
192
54
45
196
49
39
215
45
34
225
50
34
227
54
37
226
55
35
224
57
32
229
75
35
227
70
30
228
70
32
228
71
31
229
73
33
227
73
31
228
73
31
226
70
30
226
64
29
230
73
28
234
94
20
247
121
21
242
115
14
252
130
11
251
129
11
249
127
9
248
127
13
248
126
18
237
110
21
241
117
18
242
123
16
245
126
16
245
126
15
245
126
12
248
131
15
248
132
12
244
129
9
248
132
9
247
130
9
248
131
7
248
133
6
249
133
4
250
132
6
250
132
2
249
133
2
250
135
4
250
135
3
250
136
3
248
134
4
249
131
2
248
132
1
247
131
1
248
131
1
249
131
1
241
119
10
240
117
16
239
113
17
251
128
6
250
129
0
250
127
0
251
127
0
251
128
0
252
127
1
252
127
1
252
126
4
253
128
2
252
127
1
253
125
3
252
125
4
251
127
4
251
128
2
249
130
1
249
130
1
249
130
1
247
134
2
248
148
7
248
133
0
250
134
0
250
134
1
249
138
2
248
153
5
252
167
7
249
161
4
253
168
5
254
168
4
252
161
7
251
155
7
250
144
7
252
122
0
254
122
1
254
122
1
254
121
1
254
120
1
253
120
1
249
126
1
251
151
6
251
154
5
250
168
8
254
185
8
254
185
6
253
184
7
253
188
14
249
188
35
251
192
33
251
201
45
251
203
47
250
205
49
254
222
60
251
202
41
251
195
31
251
189
27
251
191
27
253
182
4
255
183
1
254
183
1
253
183
4
252
182
5
251
182
13
250
184
22
250
184
21
250
183
21
248
182
22
250
188
23
249
190
25
249
190
26
249
197
44
248
203
59
251
223
93
253
228
98
245
196
40
249
193
27
249
193
28
250
191
26
249
189
24
250
185
22
252
178
15
254
175
6
254
177
6
254
177
5
254
176
5
254
176
6
251
170
5
254
176
6
254
178
7
254
177
7
254
177
10
250
165
8
250
165
14
248
157
19
248
129
1
249
129
1
249
128
1
248
128
1
243
136
5
250
165
10
252
164
1
252
164
1
251
167
5
250
167
8
251
168
10
250
168
8
249
168
11
247
186
47
245
189
55
244
183
48
247
164
24
247
178
42
246
183
44
248
181
38
247
158
6
249
157
8
251
156
4
249
156
9
248
157
7
250
157
5
251
156
4
250
156
2
250
155
1
251
152
2
253
150
2
252
150
2
252
150
0
251
150
1
247
148
10
235
141
27
206
128
33
232
143
18
254
154
5
255
153
2
254
153
1
253
154
7
204
127
33
133
80
32
65
29
13
79
37
23
75
34
20
88
39
17
89
45
19
92
50
20
96
49
16
121
54
22
156
65
36
126
51
33
60
23
18
45
22
19
49
24
20
73
50
44
98
75
55
69
50
29
66
50
32
59
45
30
45
32
24
54
40
35
25
11
14
30
15
18
57
39
32
52
35
26
172
107
35
248
143
10
251
139
2
251
138
2
251
139
1
252
139
2
252
139
2
253
140
3
252
140
1
252
140
1
252
139
3
250
142
12
250
138
4
250
138
6
250
138
2
250
138
4
249
139
8
249
137
6
251
141
15
250
136
6
251
136
3
250
136
6
248
135
11
247
135
10
248
135
9
248
132
12
247
130
16
246
127
14
243
122
20
239
121
24
236
120
24
245
129
20
245
129
18
242
125
27
235
115
33
240
124
34
238
122
28
238
123
24
237
124
25
240
128
27
243
130
29
241
128
31
241
125
30
244
128
27
243
127
32
243
130
31
243
132
34
242
133
36
241
131
37
240
131
38
238
130
33
242
136
31
240
134
30
238
132
33
244
137
28
239
132
28
238
129
34
236
129
41
231
123
45
232
123
48
235
126
47
231
121
46
233
123
46
231
124
47
230
122
48
232
124
49
229
120
45
232
120
47
227
114
49
227
115
49
229
119
48
229
118
44
228
116
48
227
116
48
231
122
42
229
120
42
231
121
44
237
129
35
239
130
25
240
130
22
248
134
11
243
126
14
245
127
13
246
128
11
248
132
6
248
132
6
249
134
6
248
133
6
251
137
4
248
134
5
250
137
7
249
131
9
249
134
7
250
137
4
251
137
2
245
130
11
249
133
8
250
135
7
251
138
6
248
139
8
195
54
44
192
49
40
191
51
43
189
53
44
189
52
41
201
52
39
211
59
36
223
64
36
224
66
35
224
65
32
223
58
30
226
61
35
226
61
34
230
65
35
226
65
31
227
69
26
226
71
26
231
85
26
228
85
22
232
93
25
240
111
19
238
107
20
249
127
16
244
123
9
246
124
10
240
115
13
241
117
12
243
121
15
247
127
13
236
114
9
248
128
10
249
130
9
244
124
9
247
129
7
247
130
6
245
127
6
246
127
9
247
130
6
249
133
6
249
136
2
249
135
1
249
136
1
249
135
1
249
134
2
245
121
18
236
100
20
240
111
17
245
119
14
246
122
14
250
129
14
246
128
10
250
136
5
250
134
1
251
135
1
251
135
1
249
136
1
251
135
2
250
135
4
249
134
4
250
131
6
247
123
6
250
127
1
251
126
1
250
127
0
252
127
0
252
127
0
252
128
1
252
128
0
253
128
0
253
129
1
252
128
2
250
139
5
253
155
8
253
158
7
253
158
7
253
160
8
252
160
7
253
161
6
252
162
6
252
162
7
252
163
7
253
168
6
251
170
5
254
179
3
254
177
3
252
169
4
253
167
4
253
167
7
248
152
9
249
147
7
249
146
7
250
149
6
249
135
3
252
122
1
254
120
1
254
119
1
254
119
1
254
118
1
252
118
0
252
118
0
250
121
0
249
124
1
249
124
1
247
126
1
250
156
8
251
165
11
248
159
8
249
175
28
249
177
29
248
176
27
248
176
22
251
166
5
252
165
4
253
173
4
255
178
2
255
180
3
255
180
1
255
180
3
253
171
4
253
169
4
252
167
5
254
177
3
254
179
2
253
177
4
251
170
6
254
174
5
253
175
5
252
175
5
254
181
3
253
183
2
252
187
5
252
186
6
253
185
10
252
175
12
250
160
5
251
160
4
250
159
5
249
145
6
249
120
0
250
119
0
250
120
0
250
121
1
250
122
1
250
122
1
252
121
1
250
122
1
251
123
1
250
123
1
251
122
1
253
122
0
253
123
1
252
122
0
253
122
0
252
122
0
251
121
0
252
121
0
249
147
7
252
172
7
254
165
1
252
166
2
248
184
33
248
198
53
247
197
58
247
196
55
246
197
57
249
211
76
249
212
81
248
198
68
247
165
23
250
161
18
252
156
2
252
156
1
253
156
0
253
155
0
254
155
1
254
156
1
254
155
2
254
155
2
254
156
2
254
155
3
254
154
1
253
153
4
252
151
6
252
151
2
251
150
1
251
150
1
242
146
10
237
146
29
209
127
23
218
133
21
253
151
5
255
150
1
254
151
4
249
155
27
149
85
36
92
44
26
90
43
19
99
46
17
100
46
19
101
47
18
101
49
19
113
47
23
126
50
29
144
58
28
188
77
43
116
44
22
61
28
18
44
24
20
39
22
18
61
40
32
87
63
43
63
43
31
70
51
34
68
51
30
59
44
28
67
50
34
62
44
32
51
37
24
57
40
28
53
32
23
213
128
32
252
140
5
252
139
3
251
138
1
251
138
0
252
139
1
252
140
2
252
140
2
250
142
3
246
143
8
249
141
4
251
140
2
251
138
1
251
137
3
251
137
1
250
137
0
250
136
1
250
135
3
247
127
7
251
130
9
248
127
9
247
130
8
243
126
15
241
124
20
242
124
20
236
111
22
228
100
27
236
109
31
241
112
29
233
107
26
238
108
32
233
104
33
222
89
24
229
97
37
229
94
35
226
93
34
241
111
37
239
114
32
244
125
29
233
107
30
230
105
27
240
116
24
232
107
22
243
122
24
234
107
31
225
91
40
223
85
40
225
99
35
233
114
33
241
131
25
240
131
18
250
141
13
249
137
7
247
135
9
249
137
4
249
137
4
248
138
4
248
138
6
248
136
10
248
136
11
251
138
10
249
137
9
249
138
9
250
139
10
246
137
13
244
136
17
242
131
22
237
120
33
232
118
36
232
120
39
234
123
39
236
128
27
239
130
26
247
139
17
248
140
6
249
140
6
248
138
8
247
140
8
249
141
5
250
140
3
251
139
2
252
139
1
251
139
2
251
139
1
251
139
1
252
139
1
252
140
3
251
140
3
250
139
4
250
141
8
251
138
4
248
130
4
250
135
4
251
138
2
251
138
1
251
138
1
251
138
3
251
138
2
251
137
3
251
137
11
219
86
23
230
92
28
227
92
26
221
91
22
233
95
26
235
99
23
234
96
16
236
101
22
233
105
23
233
105
21
243
120
23
230
107
16
241
119
20
232
107
15
244
119
16
250
128
12
249
129
10
251
132
6
251
133
5
251
133
5
251
133
3
244
126
6
248
134
3
249
136
4
250
136
3
251
136
4
247
133
4
251
136
6
250
135
4
251
137
5
245
128
8
247
129
9
241
120
9
249
129
8
247
131
6
239
119
11
242
118
19
248
128
11
243
124
5
249
136
2
249
136
0
249
135
3
246
126
10
240
111
18
231
88
22
234
84
28
237
85
28
234
86
25
234
83
26
236
85
25
230
81
19
250
125
15
240
115
9
250
126
14
249
129
9
251
135
2
249
135
1
250
134
2
249
132
2
244
121
13
233
100
18
246
118
14
251
126
1
252
126
1
253
126
1
253
126
0
250
128
1
252
144
5
252
143
3
251
141
3
252
139
2
251
136
2
252
127
1
252
124
0
252
123
1
252
122
1
252
121
0
252
119
0
251
119
0
250
119
0
250
119
0
250
130
4
250
148
5
251
156
4
252
154
6
248
122
0
250
118
0
250
118
1
250
118
1
249
118
0
248
125
2
250
146
7
250
145
9
251
126
3
254
119
1
254
119
1
254
118
1
253
118
0
253
118
0
253
118
0
253
118
0
253
118
0
254
118
0
253
118
0
252
118
0
251
117
0
252
117
1
251
117
0
250
117
0
250
117
0
250
116
0
251
117
0
250
117
0
250
126
2
250
131
2
250
139
3
249
140
3
250
139
5
250
122
1
252
117
0
250
118
0
250
137
5
249
144
5
248
139
4
250
122
0
251
122
0
250
121
0
248
123
1
248
144
4
245
155
4
254
186
4
254
187
6
241
160
6
244
151
6
244
131
3
250
122
2
253
118
1
253
119
1
254
119
2
254
119
1
253
119
1
253
119
1
253
119
1
254
121
2
253
120
1
254
121
2
254
121
0
253
121
1
254
121
2
253
121
1
254
121
0
254
121
0
252
122
0
252
122
1
252
122
1
252
122
1
250
136
4
251
149
4
250
150
5
249
150
5
254
169
5
253
170
5
253
164
4
253
163
6
253
162
5
253
161
7
253
161
7
254
159
4
254
156
3
255
154
2
255
153
2
255
153
2
254
153
2
254
153
3
254
153
2
252
154
1
254
154
1
254
154
1
255
154
2
254
154
3
250
155
10
222
143
36
170
99
25
251
154
16
251
150
2
225
137
21
159
97
32
105
60
21
60
29
21
128
78
28
246
149
22
236
142
21
201
124
30
134
79
27
135
55
29
145
59
32
151
64
37
133
52
23
114
47
20
112
48
20
109
50
20
141
56
33
94
36
21
145
62
39
158
54
30
116
44
20
70
31
18
31
11
11
28
14
12
57
38
32
79
58
38
83
63
37
81
62
37
85
68
43
82
63
41
75
54
39
69
48
34
72
54
31
67
51
32
36
16
8
211
127
27
250
143
2
252
152
5
252
156
5
252
155
4
250
155
9
248
165
29
248
165
31
247
161
25
248
170
38
249
156
21
251
138
1
253
136
0
251
136
2
251
137
3
251
133
7
250
131
11
243
116
18
233
98
20
242
112
17
240
113
12
247
128
5
249
131
7
247
129
9
247
131
12
249
130
11
249
127
18
235
106
21
236
106
19
242
117
25
235
107
22
240
111
28
240
112
23
239
115
19
249
129
14
245
124
16
242
121
20
229
100
15
242
119
24
236
110
26
247
128
23
245
128
16
240
121
22
240
116
28
231
100
28
229
91
33
230
97
29
243
123
22
248
136
12
249
139
9
249
138
9
247
138
3
249
142
3
249
144
3
250
147
3
251
155
6
252
156
7
251
150
6
250
145
4
250
143
3
249
137
5
250
137
6
250
139
4
251
140
4
249
140
5
248
141
5
248
140
7
248
138
8
250
139
8
249
140
7
247
140
8
248
142
6
249
141
3
250
141
2
250
141
1
250
141
2
250
142
8
248
142
10
250
141
6
250
140
1
250
140
2
250
140
1
251
139
1
250
140
1
250
139
1
250
139
1
250
139
2
251
139
2
251
140
2
250
139
2
251
139
2
251
139
1
251
139
2
251
138
1
251
139
2
251
139
5
246
132
6
248
135
6
251
138
6
239
128
16
249
134
3
249
133
3
250
134
4
251
134
3
252
135
4
251
135
3
252
135
3
250
135
2
250
136
2
251
136
2
250
136
1
249
137
2
251
136
2
251
137
3
250
136
4
250
135
4
251
135
3
251
134
4
251
133
6
247
125
7
243
116
7
248
125
6
250
136
1
253
157
4
253
163
4
251
157
3
251
151
2
249
140
0
250
140
0
250
140
1
250
140
0
251
142
1
251
143
1
250
143
1
249
143
0
250
148
2
251
149
2
251
151
1
252
156
2
251
158
3
250
154
3
251
145
3
241
123
9
248
126
20
228
77
22
231
74
25
229
78
22
237
93
23
234
87
24
227
72
23
234
83
27
231
81
23
235
93
28
229
81
19
229
83
21
248
124
9
251
130
0
251
129
0
251
127
4
239
108
9
246
115
11
241
112
7
251
125
2
252
125
1
251
125
1
253
125
2
251
126
2
252
139
3
251
140
3
251
139
5
250
139
4
251
137
4
252
127
2
253
121
0
253
120
1
253
119
0
253
118
0
252
117
0
252
117
1
251
116
0
252
117
0
252
116
0
252
116
0
252
116
0
252
116
0
252
116
0
252
116
0
252
116
0
252
116
0
252
116
1
252
115
0
252
115
0
252
116
0
252
116
0
253
116
0
253
116
0
252
116
0
253
116
0
253
117
0
253
117
0
253
118
0
253
118
0
253
118
0
253
118
1
253
116
0
252
116
0
253
116
0
252
116
0
252
116
0
253
116
0
252
115
1
252
115
0
253
116
0
252
116
0
253
116
0
252
116
0
252
115
0
253
115
0
253
117
0
254
117
0
250
122
2
250
123
2
249
153
10
249
168
9
250
178
10
251
178
8
251
178
6
250
183
14
252
197
30
252
200
25
253
193
4
254
192
1
254
193
2
254
190
7
248
163
12
250
135
7
254
119
1
253
120
1
253
120
1
253
120
1
253
118
1
253
119
1
254
119
1
253
120
1
253
120
1
253
120
1
254
120
1
254
120
1
253
120
1
253
121
1
254
121
1
254
121
0
252
121
0
251
121
1
252
121
0
252
122
0
252
123
1
253
123
1
252
123
1
252
123
1
250
130
2
248
131
2
249
130
1
249
129
2
248
130
1
250
131
2
251
132
2
251
132
1
251
129
0
251
128
1
251
129
0
250
129
0
251
129
1
249
128
1
247
129
0
246
142
4
247
144
3
249
142
3
250
142
5
250
143
13
230
140
37
132
86
34
102
58
34
215
132
30
251
149
6
193
115
28
65
21
16
89
35
22
54
22
12
94
52
29
134
78
30
103
55
23
70
25
16
79
30
15
120
50
28
140
56
30
133
49
21
138
53
25
137
60
33
125
54
23
112
54
19
118
54
25
115
53
30
129
58
36
148
58
34
104
47
21
60
29
15
28
12
10
42
25
18
65
42
29
81
56
42
89
66
44
88
68
39
68
52
31
49
39
25
68
54
34
83
64
36
71
54
35
65
48
33
43
26
21
206
123
26
249
138
1
251
142
2
251
144
2
251
145
2
249
142
3
246
141
6
246
140
5
248
139
2
251
137
1
251
137
4
250
130
7
245
122
11
240
111
17
239
107
20
228
85
22
226
83
20
229
94
18
240
113
16
250
128
7
251
132
2
250
131
1
249
131
1
248
131
0
248
131
0
249
131
1
249
131
1
248
132
2
249
133
3
242
127
7
248
130
7
249
133
4
248
133
5
250
132
3
248
132
3
248
133
4
248
135
4
249
133
8
248
126
18
231
105
21
237
115
23
238
117
25
239
114
29
235
106
25
240
116
20
248
127
16
246
129
9
250
137
3
249
137
3
248
139
3
250
146
3
251
153
4
251
156
7
251
157
7
252
156
10
251
151
8
250
141
7
250
137
4
249
139
2
249
140
3
250
139
3
248
140
5
246
141
6
246
141
5
246
142
4
247
142
6
248
141
5
250
140
4
249
140
3
249
141
3
248
141
4
248
141
4
250
141
5
249
141
3
249
141
2
248
142
3
248
142
3
248
142
3
250
141
3
249
140
2
250
140
2
250
141
3
249
140
5
248
139
4
248
140
2
250
139
1
250
139
1
250
140
2
249
140
4
250
139
6
251
138
8
247
138
7
248
138
9
247
134
12
247
134
22
238
120
21
245
126
29
231
104
23
235
102
29
231
103
30
246
126
18
243
120
20
240
122
21
242
123
22
245
122
17
245
125
14
247
129
10
241
121
6
251
136
3
251
136
1
251
137
0
247
129
5
245
120
11
241
115
11
238
109
12
243
120
13
243
122
13
241
113
13
237
103
13
247
121
10
250
127
8
250
129
4
250
134
1
251
140
1
250
146
2
251
154
3
251
163
4
252
167
3
252
165
4
252
165
4
251
167
4
254
173
5
254
175
6
254
171
6
253
163
8
252
156
10
250
148
8
252
151
8
251
151
7
250
149
8
250
142
8
248
136
12
240
115
14
235
99
22
231
77
31
230
68
30
226
61
26
224
64
23
231
74
28
229
72
27
226
70
22
227
77
26
231
78
26
235
92
24
239
110
13
251
129
3
251
129
1
251
128
0
251
137
6
252
134
5
250
125
1
251
124
1
252
123
1
252
124
3
251
124
4
251
123
6
250
122
6
252
123
1
253
121
1
253
119
1
251
119
4
251
120
6
250
119
6
250
117
5
250
116
8
253
119
4
253
118
0
252
116
0
251
116
0
251
116
0
252
116
0
252
116
0
253
116
0
252
116
0
253
116
0
252
116
0
252
116
0
252
116
0
251
116
0
252
116
0
252
116
0
252
116
0
252
116
0
252
116
0
253
116
0
253
116
0
252
116
0
253
116
0
253
116
0
253
116
0
253
116
0
253
116
0
253
116
0
253
116
0
252
116
0
253
116
0
252
116
0
252
116
0
252
116
0
252
116
1
252
116
0
252
115
0
252
115
0
253
116
0
253
116
0
253
116
0
252
115
0
252
116
0
254
117
0
253
119
1
249
134
9
248
137
11
247
142
10
248
135
5
247
132
3
248
165
11
246
176
9
250
187
6
253
190
7
248
173
7
250
168
7
250
164
5
251
167
7
249
160
9
248
128
3
254
120
2
254
120
2
253
119
1
253
120
1
254
121
2
254
120
1
253
118
0
253
118
0
254
119
0
253
118
0
253
118
0
253
118
0
253
120
1
254
120
1
252
121
1
250
122
1
250
123
0
249
124
0
248
124
0
249
124
1
249
124
0
250
125
1
250
126
1
249
129
1
248
142
5
247
147
5
247
147
6
247
145
10
247
143
13
248
136
9
252
123
0
253
124
0
253
125
0
253
125
1
253
125
0
254
127
1
253
126
1
254
126
1
254
126
1
251
125
1
248
124
2
244
124
9
238
118
17
208
99
19
169
75
21
118
50
18
84
52
31
67
41
34
146
90
36
236
141
23
203
116
25
107
36
17
99
38
17
58
25
16
56
24
20
82
29
18
84
29
14
104
39
21
110
46
19
125
55
28
148
63
35
110
48
20
140
62
32
146
65
35
122
56
26
89
49
23
104
51
24
148
67
40
165
65
38
175
67
40
127
55
30
65
32
16
32
19
15
36
19
12
68
43
33
102
77
62
88
61
35
89
67
44
61
44
30
38
29
18
18
13
8
70
57
35
81
63
44
81
61
39
72
49
26
215
125
28
250
133
4
249
128
6
247
125
10
251
131
10
252
135
7
252
132
8
251
128
12
245
118
11
242
111
13
237
99
19
238
94
24
234
89
21
238
95
24
238
107
17
240
114
17
250
130
13
251
131
7
252
132
2
251
134
1
250
135
2
251
147
7
253
156
9
253
159
7
253
159
7
253
159
6
252
153
7
250
147
8
250
138
2
251
135
2
252
134
2
251
134
1
244
125
9
248
129
6
247
128
4
247
129
3
249
133
2
245
127
8
245
125
15
246
127
13
239
117
14
238
113
22
244
122
18
242
122
13
246
129
10
249
134
8
249
136
4
250
139
1
251
142
2
249
144
5
250
144
5
249
141
4
250
139
4
251
136
4
245
123
9
248
123
11
249
121
14
247
123
15
250
133
10
250
139
4
250
139
1
250
141
1
250
140
1
249
141
1
249
141
1
249
141
1
249
142
3
248
143
12
247
143
16
248
144
13
250
144
12
248
145
13
249
144
13
251
144
6
250
145
3
247
145
5
247
144
5
249
144
4
249
143
6
246
143
7
247
142
5
247
143
7
243
142
12
242
137
10
246
140
8
248
141
5
249
141
4
249
137
19
223
100
25
218
86
34
218
86
35
220
92
34
209
82
31
206
72
33
198
63
36
188
46
35
189
49
36
185
38
34
181
39
34
181
44
39
208
69
20
218
84
25
215
71
22
225
86
19
232
104
18
245
126
16
246
127
8
251
134
5
251
136
1
252
137
1
252
136
1
252
136
2
251
134
3
252
133
4
252
133
4
251
133
4
250
134
3
252
134
3
252
134
3
251
134
2
251
133
2
252
134
3
252
133
5
253
133
5
252
135
3
251
137
3
250
149
4
251
159
4
252
161
3
251
161
3
251
160
4
250
150
2
251
152
5
245
128
5
233
102
11
228
88
15
229
83
16
232
89
17
229
88
18
232
92
20
234
90
19
231
80
21
228
70
23
225
65
23
221
61
21
230
82
25
233
90
21
243
112
18
238
107
14
246
119
13
245
120
12
246
125
13
247
125
10
251
128
10
245
119
8
248
122
10
252
124
10
253
126
9
250
123
10
247
116
11
246
112
12
246
111
8
250
119
10
243
110
14
250
117
15
250
119
11
247
117
7
252
122
3
251
119
5
253
119
2
253
120
1
253
120
3
247
116
8
248
114
7
242
105
14
253
118
9
253
118
1
252
117
1
251
116
0
251
116
0
251
116
0
251
116
0
252
115
0
252
115
0
252
115
0
252
115
0
251
115
1
252
115
0
251
115
0
251
115
0
251
116
0
251
116
0
251
116
0
251
116
0
252
116
0
253
116
0
253
116
0
253
116
0
253
116
0
253
116
0
253
116
0
252
116
0
252
116
0
253
116
0
253
116
0
254
116
0
253
116
0
253
116
0
253
115
0
252
115
0
252
115
1
252
114
0
252
114
0
252
115
0
253
116
0
253
116
0
253
116
0
254
116
1
254
117
0
254
119
1
253
119
1
250
120
0
247
120
0
247
121
1
249
127
2
245
153
7
251
186
9
253
193
3
249
177
6
244
130
1
246
126
1
247
126
1
247
124
1
246
124
0
247
125
1
248
127
1
248
127
1
249
125
1
252
122
2
253
120
2
253
121
1
253
120
1
253
118
0
253
119
1
253
118
0
253
117
1
252
119
0
251
120
1
250
122
1
248
145
5
252
178
9
252
178
7
252
179
7
252
180
8
252
180
8
252
179
8
252
177
9
253
176
12
254
180
13
250
162
9
250
155
6
251
153
6
248
142
6
247
131
5
248
127
3
251
122
0
252
122
1
253
124
1
253
125
1
253
126
2
253
127
1
253
127
1
252
127
1
251
128
5
248
127
19
221
107
22
169
68
14
130
31
9
111
25
14
103
41
29
57
32
19
71
49
31
50
29
24
68
34
24
181
108
35
198
117
28
104
42
15
96
41
16
53
22
10
88
32
22
103
34
15
127
48
28
128
47
26
95
43
17
133
61
36
133
50
23
157
70
38
143
64
31
153
74
36
167
82
41
103
53
25
94
47
21
140
57
30
157
61
34
165
60
33
121
55
31
77
37
18
39
23
16
41
24
17
65
43
38
85
62
55
89
62
34
92
68
37
83
61
38
52
38
27
47
38
24
40
31
16
82
65
41
84
60
37
88
57
29
222
122
35
235
100
18
234
90
20
242
104
23
233
87
19
235
94
24
231
87
22
234
88
24
234
85
24
232
82
23
232
85
24
234
87
20
238
94
22
238
103
16
244
123
8
251
133
1
251
133
2
247
128
3
253
132
1
251
132
1
251
132
1
250
134
1
250
134
1
250
134
1
250
133
0
249
133
0
250
133
1
251
132
1
251
133
1
251
133
3
252
133
2
251
133
2
250
136
3
251
150
8
250
154
11
250
154
9
249
160
21
250
170
34
251
169
33
250
167
32
250
165
31
251
158
24
251
159
20
249
155
12
248
149
4
248
147
3
248
151
6
247
150
4
249
151
5
247
147
4
247
150
5
248
150
6
247
149
6
247
149
9
248
148
11
248
147
11
248
141
11
248
136
14
237
113
13
245
132
10
248
141
4
250
148
4
251
148
4
250
148
5
249
147
4
250
148
6
250
148
6
248
147
9
246
147
13
250
146
6
250
146
4
249
146
8
249
144
9
249
145
4
246
146
4
245
145
5
248
144
4
245
143
8
244
141
11
246
141
9
249
143
7
249
141
13
246
139
17
239
128
17
242
128
18
239
123
19
234
115
25
211
75
30
212
60
39
208
60
36
205
62
33
208
65
35
209
68
35
213
73
35
219
78
33
221
80
31
227
96
25
234
107
22
239
115
20
240
124
24
251
141
10
251
140
7
252
138
8
252
139
4
251
138
3
251
137
2
251
136
2
251
135
3
251
136
3
251
136
3
251
136
1
251
135
1
251
135
0
251
134
1
247
125
7
236
104
13
238
110
10
251
134
3
250
134
3
247
125
9
243
116
13
249
125
11
240
110
12
234
101
9
244
116
13
243
117
7
251
128
1
251
130
2
252
130
2
250
128
3
249
126
3
251
124
6
250
120
7
252
122
9
251
121
12
250
122
8
249
122
8
250
122
9
249
121
9
249
121
10
249
121
11
251
123
13
252
122
15
251
123
15
251
122
16
252
125
13
251
128
9
249
126
8
246
123
9
248
123
15
244
119
15
244
115
13
241
107
15
237
94
21
227
63
22
227
62
20
228
68
18
231
72
21
231
69
24
232
74
24
235
79
28
233
79
21
243
101
20
245
109
21
236
98
18
242
110
14
250
121
3
251
120
2
245
113
7
252
120
6
252
117
5
253
119
1
251
118
1
252
118
0
252
117
2
252
117
1
246
107
6
247
110
7
252
116
1
251
116
1
251
115
1
252
115
1
252
114
1
252
114
0
252
114
0
251
113
0
251
114
1
251
114
0
251
115
0
251
115
1
252
115
0
252
115
0
252
115
0
251
116
0
251
116
0
251
116
0
251
117
0
253
116
0
252
116
0
252
116
0
252
116
0
252
116
0
253
116
0
252
116
0
253
116
0
253
116
1
254
116
1
253
116
0
252
116
1
248
125
3
248
132
4
249
135
4
249
135
3
249
131
4
252
118
0
254
119
1
254
120
1
254
120
1
254
119
1
249
131
8
246
147
17
250
169
17
253
182
15
252
187
15
254
199
10
254
211
15
252
219
27
252
220
28
253
219
29
253
214
29
253
210
30
253
205
20
252
196
14
252
192
15
254
189
8
254
189
7
254
189
7
252
180
10
247
153
14
250
125
2
253
121
1
254
121
1
253
120
1
253
119
1
253
120
1
251
120
1
250
156
12
251
170
9
251
175
6
255
184
6
254
187
4
252
181
5
251
175
6
251
177
6
251
176
6
251
176
6
250
165
7
247
132
1
249
134
3
252
127
1
250
130
3
249
135
2
249
134
3
252
124
1
253
123
1
251
122
1
250
121
1
251
123
1
240
123
11
198
103
20
220
113
19
246
126
19
227
113
25
175
74
16
155
50
12
130
10
4
131
24
13
112
23
10
112
59
38
64
34
20
58
41
24
75
59
37
86
60
37
77
54
26
89
51
23
178
113
52
102
43
13
110
43
17
70
26
14
106
40
25
120
44
25
157
56
33
149
52
29
121
51
26
119
53
29
146
65
35
184
73
39
166
73
36
190
82
37
196
84
46
127
63
30
93
47
14
158
62
34
165
64
37
139
58
29
91
41
17
129
56
31
70
39
17
33
18
12
68
42
38
69
37
32
74
49
30
91
68
36
93
74
46
71
53
38
81
66
34
60
46
31
79
60
38
80
57
38
92
61
35
221
122
32
244
118
12
243
118
10
245
119
9
246
119
11
244
114
11
246
116
11
249
122
11
249
122
11
246
120
8
246
122
12
249
126
10
247
126
6
249
138
6
247
139
4
247
139
4
248
140
5
250
136
2
251
133
1
252
133
1
251
133
1
252
133
1
252
132
1
252
132
1
250
131
0
250
130
1
246
128
3
249
131
2
249
132
3
239
118
15
244
121
18
249
126
14
246
128
12
247
139
15
249
157
25
253
169
33
253
172
34
253
174
38
249
158
15
250
154
7
249
159
15
249
160
22
250
160
22
250
163
16
250
163
17
248
158
11
247
152
4
247
153
5
246
152
5
247
152
5
246
152
5
248
151
5
248
151
5
248
151
5
248
150
5
248
150
7
248
149
10
247
148
10
248
148
12
247
146
13
246
146
13
246
147
12
247
146
14
246
146
15
247
144
14
248
144
8
246
143
8
245
143
12
242
141
16
247
144
11
242
143
8
241
140
21
239
137
30
241
141
27
243
146
22
241
143
19
243
143
24
243
142
21
239
130
24
243
129
24
243
126
30
211
77
27
219
84
30
218
74
33
224
76
35
227
85
29
226
89
23
242
111
26
239
115
18
251
131
20
246
123
21
243
117
22
242
114
20
239
109
20
237
103
23
228
90
26
223
86
28
223
87
24
226
92
26
220
94
35
239
121
14
244
123
16
243
121
16
241
120
12
243
121
16
239
112
15
239
108
16
234
99
20
238
104
17
233
99
13
247
117
16
239
111
12
247
120
11
242
116
10
248
123
14
250
126
14
249
125
11
252
130
8
251
128
12
243
114
20
239
104
18
244
110
17
245
109
15
244
108
14
245
108
13
245
111
15
239
106
9
241
107
12
236
100
10
248
117
9
246
117
5
244
110
9
238
100
7
250
114
9
244
110
9
251
120
1
250
120
0
250
121
1
251
121
3
242
106
6
245
111
5
245
111
8
234
90
13
236
94
8
232
85
14
231
84
16
232
86
16
228
84
14
234
94
22
225
79
14
227
75
18
231
80
24
230
77
20
231
77
21
236
90
20
235
91
18
238
91
21
238
90
21
238
88
18
238
91
18
240
95
15
238
93
21
236
93
17
239
99
18
250
119
9
241
104
14
248
117
7
251
121
1
251
121
2
251
119
4
246
112
5
252
118
1
251
116
0
251
117
0
251
116
0
251
116
0
251
116
2
252
115
1
251
115
0
250
115
0
250
115
0
251
114
0
251
115
0
251
114
0
251
114
0
251
114
0
251
114
0
251
115
0
251
115
0
251
114
0
252
115
1
251
116
1
252
115
0
252
116
0
251
116
0
251
116
0
251
117
0
251
116
0
251
116
0
252
116
0
251
116
0
251
116
0
252
116
0
252
116
0
253
116
0
253
115
0
253
116
0
253
116
1
253
116
1
249
138
7
251
158
8
251
163
9
251
162
8
251
154
11
251
121
1
255
120
2
255
121
1
254
121
2
254
121
2
251
122
1
244
129
2
242
141
3
242
144
3
241
151
2
248
184
7
253
209
6
252
212
6
252
212
5
251
212
5
252
211
6
252
210
7
254
207
10
243
171
11
247
161
9
247
158
4
248
157
4
248
156
5
248
144
5
249
123
1
253
122
1
252
122
0
252
122
1
253
122
1
252
120
1
252
120
1
252
120
1
248
121
1
246
138
4
246
156
5
244
154
6
246
171
8
250
185
6
248
180
6
249
179
7
247
166
12
247
157
14
250
125
1
254
123
1
254
123
1
252
123
1
249
137
6
249
156
10
249
151
13
252
126
0
254
125
0
253
123
1
251
122
1
241
123
7
193
113
33
103
59
27
130
42
21
147
46
14
126
18
7
128
27
15
125
15
7
133
44
25
129
26
11
112
43
27
57
31
23
57
32
28
76
53
30
83
60
41
65
41
31
82
59
30
74
53
27
88
57
27
146
83
50
110
44
16
70
26
12
124
61
40
85
37
20
147
56
33
162
65
39
148
57
33
123
48
27
129
50
24
161
61
34
176
73
41
187
76
38
166
74
45
112
56
27
92
49
16
149
63
33
175
69
38
159
63
32
151
62
36
149
64
36
73
47
19
66
43
28
92
52
37
70
28
14
50
29
15
81
62
35
81
63
38
69
50
34
85
70
40
69
53
30
71
54
29
78
60
31
88
59
32
217
122
23
249
134
2
248
134
2
248
134
2
247
133
4
246
133
6
246
133
3
246
135
3
247
136
4
248
137
4
248
137
3
250
137
1
250
139
1
249
147
5
251
157
13
252
160
18
253
163
20
251
153
10
251
145
4
250
146
3
251
142
3
250
136
1
250
135
2
248
134
2
247
133
2
244
124
10
240
121
12
247
128
9
236
111
12
241
114
24
222
80
28
224
81
30
224
82
33
224
80
29
225
86
27
228
90
29
222
80
22
224
78
26
223
80
23
230
98
17
242
122
20
232
106
21
225
93
24
230
112
17
245
133
15
247
138
13
245
137
11
241
131
14
242
129
16
247
139
12
248
143
9
251
147
6
249
147
6
250
143
10
249
143
16
247
140
17
245
135
16
245
136
17
243
136
15
248
142
14
248
143
11
247
145
7
244
145
8
248
144
9
245
134
7
241
125
12
233
115
18
234
113
26
229
108
27
235
115
22
243
129
23
232
112
31
214
76
35
216
74
35
219
83
30
220
82
30
217
73
32
218
73
30
218
65
31
220
69
34
209
55
31
214
59
35
237
102
44
217
65
30
218
63
32
224
84
30
231
95
26
230
92
26
229
90
28
226
82
26
220
66
30
222
65
32
227
72
31
232
83
33
236
87
31
232
91
23
236
101
20
240
108
22
236
102
27
221
95
36
216
65
32
218
67
29
219
64
28
222
67
28
224
66
30
221
59
23
228
64
29
225
62
26
227
62
27
229
66
27
230
66
25
227
62
21
228
65
24
225
58
22
226
65
22
227
72
16
229
70
21
231
71
22
226
64
17
229
67
17
234
73
23
235
81
21
237
93
20
241
98
17
240
100
16
240
106
12
246
118
8
249
122
6
249
122
5
251
122
2
251
121
2
251
121
1
251
120
1
251
120
1
251
120
0
250
121
1
250
121
1
250
120
0
251
120
1
251
117
6
251
118
5
251
121
2
251
119
5
251
117
8
252
118
8
251
119
9
250
119
6
249
120
6
249
128
8
249
137
10
249
136
11
249
122
7
251
117
5
251
118
5
252
118
3
251
117
2
251
118
1
252
118
1
252
117
1
252
117
2
252
117
2
251
117
3
251
116
7
240
102
12
245
109
11
247
110
11
243
104
11
249
113
10
249
113
9
246
106
8
252
117
2
251
117
0
251
117
0
251
116
0
251
116
0
251
117
1
251
115
0
251
114
0
251
115
0
251
114
0
251
114
0
251
115
0
251
114
0
251
114
0
251
114
0
251
114
0
250
113
0
251
114
0
251
114
0
251
114
0
252
114
1
254
114
1
254
114
1
255
114
1
253
114
1
253
114
1
253
115
1
252
115
0
252
116
0
252
116
0
252
116
0
253
116
1
252
116
0
252
115
0
253
115
0
252
117
0
251
118
0
251
117
0
252
117
0
252
117
1
252
117
0
252
119
1
249
125
1
249
126
1
250
126
1
248
126
1
249
125
1
248
137
5
248
165
10
250
175
8
250
182
6
254
195
6
252
199
6
251
203
7
251
205
9
252
219
17
251
227
54
252
231
67
251
231
66
251
221
43
251
214
21
253
208
13
246
176
6
249
167
5
249
167
5
249
167
5
250
167
4
249
167
5
248
165
6
247
166
15
247
166
15
247
165
13
247
165
14
247
165
15
247
164
15
248
165
13
248
166
13
248
170
12
250
186
13
248
188
11
251
200
14
250
204
21
251
202
7
252
196
8
244
167
10
246
162
10
249
161
9
250
161
8
250
160
4
251
160
5
250
162
5
250
163
5
251
158
7
248
130
0
250
129
0
251
128
1
237
127
12
174
101
28
90
52
25
102
32
20
84
14
9
83
14
11
115
31
20
123
48
29
108
16
6
134
59
32
103
38
21
72
46
38
47
32
27
61
38
33
75
56
34
76
59
40
67
47
31
72
53
21
66
51
26
44
31
20
75
38
22
101
42
22
73
29
17
128
59
39
138
64
40
134
58
29
149
66
35
146
68
40
111
55
29
148
65
37
141
54
26
142
55
28
186
63
30
210
74
36
137
62
28
86
44
12
156
64
35
166
58
26
196
75
39
190
69
39
148
64
32
78
49
20
93
39
23
87
30
21
65
22
11
38
11
6
45
26
13
87
65
36
88
66
32
88
67
37
75
51
34
68
46
36
78
59
37
89
60
32
223
149
38
253
168
30
253
171
34
252
168
29
251
167
35
252
170
41
250
159
23
251
151
10
252
151
16
251
151
12
251
150
13
251
145
5
252
143
2
251
144
3
251
140
3
250
135
3
251
135
3
251
136
3
252
138
2
251
137
2
251
136
3
250
135
2
249
134
3
249
134
3
248
135
3
247
130
9
247
129
11
249
131
9
236
111
14
240
112
17
242
114
22
232
100
20
225
91
24
224
80
30
227
83
34
223
77
31
228
81
35
224
74
31
224
69
33
221
65
31
223
67
33
216
62
26
221
70
30
224
75
33
220
75
30
220
77
27
225
81
29
226
76
33
220
71
28
217
75
22
227
90
26
229
102
21
239
122
19
228
102
15
232
106
20
230
100
22
231
101
23
227
96
25
230
97
30
231
102
27
229
102
22
241
122
18
244
127
18
247
130
15
246
126
16
246
126
20
236
106
29
236
99
36
228
85
38
230
78
38
226
68
34
223
63
36
221
63
33
225
74
42
220
71
44
216
61
36
219
69
41
215
62
39
211
52
36
207
48
31
220
62
42
215
58
37
214
59
36
210
58
39
205
58
41
204
60
45
204
61
44
202
59
42
202
58
41
204
56
38
210
57
37
216
63
38
209
52
30
220
65
33
223
66
28
227
78
27
232
88
24
236
95
27
231
86
24
225
83
33
220
65
32
222
68
34
222
65
33
222
64
30
225
65
35
223
59
28
225
55
30
225
55
28
227
57
30
225
55
25
226
52
24
226
54
22
227
56
25
228
59
26
228
62
26
229
60
26
231
68
27
231
65
24
232
69
22
230
69
19
237
76
23
241
88
20
238
101
13
251
125
5
251
126
3
251
126
4
251
124
8
251
122
9
251
121
4
252
121
4
252
121
4
251
121
2
251
121
1
251
120
0
250
120
1
250
120
0
250
120
1
250
120
0
251
120
1
251
121
1
251
120
1
251
120
1
251
120
1
251
120
1
251
120
0
251
121
1
251
122
2
251
123
1
250
124
2
249
127
3
250
126
2
251
121
1
252
118
0
251
118
0
251
118
0
252
117
0
252
117
0
252
118
0
252
117
0
252
117
1
251
116
0
251
118
0
251
117
0
252
116
2
250
112
5
252
116
3
247
106
7
250
111
8
250
111
7
246
106
7
252
115
2
251
116
0
251
116
0
251
115
1
251
116
1
251
116
1
251
115
1
251
115
0
251
114
0
251
114
0
251
114
0
251
114
0
251
114
0
251
114
0
252
114
0
251
114
0
251
114
0
252
114
1
253
114
1
254
114
1
253
115
1
250
116
1
248
117
1
248
117
0
250
115
0
253
114
1
254
115
1
253
115
1
252
115
0
253
116
0
253
116
0
252
116
1
248
117
0
249
117
0
250
117
0
247
143
6
252
176
9
252
175
7
251
174
7
250
174
8
251
176
7
249
176
8
253
210
36
253
219
47
253
219
52
252
219
68
253
220
75
252
219
74
250
223
77
250
226
81
250
227
84
249
227
87
252
236
101
252
240
105
252
239
107
251
240
115
254
246
132
254
246
135
253
247
133
254
247
121
254
245
125
251
237
112
249
226
78
250
224
74
250
224
73
250
223
72
251
223
71
250
221
64
250
222
76
252
236
115
252
236
118
252
235
109
252
235
110
252
235
111
252
236
110
252
236
109
252
236
104
252
235
98
252
234
97
252
234
95
250
234
94
253
239
104
249
230
83
251
231
86
252
232
93
252
231
94
252
232
92
252
229
81
249
206
24
250
205
22
250
205
21
252
203
12
254
199
6
252
191
9
252
191
9
248
186
24
194
136
43
95
43
17
104
27
16
107
22
14
97
34
27
90
34
25
98
31
17
106
38
18
111
36
14
115
42
15
93
46
25
59
42
28
52
39
30
57
36
28
70
53
29
77
62
33
65
54
29
63
51
25
57
45
25
48
40
28
43
25
22
100
36
23
71
23
12
156
68
41
131
52
22
112
51
18
148
73
42
113
59
31
92
49
20
136
57
29
148
58
31
153
54
27
191
65
34
187
69
37
120
57
28
98
43
13
175
59
31
179
56
27
197
63
31
188
60
33
170
66
34
117
47
20
120
37
23
69
16
2
66
21
6
54
19
8
28
6
3
63
44
27
81
61
35
84
66
41
86
63
41
63
42
26
82
64
37
94
64
41
211
114
27
249
129
7
250
128
5
248
122
10
237
108
15
242
116
14
243
115
14
239
101
17
230
82
16
239
101
15
240
106
17
238
104
18
236
104
19
233
98
16
236
97
18
240
105
19
233
95
14
237
99
19
239
104
20
235
96
17
237
103
18
238
101
20
233
99
16
236
101
20
237
104
19
233
99
20
229
97
14
238
111
19
244
121
14
251
132
5
250
134
3
250
134
4
249
134
6
249
133
13
243
124
13
246
126
15
248
128
16
240
114
21
232
93
31
225
79
29
223
69
32
222
67
28
224
70
34
219
63
33
219
68
35
221
68
35
224
72
34
226
73
33
230
90
32
238
107
29
245
122
28
245
122
23
248
133
15
250
136
15
251
136
17
241
117
23
246
126
22
242
119
24
236
98
29
239
103
33
234
100
31
234
93
32
225
73
34
220
55
31
219
54
32
221
55
31
222
55
29
223
55
29
222
55
33
217
49
30
217
48
31
218
52
33
219
54
32
219
56
32
218
58
33
221
63
34
223
69
36
219
68
38
216
57
37
209
54
37
212
59
41
203
53
37
211
62
44
207
61
44
206
61
44
202
63
48
199
62
50
194
59
46
196
59
47
197
61
49
190
55
44
194
56
46
198
58
48
191
55
43
192
56
42
196
58
44
196
58
45
192
56
43
191
57
44
183
56
46
220
60
24
225
70
28
226
68
31
219
58
20
226
64
30
223
62
26
222
54
25
226
57
26
226
53
25
227
57
23
228
55
23
225
56
20
227
56
22
226
54
18
228
61
20
229
61
22
228
63
21
229
63
19
233
69
21
233
67
22
233
69
21
233
74
20
238
88
19
242
95
18
244
106
17
238
98
14
234
83
18
233
79
17
239
96
9
247
109
7
247
111
8
252
119
1
252
118
3
252
119
1
252
119
0
251
119
0
251
120
1
252
120
1
252
120
1
252
120
1
253
120
1
253
120
1
253
120
1
253
120
1
253
120
1
252
121
1
250
121
1
250
121
1
251
120
1
252
119
1
252
118
0
253
119
0
252
119
0
252
119
1
251
118
0
252
118
0
251
118
0
252
118
0
251
117
0
250
117
0
248
123
1
246
124
1
245
123
1
247
123
1
247
123
1
246
122
1
246
122
1
246
122
1
245
122
1
246
123
1
248
116
1
250
116
1
252
115
1
252
115
1
251
115
1
251
116
1
251
115
1
251
114
1
251
115
1
250
115
0
251
114
1
251
114
0
250
115
0
248
117
1
246
120
1
246
121
1
246
121
1
246
123
1
246
127
2
245
127
2
245
128
2
247
158
9
253
184
8
253
184
8
249
163
8
248
141
3
249
140
3
248
140
3
248
141
3
248
141
4
248
141
6
246
146
7
251
177
11
250
179
8
249
171
5
249
178
5
250
187
2
249
188
2
250
188
3
246
191
16
246
197
20
247
204
21
247
219
42
250
231
59
250
232
62
252
243
86
254
247
100
254
246
99
254
247
103
254
247
106
253
247
110
253
246
113
253
247
115
253
246
116
252
246
119
254
249
154
254
250
169
255
250
168
254
251
165
254
248
129
254
247
122
254
247
132
255
247
133
254
247
132
254
247
133
254
246
133
255
245
130
254
245
127
254
246
128
255
245
134
255
245
133
254
245
134
253
245
136
255
245
130
255
245
127
255
245
126
255
245
121
255
245
117
254
245
115
253
242
104
249
235
79
250
234
76
246
221
47
245
218
41
248
226
63
249
225
55
250
223
35
249
224
45
254
240
92
254
239
93
254
239
91
250
223
55
251
205
4
253
205
11
250
201
24
193
148
40
120
63
28
121
31
11
126
39
15
116
40
19
102
35
14
100
38
15
123
53
26
144
63
39
140
58
34
154
73
40
121
62
37
55
41
24
58
46
30
64
48
33
68
52
32
70
57
37
67
54
32
66
48
29
50
36
21
53
43
26
42
30
22
79
35
25
70
28
17
145
66
39
129
60
32
100
54
24
130
58
33
116
63
33
101
59
26
114
58
30
129
52
24
157
54
29
172
63
36
67
24
12
36
21
10
90
43
19
171
67
35
180
70
36
167
61
30
184
66
37
156
62
37
111
35
21
72
18
10
61
20
9
60
21
10
54
17
10
37
11
8
27
8
6
65
46
27
81
61
36
86
63
38
63
42
29
88
69
41
96
65
45
214
109
27
248
115
10
239
97
12
238
91
16
233
85
19
231
81
19
232
83
19
235
85
21
232
81
20
231
80
22
229
78
22
230
77
21
230
76
24
230
76
24
229
79
20
234
91
20
237
93
19
238
96
19
236
89
19
233
87
19
233
84
20
229
75
21
225
70
26
230
78
32
225
75
23
229
84
34
226
83
31
227
83
30
227
84
25
231
94
19
234
102
21
236
107
16
243
120
14
248
125
14
247
126
12
248
127
12
248
125
13
234
106
21
225
79
27
221
74
23
226
81
30
225
78
26
225
76
31
218
64
31
221
69
34
225
72
35
220
66
30
222
67
34
218
64
33
219
69
33
220
71
33
219
70
33
220
71
30
222
72
29
221
72
26
222
68
31
220
68
27
223
67
32
218
57
29
224
62
32
225
62
34
220
56
29
223
57
35
223
55
35
220
53
35
224
57
36
225
57
37
221
53
34
221
55
37
216
53
35
221
56
34
219
54
32
222
54
33
219
51
33
214
51
33
217
55
34
215
52
31
218
56
36
219
57
38
212
53
34
213
61
42
212
62
42
215
67
44
212
66
45
202
60
44
198
59
44
197
58
44
196
58
45
190
55
44
193
56
46
189
51
41
189
52
42
196
58
47
186
51
41
189
50
41
190
56
46
186
54
45
183
52
45
189
57
50
181
57
50
225
66
28
226
68
27
229
68
30
224
60
23
229
67
31
225
64
25
228
62
27
227
56
24
228
51
23
229
56
23
230
56
23
229
55
21
229
52
21
231
53
21
230
59
21
232
62
24
230
60
22
226
51
15
232
57
20
232
59
21
230
57
20
227
54
15
232
55
19
231
55
18
229
56
16
233
67
21
238
78
22
241
86
19
250
108
15
242
97
10
247
108
8
253
118
3
244
105
5
250
114
4
253
118
1
252
118
0
252
119
0
252
118
0
252
118
0
251
120
1
248
135
4
249
149
4
249
150
4
249
151
5
249
151
4
249
151
4
248
160
7
248
162
8
249
162
7
249
161
6
249
160
6
249
159
7
249
159
6
249
159
7
249
159
6
249
161
7
249
162
7
249
161
7
249
161
7
249
160
6
252
179
8
254
188
8
254
188
7
254
188
7
254
188
8
254
189
8
254
189
7
254
188
7
254
188
8
254
186
8
252
176
6
248
162
7
245
140
3
247
140
4
248
139
4
247
124
2
249
116
1
248
117
1
246
122
2
248
155
8
249
167
8
249
166
7
249
167
10
251
178
13
254
191
12
254
190
11
254
189
10
254
192
10
255
198
8
255
198
7
253
200
12
252
202
17
250
203
17
252
205
14
251
207
14
252
213
35
252
215
45
252
216
45
253
217
23
251
219
37
253
233
94
253
234
103
252
231
82
251
228
49
252
228
47
252
228
46
253
229
44
252
229
48
251
230
55
253
239
90
252
241
89
252
240
80
252
242
80
254
248
91
254
248
93
254
247
93
254
246
90
255
246
90
255
247
92
254
247
95
254
246
98
253
247
100
253
247
99
254
246
100
254
246
100
253
246
104
254
246
107
253
246
107
253
246
108
254
247
105
254
247
104
254
247
110
255
247
125
254
246
132
254
246
128
252
242
115
255
245
124
255
245
129
255
245
129
255
244
127
254
244
123
254
249
151
255
251
160
253
248
149
254
248
149
254
247
142
254
247
140
253
245
137
253
245
132
253
246
130
253
246
129
253
246
128
253
248
126
254
248
121
255
248
126
254
246
120
251
241
104
251
239
97
249
232
78
249
228
66
248
228
66
248
225
65
251
217
45
250
203
25
187
140
39
119
52
20
122
40
19
136
60
30
128
50
19
128
51
22
167
76
44
157
63
34
150
64
35
152
66
43
151
54
31
161
64
39
147
69
47
55
39
29
71
57
42
94
64
45
93
60
41
78
55
39
51
38
27
51
32
25
59
42
33
55
41
28
52
38
30
61
36
28
63
30
21
164
79
51
136
61
34
102
51
22
122
54
27
100
55
22
89
57
19
82
50
18
115
52
26
126
48
22
156
63
37
87
41
23
67
43
19
103
53
20
167
66
36
183
70
39
162
66
37
114
50
31
98
46
36
85
30
19
62
26
18
54
33
23
46
31
24
33
22
22
33
24
20
34
27
19
50
38
30
29
18
13
69
51
36
58
39
28
82
66
39
84
57
40
208
116
24
247
130
3
249
129
7
243
123
8
251
135
8
250
133
7
250
133
8
250
134
7
250
134
8
250
133
11
248
130
8
250
129
7
247
122
8
250
127
9
250
128
9
250
127
9
251
129
10
251
128
11
250
127
12
248
123
13
251
127
15
249
122
22
233
93
23
232
86
28
226
80
19
231
84
27
231
84
26
228
80
24
229
81
25
227
64
23
225
60
20
228
62
24
224
58
21
223
57
19
225
59
20
226
64
21
225
68
20
226
70
27
227
75
30
220
67
24
222
72
28
222
71
27
225
73
29
220
64
24
223
67
30
222
63
29
222
66
29
227
71
35
221
63
32
218
62
33
218
61
33
218
61
33
218
61
34
219
60
36
218
59
33
219
59
35
219
60
34
218
59
34
218
53
30
224
58
35
222
57
35
220
57
35
223
61
40
219
57
37
219
57
37
224
61
39
222
57
36
217
52
34
221
58
37
218
54
36
216
51
30
210
48
30
217
53
30
211
49
29
214
53
32
216
53
33
218
56
35
216
55
36
215
55
36
210
55
35
214
63
41
216
66
42
214
64
41
213
63
42
208
61
45
201
60
44
198
58
45
199
62
49
193
57
46
192
55
45
196
58
48
189
53
44
187
53
44
190
55
46
194
56
46
186
52
43
187
56
46
183
53
45
185
54
48
179
58
51
232
72
24
230
69
22
229
64
23
232
68
23
233
70
25
228
65
18
232
62
19
232
61
21
227
48
15
229
55
20
231
54
20
227
52
15
229
57
18
231
60
20
230
62
19
225
53
11
232
73
18
234
75
18
234
72
15
235
81
11
243
94
16
243
94
15
240
95
12
244
101
11
246
104
13
246
103
11
246
103
13
249
108
11
251
112
7
246
108
7
250
116
5
251
117
0
252
118
1
252
118
1
253
118
1
253
119
0
251
120
0
248
121
1
249
122
1
246
138
4
252
181
8
254
192
4
251
181
7
250
172
8
250
172
9
249
172
10
252
182
8
254
191
5
254
195
3
254
194
1
255
193
1
255
191
1
254
190
1
252
196
6
252
199
8
254
195
1
254
197
2
255
197
2
255
197
1
254
196
1
254
196
0
255
196
1
254
197
1
251
187
6
249
179
7
249
179
8
249
180
8
250
180
8
250
180
8
250
179
8
250
179
7
250
178
8
253
188
8
255
194
4
255
192
4
253
185
6
253
181
6
254
183
6
254
184
4
254
191
4
254
192
1
254
193
3
244
166
8
242
163
13
241
173
17
240
172
17
241
172
17
241
174
15
254
202
9
253
205
6
253
220
42
254
224
51
254
222
41
254
224
38
253
223
38
253
242
91
253
244
115
254
245
117
251
237
92
250
237
94
255
247
133
255
247
141
255
248
140
254
249
139
254
249
141
254
249
140
255
249
134
255
249
134
254
249
139
253
248
138
251
243
127
250
243
121
249
241
97
252
247
101
253
247
105
253
246
109
252
246
110
253
247
111
252
246
113
253
247
131
253
247
141
254
247
141
253
247
139
253
247
137
254
247
137
254
246
137
254
246
137
254
248
139
254
248
139
254
247
138
254
248
138
253
248
138
253
248
143
254
249
166
252
246
155
248
237
120
249
240
112
248
237
96
248
236
90
248
233
74
248
233
72
249
232
71
247
227
63
250
235
97
251
239
119
248
234
120
251
242
136
254
250
148
254
250
151
253
252
156
253
251
155
253
251
152
253
251
146
248
237
100
246
232
77
245
232
81
253
244
117
255
247
125
248
236
98
248
233
85
247
231
82
247
230
83
248
227
74
228
190
35
93
43
10
132
51
26
139
59
28
155
80
41
151
68
33
156
69
35
152
66
33
173
72
38
129
57
36
82
33
20
136
57
32
155
53
26
125
53
36
36
23
17
63
47
35
49
35
25
19
9
5
81
66
41
83
66
41
91
63
44
71
45
38
68
45
35
42
26
25
40
25
22
38
22
17
112
53
30
107
51
24
96
52
21
105
51
20
92
56
22
79
59
21
84
52
18
112
52
25
130
51
26
134
54
29
109
51
20
117
56
21
122
59
25
135
57
25
155
57
29
164
62
33
155
63
32
161
58
34
168
61
36
121
50
25
87
51
23
76
54
30
69
50
41
79
59
44
81
61
37
88
63
45
90
69
51
86
65
47
52
36
27
73
57
31
83
57
37
205
116
27
245
132
5
244
133
14
233
124
13
246
134
10
236
122
9
246
131
8
245
125
11
244
120
11
246
124
13
244
122
11
244
117
12
237
102
15
239
106
17
235
102
19
233
92
19
230
86
22
229
81
20
231
81
23
232
81
25
228
77
20
229
80
23
230
82
21
231
85
26
225
79
18
232
83
26
230
79
23
228
75
23
231
74
22
231
61
19
227
57
18
232
61
25
228
61
20
229
62
21
231
67
24
228
63
23
226
62
23
228
67
25
227
69
26
227
72
27
226
70
28
223
66
25
227
75
29
231
81
25
229
79
23
230
83
25
236
91
28
229
76
27
222
67
26
223
65
31
221
59
32
222
59
33
224
61
33
222
57
32
220
58
29
224
61
36
217
56
31
221
57
34
219
57
33
218
55
35
218
56
36
220
57
35
219
55
33
217
54
33
220
58
38
219
58
37
218
56
35
222
59
38
223
60
38
219
56
35
218
58
34
224
63
38
224
62
33
219
52
30
219
56
33
217
53
32
221
58
37
215
54
35
218
62
40
214
60
38
215
63
41
214
64
40
213
63
41
213
64
43
211
62
45
203
58
43
194
56
43
199
61
48
198
59
47
189
53
42
192
57
46
192
56
46
187
51
41
189
53
44
191
55
46
183
49
41
189
55
44
190
59
49
180
51
45
183
58
50
232
64
23
231
64
21
232
63
23
233
65
19
233
67
22
230
65
17
235
67
19
238
76
15
239
83
14
240
88
12
242
93
12
243
94
12
242
96
10
246
104
10
248
107
10
249
108
8
250
112
4
250
112
4
250
112
4
250
113
2
249
115
1
250
115
1
249
116
1
249
117
1
250
117
2
251
117
1
252
118
1
253
118
3
253
117
3
253
117
3
253
118
2
252
118
0
253
118
0
252
118
1
252
117
0
252
116
1
249
124
4
249
147
14
249
148
12
249
151
10
249
155
6
249
155
8
245
125
5
247
106
1
248
106
1
247
106
2
247
116
4
246
126
3
249
155
8
248
158
7
248
158
6
253
183
8
254
188
5
254
197
13
253
199
17
252
181
7
249
164
4
250
164
5
250
163
5
250
163
5
250
164
4
251
164
5
250
166
5
246
154
10
244
143
12
243
143
12
246
134
7
249
125
1
249
128
0
245
130
1
243
132
2
243
133
2
244
156
10
245
173
14
246
175
15
245
179
15
252
204
23
251
206
28
251
215
50
252
218
55
252
217
53
252
217
49
252
213
38
250
211
28
251
195
14
246
163
9
247
157
10
246
157
10
247
157
6
247
158
5
247
166
7
246
168
4
246
168
4
246
168
4
242
180
31
245
220
72
255
247
135
255
247
142
255
247
136
255
247
134
253
245
123
248
237
90
249
236
90
248
236
94
249
236
93
251
235
90
251
236
87
251
236
86
251
236
86
249
236
93
254
248
129
254
248
136
255
250
148
254
249
166
255
249
172
255
249
177
255
250
176
253
246
146
254
245
136
254
245
139
254
244
137
253
243
133
254
248
165
255
248
179
255
247
184
255
248
188
255
248
191
255
248
191
254
248
191
254
248
186
254
249
183
254
250
182
254
249
181
254
249
180
254
249
183
254
248
184
255
249
182
254
250
178
254
249
167
253
247
152
254
248
149
253
243
137
252
240
124
252
242
124
252
242
124
250
238
117
252
241
114
252
244
114
252
244
119
250
244
119
249
241
108
249
241
107
253
246
116
254
247
111
254
247
102
251
241
85
250
237
76
250
236
78
250
235
80
250
235
82
249
234
83
253
241
103
254
242
98
246
206
50
158
72
19
163
71
40
142
64
35
179
81
44
148
59
33
119
55
28
150
62
33
179
70
39
114
52
33
94
55
37
145
62
32
202
73
34
147
60
34
58
42
27
70
52
30
54
41
28
30
19
16
89
68
41
74
54
30
75
55
39
47
29
29
66
48
37
63
44
33
48
32
26
27
12
10
86
48
32
72
36
21
52
27
16
91
48
24
80
52
23
77
58
23
79
52
22
93
50
22
131
60
32
125
51
22
116
56
25
127
58
25
130
62
29
153
69
40
137
54
27
147
54
26
171
67
33
146
63
34
123
56
31
118
56
28
77
48
24
32
20
12
53
35
30
69
50
34
76
57
40
71
46
37
98
76
49
87
63
40
45
30
23
61
46
28
54
34
24
125
65
25
217
120
36
141
77
28
129
68
28
192
110
47
140
69
24
181
92
27
229
109
18
240
104
16
234
107
21
198
93
33
180
78
30
176
72
30
211
92
32
166
67
27
159
67
28
176
80
34
208
97
39
230
93
23
234
93
19
235
93
22
236
93
23
233
89
18
234
87
23
233
85
19
234
87
24
231
81
21
232
74
21
232
77
23
232
70
20
232
66
22
230
62
22
231
66
21
234
72
26
231
66
23
228
61
19
232
69
25
231
67
24
228
62
22
229
64
25
231
78
26
229
72
19
230
73
25
229
71
24
227
71
23
224
67
22
226
68
23
225
63
26
226
62
29
225
59
26
226
58
30
226
58
30
225
56
30
224
53
30
222
54
29
225
55
33
218
48
26
223
53
33
221
53
31
221
53
31
221
52
32
221
52
33
220
51
31
219
50
29
220
53
33
221
53
34
219
53
32
223
57
37
222
57
35
218
53
33
223
63
36
223
65
38
217
58
31
219
55
34
220
56
32
218
53
32
219
56
35
215
55
35
218
59
37
218
62
40
219
62
42
214
59
37
216
64
42
217
65
44
208
57
41
207
59
44
198
56
44
193
55
44
194
58
48
190
56
46
189
53
44
193
55
46
188
50
43
186
52
45
188
53
44
186
52
42
188
54
45
184
54
47
180
50
45
187
59
53
240
89
12
245
95
15
246
97
12
244
98
8
245
101
8
246
102
10
247
101
9
246
104
5
249
110
3
249
112
3
250
113
3
250
114
2
251
116
2
251
117
3
251
118
3
250
124
5
251
128
8
250
121
3
251
120
4
251
120
3
251
120
3
251
121
3
250
122
3
251
123
4
250
121
5
251
117
1
252
117
2
250
110
8
237
84
11
237
83
9
246
102
11
252
112
6
252
110
6
252
108
8
246
97
6
247
96
5
252
105
2
250
105
1
250
105
0
250
104
0
250
104
1
251
104
1
251
104
1
251
104
0
251
104
0
251
104
0
251
104
1
252
104
1
250
105
0
250
105
1
250
107
1
247
121
2
247
125
3
246
125
3
247
125
2
249
129
2
252
126
0
252
125
1
249
127
0
248
128
0
248
128
0
249
128
0
248
130
0
246
135
1
241
136
2
245
173
20
246
186
27
248
190
28
248
195
31
251
209
50
252
215
60
252
212
55
248
194
37
249
188
32
250
186
29
250
186
29
250
189
29
250
189
35
250
189
45
249
189
42
249
191
40
250
197
34
251
206
25
254
217
24
250
196
8
249
185
9
249
196
29
248
197
32
249
199
31
249
203
29
252
221
41
254
234
65
254
234
71
254
235
71
254
241
94
255
247
113
254
245
110
250
231
83
249
225
56
250
229
76
252
235
91
251
233
70
250
231
67
250
230
65
251
222
37
254
216
5
254
219
5
254
219
5
253
219
4
253
221
6
251
224
30
249
225
35
250
225
44
249
226
54
249
225
60
249
228
67
250
228
68
251
226
39
251
227
20
250
229
25
250
229
25
249
228
32
247
229
62
247
231
83
250
239
106
251
244
129
254
248
146
253
248
150
254
248
159
253
249
169
254
249
170
254
250
167
255
249
167
255
249
168
255
249
170
255
247
165
255
247
164
254
248
166
254
247
166
255
247
165
255
247
162
255
247
157
255
247
155
255
246
151
255
247
151
255
247
149
255
247
147
255
248
145
255
249
145
255
249
144
255
249
146
254
245
138
254
241
116
253
235
83
253
234
68
254
233
61
254
233
65
254
236
85
253
231
70
253
230
71
253
229
73
254
228
74
254
228
70
246
201
44
170
95
37
117
51
27
121
59
31
185
80
43
131
59
33
105
62
29
172
72
32
191
75
34
119
57
31
104
62
38
99
48
25
141
61
32
94
41
23
49
34
22
52
36
22
44
32
26
52
36
30
88
55
35
83
53
29
78
57
38
60
40
39
74
53
37
81
53
25
72
52
33
38
28
23
66
44
26
71
41
25
36
18
12
54
30
20
35
24
12
74
59
29
78
54
27
94
56
25
105
56
25
108
59
24
96
57
23
90
61
22
88
63
25
91
57
26
89
51
21
115
58
29
149
67
37
138
61
36
137
57
31
131
61
30
83
59
31
70
54
32
69
50
39
80
60
39
80
65
41
79
61
41
86
66
44
29
20
11
18
11
8
67
53
32
55
42
31
36
17
18
129
80
41
77
52
35
71
51
39
67
42
29
60
41
35
84
53
32
219
118
24
246
121
6
229
121
24
79
41
28
37
17
16
55
28
22
127
72
37
70
42
30
75
51
39
52
33
25
107
54
25
231
112
18
243
114
6
238
108
14
218
100
26
205
93
25
212
91
25
232
99
24
214
91
29
218
89
28
236
90
25
232
76
19
233
74
19
232
69
21
228
62
17
231
67
22
232
66
21
230
67
22
228
63
17
232
69
22
234
72
23
229
64
17
230
65
22
228
67
19
229
68
19
230
69
21
228
60
21
225
59
21
227
60
22
227
61
23
227
54
29
223
49
27
225
52
26
228
56
29
225
57
27
221
49
23
224
49
26
224
50
27
223
48
27
221
45
24
226
49
29
226
50
29
226
52
30
223
47
26
223
47
28
226
50
32
224
49
32
221
47
29
223
50
30
222
50
28
225
54
32
225
55
32
221
54
29
225
59
32
222
55
34
216
52
28
224
60
37
222
59
34
216
51
30
220
55
33
221
55
33
215
50
29
219
57
34
220
58
36
215
55
31
215
56
34
214
56
37
210
55
37
208
56
40
205
57
44
196
52
40
190
54
44
193
55
45
194
51
44
190
49
41
194
54
45
186
49
41
186
50
42
184
51
44
181
51
43
179
49
43
186
54
50
179
56
51
242
92
18
242
90
19
239
83
16
241
88
13
241
88
13
240
83
13
243
91
13
244
94
12
243
92
11
241
92
9
240
89
8
243
93
14
240
85
11
237
79
12
235
79
14
238
86
16
241
90
18
240
88
18
241
89
18
241
92
15
242
93
16
244
95
10
244
97
12
243
97
8
244
95
9
243
94
10
242
91
10
244
94
13
245
95
18
244
95
14
240
84
17
240
79
18
237
73
13
238
74
11
238
75
10
248
93
6
251
103
1
251
102
0
251
103
1
251
103
1
251
102
1
251
103
1
251
104
1
251
104
0
251
104
1
252
104
0
252
104
1
251
104
0
251
104
0
251
105
0
249
110
2
246
123
5
246
125
4
246
124
5
244
127
6
249
150
11
250
151
8
248
152
7
253
188
13
253
194
11
252
190
14
251
191
15
250
194
18
252
199
27
247
175
20
247
177
16
252
192
16
251
191
13
252
192
14
247
167
7
249
158
6
250
156
5
251
148
2
252
159
6
251
161
6
252
160
5
252
161
3
252
160
4
251
163
9
249
177
34
249
179
35
247
180
36
247
180
33
246
182
18
254
211
17
253
214
20
251
217
38
250
216
40
250
216
38
250
217
36
250
218
33
250
219
38
250
218
40
250
218
40
250
217
40
248
204
25
250
201
16
252
193
4
248
182
2
247
186
5
249
204
13
249
205
9
249
205
9
249
205
6
250
206
3
250
208
3
250
210
3
250
210
3
249
211
4
253
220
3
254
224
2
253
226
5
252
235
58
251
240
88
251
240
90
250
239
90
251
240
108
251
238
108
250
238
106
254
246
118
255
246
119
254
247
130
254
248
137
254
248
141
254
248
145
254
248
148
253
246
146
254
246
140
253
247
140
253
247
143
250
239
106
248
223
55
249
222
62
249
223
77
249
221
70
247
210
40
247
208
33
248
208
37
249
206
42
246
185
45
246
177
47
245
175
46
246
174
46
247
176
46
246
175
46
245
174
45
246
176
45
245
169
49
242
155
55
242
157
53
242
152
53
243
143
41
246
139
13
248
138
6
249
138
5
247
137
4
246
137
6
246
136
11
247
137
6
249
139
5
250
141
6
249
140
5
247
139
5
241
139
17
168
79
33
118
55
32
118
56
30
168
66
36
123
51
25
97
48
18
130
54
26
144
53
29
140
49
25
175
69
44
176
60
34
192
73
40
142
64
40
80
60
37
76
58
36
76
54
39
78
50
33
78
54
34
44
33
15
55
42
28
45
28
22
52
34
27
50
30
20
45
30
23
19
11
9
22
13
7
32
20
14
19
9
9
2
1
1
20
16
12
31
23
15
48
34
25
65
41
26
65
38
23
78
55
29
80
62
23
81
65
20
83
60
23
85
57
23
88
52
22
111
53
23
159
67
34
184
68
34
133
58
34
120
62
32
107
66
38
89
62
41
70
48
43
83
59
48
90
71
48
80
60
42
73
56
45
13
8
6
1
0
0
65
50
31
66
48
37
41
24
29
113
79
57
41
24
22
42
29
26
71
55
47
58
38
38
60
28
12
223
120
24
249
125
4
231
123
25
80
40
26
12
4
10
22
12
13
76
55
43
61
39
32
87
63
42
60
42
32
89
47
28
226
113
21
242
114
6
209
101
26
69
29
17
36
17
20
78
32
16
173
95
46
46
17
17
72
35
26
178
80
30
231
88
25
232
84
24
233
75
20
232
67
20
232
67
24
230
65
20
234
71
25
232
65
22
232
65
24
233
65
25
233
66
24
231
62
23
231
59
24
230
57
24
230
61
26
228
54
23
229
53
25
226
46
22
225
46
23
224
46
24
223
45
23
223
46
23
225
48
22
228
59
22
226
58
22
228
62
25
233
74
19
233
72
22
234
73
22
226
61
20
221
50
17
225
55
21
227
58
23
225
57
21
228
63
19
230
68
24
230
71
18
236
81
25
233
75
26
229
73
26
230
69
32
226
61
31
223
54
28
224
55
33
224
57
29
224
57
31
220
54
28
222
55
31
221
56
30
222
56
28
224
58
32
222
63
24
229
69
29
223
63
30
223
61
28
224
63
28
225
69
32
219
61
26
221
62
30
218
59
25
222
65
30
222
63
27
213
52
26
215
54
26
220
63
24
222
65
24
223
68
24
219
65
27
203
51
28
200
56
38
196
55
38
199
57
42
227
34
6
227
42
11
231
48
16
229
43
13
229
43
14
230
44
15
229
43
13
228
45
14
229
48
14
230
53
15
232
52
16
229
48
12
231
49
17
223
33
5
225
34
9
225
32
7
227
36
8
227
42
12
230
46
14
230
44
12
229
45
11
230
47
16
228
48
14
229
48
16
229
45
14
230
48
16
230
46
14
231
45
14
228
42
13
231
44
16
232
48
14
232
55
12
252
97
10
252
100
4
251
101
2
251
102
0
252
102
1
251
103
1
251
102
0
251
102
0
251
102
2
252
101
3
251
102
1
251
102
1
252
103
1
252
103
2
253
102
5
254
100
5
253
100
4
252
101
3
247
112
3
251
159
17
250
163
13
251
163
13
249
152
14
247
125
7
247
124
7
248
122
9
247
124
8
248
123
7
245
114
1
248
135
6
247
136
5
248
134
6
249
111
3
250
108
3
251
129
5
250
132
5
250
132
5
250
128
6
251
124
6
250
122
5
250
123
5
247
132
8
246
136
9
246
135
8
246
135
6
246
133
6
245
137
12
243
147
30
244
148
29
244
148
28
245
146
24
248
145
13
249
149
5
251
157
6
247
147
9
240
132
10
248
173
15
254
188
6
254
188
5
254
188
6
254
187
6
254
188
7
254
188
6
255
188
6
254
180
6
254
178
6
254
178
8
253
181
10
252
184
9
252
184
8
251
186
6
251
191
4
253
204
7
252
204
7
252
203
7
252
198
3
251
197
4
253
202
4
252
204
5
248
210
13
246
212
36
249
233
82
249
235
87
247
231
79
253
242
122
252
241
127
252
240
120
252
240
113
252
239
110
251
232
91
250
220
57
251
220
58
252
220
62
251
220
63
251
221
62
250
221
59
250
221
61
251
222
62
251
221
51
252
210
8
254
207
2
254
206
1
253
206
0
253
207
0
253
207
0
253
201
5
243
169
8
248
158
9
248
154
11
251
160
15
251
117
3
253
116
2
252
116
1
247
127
11
244
121
7
248
122
9
253
111
1
254
112
0
253
111
1
252
110
0
252
110
0
252
111
1
254
112
1
254
115
1
253
116
1
253
116
1
253
117
0
252
117
0
252
117
0
252
117
0
251
119
0
249
124
8
191
90
28
136
57
25
133
59
29
157
60
29
187
83
48
193
85
40
191
83
47
182
60
28
197
85
42
201
88
38
208
87
35
214
93
41
164
80
37
92
62
37
84
57
32
87
59
50
102
62
50
82
51
31
70
52
27
57
42
24
56
38
30
65
45
34
40
25
28
55
39
29
36
26
16
2
3
3
23
12
13
25
14
13
2
2
1
1
1
1
17
12
12
35
23
19
52
38
28
58
40
28
65
47
23
79
66
30
80
60
20
92
58
24
100
58
26
95
54
22
110
50
21
156
60
32
193
70
36
153
61
34
119
57
28
103
57
32
88
60
41
79
59
51
80
61
50
85
66
39
76
57
38
69
51
43
12
8
7
2
1
2
58
47
33
47
30
23
45
28
30
48
31
30
63
43
34
69
49
34
49
29
25
53
33
29
76
47
30
212
117
35
221
113
22
199
109
35
76
45
32
20
8
10
55
38
32
62
40
32
77
51
37
84
59
39
83
59
39
113
68
36
232
116
23
234
105
9
212
101
25
83
50
38
30
22
25
44
30
33
52
31
31
51
33
40
62
44
44
66
33
24
116
58
33
127
56
26
229
87
28
238
78
20
233
73
22
230
71
17
231
71
21
231
62
18
230
62
14
233
66
16
231
67
16
231
69
15
231
70
13
237
77
20
231
69
16
229
67
14
233
71
18
230
69
17
230
69
15
231
70
17
239
88
16
241
91
16
243
96
13
248
107
9
249
108
9
248
108
8
250
111
5
250
112
6
250
112
6
250
109
11
251
108
15
251
108
16
251
104
14
251
105
15
243
93
15
240
86
19
233
73
19
236
74
25
230
67
23
229
62
24
223
50
22
222
47
25
222
50
23
227
56
28
229
66
25
238
84
25
240
90
22
243
98
19
246
100
17
247
100
18
243
93
20
239
89
21
239
86
22
239
84
24
239
86
25
233
79
25
232
77
24
233
76
25
233
76
26
233
78
26
234
79
30
231
76
26
233
76
27
235
77
24
234
78
23
235
78
23
233
72
21
234
69
22
231
68
19
241
89
22
238
89
21
238
93
27
227
32
7
231
48
18
233
52
20
230
46
15
231
46
16
233
49
18
231
49
18
232
49
15
233
53
17
233
57
17
235
60
19
231
55
13
233
55
19
232
56
19
231
48
16
229
45
14
229
41
13
231
51
16
233
51
18
232
49
14
234
46
16
233
47
16
230
44
13
232
46
18
232
48
17
229
46
14
232
52
17
233
51
17
232
50
11
236
57
14
239
71
13
247
85
9
251
99
3
251
100
1
251
100
1
252
100
1
251
101
1
251
101
1
251
100
0
252
100
1
249
94
7
234
63
8
243
84
9
241
84
8
242
82
8
242
78
12
234
61
10
237
64
6
239
65
7
237
68
7
251
93
4
249
94
1
249
95
1
249
95
1
250
95
1
253
94
1
249
89
4
244
71
6
244
64
5
244
67
4
248
81
7
246
85
4
250
92
1
251
92
1
252
92
1
252
91
0
252
92
1
252
92
1
253
93
1
253
93
1
254
93
1
253
93
1
253
93
1
251
100
3
251
107
4
251
116
6
250
116
6
250
115
5
250
114
5
250
113
5
250
112
4
251
112
5
251
106
3
252
98
2
251
94
2
250
93
1
249
94
1
246
113
12
244
121
10
245
119
7
244
118
7
243
117
7
241
115
7
240
116
6
239
121
5
240
120
6
240
102
0
244
101
1
246
100
1
248
99
0
249
100
0
248
100
1
247
122
5
249
145
8
249
148
8
249
148
7
249
148
7
249
147
7
249
146
7
249
147
8
247
149
8
252
186
14
252
192
15
251
192
22
251
194
23
250
193
16
251
197
17
252
199
16
252
200
12
253
203
9
252
206
7
252
208
3
254
209
2
254
210
2
255
211
2
255
211
3
254
211
3
254
212
3
254
211
2
255
211
2
254
212
2
255
211
3
254
208
3
254
206
1
253
206
1
253
205
1
253
206
1
250
185
5
247
153
6
244
142
6
246
133
6
249
122
2
254
116
2
254
116
3
254
116
2
253
114
1
251
112
1
250
111
1
251
109
1
252
110
0
252
110
0
253
110
1
252
110
1
252
111
1
254
113
1
255
115
2
254
116
1
254
118
1
254
117
0
252
117
1
251
116
0
251
117
1
250
119
1
248
125
18
181
74
30
203
83
43
209
78
42
205
78
38
157
69
36
127
60
30
120
58
31
155
69
41
122
60
29
111
56
25
188
73
31
191
62
27
170
84
40
89
63
32
79
57
29
83
58
41
95
58
43
110
59
38
112
62
40
62
40
29
47
31
26
65
48
35
42
29
26
46
32
23
42
32
27
2
3
3
2
4
2
2
3
3
1
2
2
2
1
2
22
15
14
36
20
17
55
37
23
67
51
24
72
56
21
75
60
23
81
60
23
87
58
24
94
58
26
96
59
28
98
57
28
131
59
28
184
68
35
178
67
35
128
62
31
93
63
34
78
54
34
66
45
39
85
63
50
86
70
45
84
66
45
65
48
43
36
27
25
23
16
14
49
37
28
52
36
31
49
34
32
51
34
30
58
43
37
74
58
43
65
46
40
64
43
35
75
53
33
83
48
25
64
31
23
65
34
28
66
46
37
17
6
6
56
39
33
53
32
32
68
43
36
75
46
47
82
59
45
105
63
30
194
101
31
189
96
28
172
91
33
76
50
39
41
30
34
44
31
33
55
36
35
57
39
40
74
57
49
49
36
34
45
30
29
51
17
12
224
96
30
241
93
12
239
90
14
244
99
14
242
93
14
247
100
8
250
106
7
250
106
5
250
107
5
250
108
4
249
108
4
249
109
4
249
109
4
249
110
5
249
110
5
249
111
5
249
111
4
249
111
4
248
112
2
248
111
1
248
111
2
248
109
2
250
109
2
249
110
2
250
112
3
250
112
4
251
112
6
244
95
14
239
83
17
241
84
20
236
79
16
237
87
14
249
106
13
242
94
12
239
83
20
241
86
21
232
74
16
232
65
19
228
64
19
228
66
18
237
84
20
238
87
21
235
80
19
228
66
20
229
69
25
230
73
21
228
71
23
232
73
25
232
71
23
232
70
27
232
70
29
231
69
27
230
68
29
225
63
28
226
61
30
227
57
27
218
53
27
216
50
31
216
49
27
214
49
29
221
47
24
221
48
24
220
48
24
223
46
23
220
47
25
224
52
25
224
48
22
225
52
22
226
56
24
223
57
32
225
30
6
226
30
7
227
33
9
229
43
15
227
40
12
227
42
12
228
42
12
228
43
12
230
50
15
229
50
14
231
53
17
227
50
9
232
54
18
230
54
14
229
47
13
231
53
16
232
50
15
233
55
17
233
52
16
234
55
16
233
52
16
234
50
16
229
46
11
231
48
14
232
47
14
229
45
11
232
56
16
239
64
17
246
82
14
249
91
11
249
94
6
251
99
2
252
100
2
252
100
1
252
100
1
252
99
1
252
100
1
253
100
1
252
100
1
252
99
1
252
98
3
252
93
7
252
93
7
252
91
5
252
90
6
252
90
6
252
90
5
253
93
4
252
93
2
252
92
1
252
92
1
252
92
1
251
92
1
251
92
1
252
93
1
252
92
1
252
92
1
252
91
2
251
86
5
249
79
4
249
79
5
249
83
4
251
91
1
251
91
0
251
91
0
251
91
1
251
91
1
251
90
1
253
90
0
253
90
0
254
91
0
254
91
1
252
91
0
252
92
1
253
92
1
252
92
1
253
92
1
253
92
1
253
92
1
253
93
2
252
92
1
252
92
1
253
92
1
253
92
1
253
92
1
253
91
1
252
91
1
252
92
0
252
93
1
252
92
1
252
92
1
252
91
1
246
109
12
244
122
18
245
140
23
245
143
21
245
143
21
246
142
20
246
117
12
253
92
1
252
92
1
252
92
0
252
94
1
252
95
0
252
95
0
253
95
1
253
95
1
253
96
0
253
97
1
253
97
1
252
97
1
247
109
3
246
110
3
246
111
3
245
113
3
244
114
3
244
118
4
245
123
4
246
127
4
246
129
4
245
151
11
242
147
5
241
160
9
240
166
9
244
178
13
244
179
12
250
200
7
254
210
3
254
209
2
254
211
3
253
207
6
238
180
11
238
178
13
238
180
14
235
171
15
243
190
31
244
196
30
241
182
39
237
153
44
240
153
42
242
153
40
244
154
39
247
155
29
248
152
10
249
158
8
247
166
35
244
173
68
244
171
68
243
168
58
244
166
53
245
165
48
246
139
9
248
136
6
248
137
7
249
132
6
247
119
1
246
121
1
247
128
2
240
120
13
224
109
18
224
111
15
228
119
16
210
108
15
227
127
29
200
86
30
202
78
39
208
75
36
208
92
44
105
53
27
74
43
28
50
27
19
94
48
33
83
56
38
67
42
27
160
59
33
177
58
31
149
63
37
60
41
29
72
49
38
99
63
49
96
58
43
97
50
29
101
53
35
69
51
31
71
54
27
65
51
28
59
44
33
53
43
35
50
41
32
1
1
0
1
1
1
0
1
1
1
1
1
1
2
2
20
11
14
51
29
26
57
35
21
71
54
26
64
49
26
64
48
28
75
57
29
83
55
29
102
61
39
76
46
29
67
46
23
133
63
31
203
81
39
183
76
38
104
61
29
82
65
31
77
59
30
80
59
41
86
65
51
86
70
48
81
62
51
59
41
41
47
33
28
35
24
21
26
18
20
14
7
10
46
32
26
45
30
27
50
36
31
69
53
42
65
46
40
60
39
33
72
52
35
57
39
26
31
18
20
54
33
33
56
37
33
14
7
8
51
37
31
47
30
29
67
43
39
70
46
44
82
60
47
70
50
33
34
13
10
48
29
28
118
77
49
69
47
39
37
27
31
46
32
34
51
34
36
46
29
34
71
54
48
56
42
41
38
24
31
74
39
31
231
110
23
249
109
2
248
109
2
247
109
2
248
109
2
249
107
2
249
108
2
250
108
3
250
109
2
249
109
2
249
110
1
248
110
1
247
111
2
247
110
2
247
111
3
248
110
1
248
110
1
248
111
1
249
111
1
249
111
1
249
111
1
250
111
1
249
109
4
246
100
9
246
99
7
239
86
12
243
92
15
237
80
19
240
82
21
240
81
22
243
87
21
240
86
22
240
91
18
240
93
12
241
91
19
244
94
21
248
104
17
250
106
14
249
107
13
249
110
10
249
110
10
249
110
9
249
109
11
247
102
16
237
87
16
240
87
20
233
76
23
230
66
24
231
64
26
230
65
28
230
65
31
224
55
23
226
60
31
216
49
30
211
50
35
209
51
35
206
52
39
207
52
39
209
50
36
210
51
37
212
50
35
209
52
36
216
51
32
217
50
31
211
51
35
217
53
30
220
51
30
220
52
32
215
53
37
215
57
41
226
30
8
225
30
8
226
30
8
226
30
7
227
31
6
226
33
8
223
30
5
223
30
5
226
35
7
229
43
11
234
49
15
232
53
14
235
57
20
231
53
14
235
56
17
237
68
19
238
68
17
237
68
17
239
67
18
240
69
17
241
75
18
242
74
18
241
76
18
241
74
14
242
79
16
245
82
14
243
79
13
243
78
14
246
83
13
243
83
14
241
81
9
251
98
7
250
97
5
251
98
5
251
99
4
252
96
6
251
97
5
252
98
1
252
98
1
252
98
1
253
97
0
253
96
1
253
96
1
253
95
1
253
94
1
253
94
0
253
94
2
252
94
1
253
94
1
252
93
1
252
93
1
251
93
1
252
93
1
252
92
1
252
93
1
252
92
1
252
92
1
253
91
1
253
91
1
253
89
0
252
90
0
252
90
0
251
90
0
251
91
0
251
91
0
251
91
0
252
91
0
252
90
0
253
90
0
253
90
0
253
90
0
253
90
0
252
91
0
252
92
1
253
92
1
252
92
1
253
92
1
253
92
1
253
92
1
253
92
1
253
92
1
253
92
1
253
92
1
253
92
1
253
92
1
252
92
1
252
92
1
251
92
0
251
92
1
252
91
1
252
92
1
252
91
1
251
91
0
252
91
0
252
92
0
251
91
1
251
92
1
251
93
1
252
92
1
252
92
1
252
92
1
253
93
1
253
93
1
253
94
1
253
94
0
253
94
0
253
95
1
253
96
0
253
97
1
253
96
1
253
96
2
253
97
1
253
97
1
252
97
1
251
99
1
246
102
1
243
133
21
242
136
20
245
159
20
246
172
19
248
185
24
243
183
25
252
212
32
253
219
26
252
221
36
251
227
68
251
228
68
251
228
66
251
228
63
251
228
66
252
229
71
254
230
77
254
233
87
255
235
101
253
236
104
252
238
69
254
236
44
254
232
51
253
231
55
253
229
51
253
227
48
254
226
46
253
225
34
253
223
10
254
222
3
252
221
25
249
213
51
249
211
51
249
209
41
247
204
33
247
202
29
244
176
16
241
154
16
242
158
20
244
155
19
244
146
20
244
152
21
244
163
22
179
111
26
93
48
28
105
62
31
123
81
34
84
57
32
152
94
36
180
67
19
213
70
40
206
72
35
205
92
41
144
65
38
110
56
35
68
52
30
77
64
38
77
60
37
55
35
20
145
62
34
160
58
30
133
57
35
36
22
23
53
35
32
77
52
41
68
43
29
109
63
36
123
60
36
90
57
36
68
48
26
84
62
41
70
49
37
58
44
37
51
39
32
26
15
15
11
6
5
46
31
22
56
42
30
10
6
5
39
27
24
76
56
34
72
51
31
49
35
25
41
27
23
59
40
32
70
52
36
68
51
30
46
33
27
40
21
12
84
54
29
129
58
26
191
73
36
187
76
39
111
61
30
81
58
34
72
52
35
76
57
41
77
60
54
80
62
48
59
42
36
52
35
41
17
10
19
17
10
15
51
38
36
18
9
13
38
27
22
52
38
28
65
50
32
64
51
38
74
54
38
61
40
32
78
58
45
56
40
32
40
27
33
30
16
31
49
34
34
12
6
10
35
24
27
47
30
29
56
38
30
74
56
46
71
56
42
70
56
35
28
19
18
23
13
19
36
20
17
60
42
47
37
27
35
32
22
30
32
22
30
28
19
29
63
50
49
56
43
41
45
32
36
57
22
13
234
111
23
251
111
1
249
110
2
249
109
1
250
108
2
250
108
3
251
106
5
251
106
6
250
107
5
250
108
5
251
109
5
248
109
5
249
107
7
249
109
6
249
109
5
250
109
5
250
108
6
249
106
7
250
108
7
251
109
5
251
109
6
250
111
5
250
107
10
242
91
13
250
99
13
247
95
14
247
98
13
242
91
15
239
82
18
238
78
24
230
57
21
228
54
24
223
52
25
221
50
23
224
52
25
221
50
22
224
55
22
227
66
23
225
64
21
236
84
23
229
72
23
223
66
22
226
71
24
226
71
23
224
69
24
221
68
27
220
61
25
222
59
28
219
53
28
214
47
26
213
50
32
209
49
34
204
51
37
206
50
38
202
50
39
202
53
43
196
50
41
200
52
41
200
53
43
197
51
40
194
51
43
189
54
46
188
53
44
185
51
42
183
52
46
185
53
45
189
52
45
187
52
44
192
56
48
182
57
51
226
30
8
222
31
9
218
30
9
224
29
9
224
31
10
223
34
12
221
31
8
220
33
12
217
38
16
214
40
16
214
45
20
215
50
22
208
41
17
210
43
17
213
47
20
210
46
18
215
47
15
228
55
19
232
59
22
228
50
14
231
52
15
238
64
18
241
73
17
242
80
14
244
82
14
244
81
12
245
86
11
246
89
7
251
95
9
244
87
8
248
91
10
247
90
10
240
85
7
241
85
8
250
94
9
243
82
9
241
84
6
252
98
2
252
97
3
253
97
4
253
96
5
253
95
5
254
94
6
253
94
5
253
93
5
253
94
5
253
92
4
253
92
5
253
92
4
253
91
4
252
91
2
252
92
1
252
93
1
253
92
1
252
92
1
249
87
4
248
87
4
252
91
1
252
91
1
253
90
0
253
90
0
252
90
1
251
90
1
251
90
1
251
90
0
250
90
0
251
90
0
251
90
0
253
89
0
253
90
0
253
90
0
253
90
0
253
91
0
252
92
1
252
92
1
252
93
1
252
92
1
252
92
1
252
92
1
253
91
1
252
91
0
252
92
1
252
91
0
252
92
1
252
92
0
251
92
0
251
92
0
251
92
0
251
92
1
253
91
0
253
91
0
253
91
0
252
90
0
253
89
0
253
90
0
253
90
0
253
90
0
252
90
0
251
91
1
252
92
1
253
92
1
253
92
1
252
93
1
252
93
1
253
94
1
252
95
0
248
101
1
249
148
17
248
154
13
247
155
15
247
157
15
247
165
18
248
168
16
247
170
12
246
171
11
247
174
12
244
176
11
242
179
12
242
191
24
244
207
41
246
213
46
246
215
48
246
217
48
246
217
46
248
222
34
250
230
39
251
230
37
250
227
36
251
225
33
250
225
35
250
228
47
250
234
64
250
235
67
250
235
67
250
235
63
251
233
52
251
226
40
237
191
30
231
170
21
232
165
15
231
164
13
233
167
12
232
162
6
249
204
6
251
208
1
251
201
3
253
199
5
253
191
9
250
181
10
251
185
12
251
185
11
249
178
14
249
173
15
250
176
17
248
148
13
249
134
12
246
130
15
212
100
15
156
72
31
103
45
29
69
42
28
75
47
34
63
39
22
149
93
47
203
87
39
203
63
27
198
66
36
208
96
45
165
68
33
115
56
31
77
60
29
82
66
32
61
44
31
63
40
28
139
61
35
149
61
38
75
34
22
30
19
17
41
29
25
48
36
27
41
28
15
121
70
38
140
63
33
113
65
43
103
68
49
95
67
51
64
41
37
68
46
34
71
47
30
47
28
24
24
15
12
70
49
32
68
50
30
12
5
5
48
31
29
84
63
38
69
48
29
52
30
29
40
25
22
92
63
39
92
64
35
75
58
32
32
23
14
12
5
3
72
50
29
121
58
26
150
61
27
146
68
31
90
58
28
87
65
42
75
52
38
66
43
36
77
57
56
75
58
44
65
50
41
35
24
28
8
5
10
41
32
31
50
35
34
48
33
33
42
30
31
51
36
35
63
46
37
74
59
45
77
58
38
77
56
40
74
55
40
50
37
28
30
25
29
17
12
22
2
3
10
9
5
7
34
24
24
24
15
17
35
23
22
71
52
51
68
53
44
72
56
40
47
32
32
61
41
43
46
30
34
46
29
41
17
9
20
10
5
18
35
26
35
44
30
36
64
50
48
64
50
48
37
24
29
60
26
18
233
110
25
252
110
4
252
110
10
236
87
9
238
91
11
243
92
14
239
83
14
239
87
14
242
89
17
243
91
18
250
98
17
236
79
18
230
64
19
232
69
20
233
73
21
230
67
19
225
58
18
227
60
23
220
55
19
217
55
18
217
56
20
217
55
17
216
58
23
218
61
22
225
70
23
225
71
23
224
69
23
225
70
21
225
67
23
222
66
30
219
53
30
218
51
30
216
49
31
218
52
33
217
49
32
215
48
31
215
48
34
211
47
33
207
48
36
206
50
38
194
49
41
187
49
44
193
52
45
191
50
44
187
51
47
194
57
49
189
53
47
184
51
46
186
53
45
190
51
41
189
53
45
174
52
48
175
54
50
171
54
49
175
55
49
172
53
49
170
54
50
173
53
49
172
54
50
169
53
48
169
54
51
164
52
50
162
52
50
168
55
51
163
52
50
164
51
50
171
56
54
166
52
50
167
52
50
166
56
53
228
36
9
233
54
19
227
43
12
230
46
16
226
39
9
230
55
17
231
59
20
221
38
10
218
39
12
216
44
16
213
42
18
206
36
16
204
35
16
211
40
17
212
43
15
215
53
18
217
54
18
223
59
20
226
59
18
224
53
15
230
60
20
231
60
18
233
57
13
237
69
17
235
67
15
235
65
13
240
73
15
239
72
11
244
76
14
240
72
11
241
76
12
246
86
11
248
91
11
247
90
8
246
87
11
247
88
11
247
88
11
248
88
8
245
82
11
243
75
14
239
64
15
237
59
14
235
54
11
236
55
9
238
57
12
234
50
8
238
56
9
241
69
11
238
61
7
245
74
8
248
83
6
253
91
2
252
93
2
252
93
1
253
92
2
253
92
3
252
92
2
253
92
1
252
91
1
253
90
1
253
90
0
251
90
0
251
90
0
251
90
0
251
90
0
251
90
1
251
91
0
253
90
0
254
90
1
252
89
3
252
90
0
253
90
0
251
91
0
252
91
1
252
91
0
251
92
1
252
91
1
252
92
1
252
91
0
252
91
0
253
90
0
253
90
0
252
90
0
252
90
0
251
90
0
252
91
0
251
91
0
252
91
0
251
91
0
253
90
0
252
90
0
253
90
0
251
91
0
253
90
0
251
91
0
252
90
0
252
91
0
252
91
0
250
95
2
250
117
12
250
93
2
247
107
8
247
127
14
247
130
13
245
136
15
249
154
17
247
155
16
244
163
16
244
170
13
243
171
11
244
174
12
244
180
11
247
196
7
254
213
3
252
214
1
253
215
1
253
213
1
252
213
2
251
233
44
254
247
66
254
248
64
255
248
66
253
246
85
253
250
148
253
248
153
253
248
149
253
247
146
254
247
144
253
245
130
253
245
124
252
243
96
252
237
26
254
237
26
254
238
28
253
239
27
254
240
28
254
240
27
253
235
18
253
229
13
246
209
12
249
207
12
250
208
12
252
200
7
252
191
6
252
184
8
247
171
8
248
165
14
242
108
4
250
94
1
249
94
0
249
94
0
248
92
0
246
93
0
246
94
0
247
96
1
248
98
1
231
101
16
108
53
17
122
55
29
129
62
29
88
63
32
80
58
34
81
61
36
103
55
28
163
60
30
191
75
36
163
63
30
154
60
36
142
53
35
122
56
38
83
60
35
89
68
49
73
46
39
63
41
32
52
26
17
64
35
23
61
39
26
56
37
28
51
33
25
57
42
27
42
28
17
123
64
37
143
65
37
90
56
33
82
58
34
94
69
46
62
41
33
63
46
27
88
70
36
59
45
31
49
35
25
95
59
40
89
64
42
70
50
39
68
46
48
91
66
44
82
56
35
75
52
36
74
57
33
83
62
31
95
64
34
87
62
28
78
59
31
36
23
12
79
58
29
120
65
31
151
63
30
142
65
30
84
54
27
64
48
26
66
48
30
76
54
41
79
60
51
72
55
42
59
41
37
50
34
35
18
12
15
5
4
6
46
33
33
43
26
26
23
13
15
34
23
20
61
41
36
58
37
32
69
50
36
44
27
25
75
58
46
66
50
42
43
28
30
46
32
39
28
20
21
2
1
1
22
15
14
39
27
24
46
31
26
67
45
41
80
57
48
81
62
49
46
32
30
61
43
42
58
43
41
21
12
24
10
7
17
17
10
23
39
26
33
43
29
31
68
56
49
56
47
44
30
21
27
47
20
19
223
90
28
241
80
12
236
70
15
236
64
18
237
71
17
235
70
19
238
74
17
237
76
17
222
49
10
224
49
15
219
41
12
220
39
16
220
37
20
219
36
21
219
36
21
218
37
22
218
38
23
214
38
26
208
40
29
208
42
32
203
41
33
206
42
30
202
44
33
206
44
32
208
44
32
207
45
32
208
45
33
209
44
31
203
45
34
195
47
40
200
45
39
204
44
39
208
44
37
209
45
35
210
45
35
206
45
36
199
45
40
205
46
38
186
48
43
189
48
42
179
49
47
177
51
49
174
52
51
168
52
51
174
53
53
179
51
49
174
51
49
168
52
51
163
52
49
165
53
51
166
53
52
160
52
51
158
53
51
161
55
53
156
55
52
153
54
52
154
56
54
160
55
51
158
53
52
162
53
52
162
53
51
164
51
50
167
51
50
172
51
48
170
49
47
166
47
46
170
51
50
171
52
49
171
52
49
164
54
52
228
33
11
228
39
12
227
36
11
232
44
14
230
42
13
233
57
19
230
54
17
229
44
13
231
50
15
234
60
20
229
53
15
233
59
18
234
58
19
236
61
19
238
68
20
233
60
16
237
65
19
235
57
16
233
52
14
236
60
17
235
59
18
236
58
16
231
55
15
227
53
18
226
54
19
222
47
14
227
51
19
220
40
9
227
45
11
223
30
6
226
33
7
223
33
4
223
32
4
225
32
4
227
34
6
225
34
4
228
35
3
228
37
4
229
35
5
230
33
3
234
38
8
231
41
7
239
54
14
239
53
13
237
56
13
240
65
16
244
73
13
250
84
13
250
83
9
253
89
7
252
88
5
251
88
6
251
88
7
245
83
5
249
86
7
249
84
11
248
82
11
245
80
9
244
77
7
245
79
11
251
86
8
252
90
1
253
90
1
252
90
0
254
90
1
253
90
1
254
90
1
254
90
1
254
89
3
243
77
6
253
89
3
252
91
0
252
91
1
252
91
1
252
91
1
252
91
1
253
91
1
252
91
1
253
91
0
253
90
0
254
90
0
253
90
1
251
90
0
251
90
0
251
90
0
251
91
0
251
91
0
251
91
0
251
91
0
251
90
0
250
91
0
251
90
0
250
91
0
250
91
0
250
91
0
250
90
0
251
91
0
251
90
0
250
91
0
250
94
1
252
89
1
250
90
0
248
92
0
248
93
0
247
94
0
247
97
1
246
99
1
245
101
1
247
121
4
249
127
4
246
128
3
244
156
13
249
188
13
251
194
9
252
196
9
253
198
10
253
199
9
251
201
7
251
219
37
251
222
43
250
227
41
254
241
46
252
241
55
252
243
99
251
242
112
251
242
115
252
243
116
253
243
112
251
242
106
252
241
103
252
238
78
254
235
15
254
236
16
251
228
22
250
221
24
250
220
23
249
219
22
248
218
19
250
220
15
246
201
18
240
168
13
241
158
10
242
156
11
239
131
11
242
91
0
245
89
1
246
88
1
248
88
1
250
88
1
250
89
0
251
90
1
251
90
0
251
89
0
251
91
0
251
92
1
252
95
1
245
98
15
148
66
26
135
60
34
118
58
36
86
58
38
81
55
36
88
64
39
52
30
18
81
53
28
83
53
27
83
51
32
80
44
27
150
62
36
119
53
31
75
55
32
85
63
45
38
18
17
38
23
19
59
41
32
58
38
23
60
42
26
61
42
32
59
41
29
69
54
34
70
49
30
124
68
38
131
65
37
96
61
34
77
56
36
79
58
41
64
42
35
66
46
31
86
65
33
64
45
29
68
48
31
103
62
36
91
63
33
81
60
32
77
58
36
75
57
30
73
57
35
65
47
31
71
55
30
86
66
35
91
62
36
86
57
31
71
53
30
59
43
29
81
60
33
89
50
24
127
59
33
108
50
28
76
50
31
59
45
29
58
46
33
56
42
35
57
46
43
55
44
39
44
32
30
29
19
26
13
8
14
17
13
13
46
34
31
49
34
34
29
14
17
64
43
36
76
58
48
45
30
33
21
11
22
36
22
33
72
52
45
74
56
44
71
52
40
56
39
36
44
32
30
8
5
5
6
5
5
36
25
24
44
32
27
70
53
50
62
42
43
76
60
50
69
52
47
69
51
46
63
48
45
44
32
37
17
11
16
14
9
28
34
22
38
39
23
36
69
52
52
70
58
52
39
29
32
65
33
31
223
73
30
236
56
15
233
52
17
229
51
13
234
62
21
230
52
15
230
56
14
231
51
15
229
52
14
234
60
18
230
51
18
234
58
21
233
55
21
231
52
20
230
53
19
230
51
20
229
53
22
225
52
25
224
51
23
222
50
22
221
50
23
221
51
23
219
51
23
221
54
25
219
51
24
219
52
25
222
52
24
224
52
23
221
50
24
221
47
24
218
44
25
215
43
28
215
42
25
214
44
30
210
42
32
212
42
30
210
43
32
211
43
31
211
45
31
214
43
26
217
48
28
211
45
28
210
47
29
206
46
30
200
46
30
211
48
27
206
47
31
192
46
36
191
50
39
188
50
40
190
49
40
189
51
43
185
49
40
193
48
37
192
47
36
188
50
41
177
52
44
171
50
45
168
51
47
179
50
44
178
48
43
180
50
45
180
48
43
188
48
42
185
49
44
180
49
44
180
50
45
187
50
45
183
50
45
181
55
49
221
38
19
224
39
19
222
36
19
225
36
18
226
35
17
224
37
18
223
39
19
222
37
17
223
36
15
225
36
16
225
33
12
224
34
15
227
34
13
224
33
13
223
34
14
223
33
12
225
33
12
227
32
12
226
33
14
225
33
12
226
35
12
225
34
11
224
36
13
226
36
12
227
41
14
225
37
11
226
39
12
229
50
16
233
54
16
230
44
12
229
48
14
233
55
19
232
48
16
234
51
18
228
38
11
232
49
17
232
45
13
232
47
13
232
48
15
236
52
17
236
58
17
233
49
12
235
51
14
231
45
10
231
44
14
232
46
12
232
46
9
232
46
9
233
46
9
234
49
8
232
46
7
233
47
11
229
45
8
231
45
12
232
48
12
232
42
8
233
51
11
237
54
14
240
58
15
239
59
13
239
64
13
242
71
12
241
69
10
243
72
10
244
74
11
246
75
10
244
72
11
244
72
11
245
74
12
242
71
13
241
67
11
244
77
10
250
85
8
252
88
5
253
88
6
252
87
6
253
88
5
251
88
6
252
87
6
251
86
6
253
86
5
251
87
6
252
90
1
252
90
1
252
91
1
251
91
1
252
92
1
252
92
1
252
91
1
252
90
1
251
91
0
251
90
0
250
91
1
251
91
0
250
91
0
251
90
0
250
91
0
250
91
0
251
91
0
252
89
1
252
89
0
252
89
1
253
89
0
253
89
0
253
89
0
252
89
0
252
90
0
253
90
0
253
90
0
253
90
0
251
90
0
249
92
0
248
93
0
242
97
2
234
108
12
232
111
15
231
120
17
236
138
27
236
140
26
237
143
24
239
156
24
240
187
33
244
209
56
244
213
65
244
215
64
244
221
66
248
232
90
250
244
121
250
245
122
250
245
114
250
244
99
251
244
103
251
244
106
241
222
88
241
210
89
241
205
87
240
202
87
240
191
68
246
181
29
247
178
24
242
171
34
241
172
42
241
169
44
242
160
40
242
133
22
244
132
20
244
132
19
244
132
20
243
132
21
242
133
22
243
128
21
247
101
7
250
96
4
253
93
1
252
93
1
252
94
1
243
95
18
146
49
24
136
57
35
120
65
40
87
60
38
71
42
34
77
48
37
56
30
17
95
60
30
91
57
29
89
47
31
94
41
25
166
72
46
115
60
35
72
59
39
65
47
35
33
17
20
56
38
27
77
57
33
90
62
32
88
62
37
88
60
36
76
50
30
87
62
35
89
61
31
91
57
31
81
45
26
75
49
28
53
38
24
37
24
19
37
24
22
65
49
37
71
56
39
76
59
35
97
67
34
107
63
34
110
64
35
101
61
32
81
55
26
87
59
31
82
54
30
65
44
26
75
58
29
77
57
27
81
59
29
81
58
27
65
50
23
73
57
34
66
49
29
67
48
24
74
50
29
113
61
36
85
49
26
53
39
26
57
43
36
49
36
34
53
41
37
41
28
29
30
20
24
51
35
31
28
16
22
17
10
14
35
23
24
40
28
28
59
43
38
61
40
36
68
44
43
43
29
38
33
20
30
30
21
28
79
63
45
82
66
40
69
51
37
58
40
36
50
38
36
13
9
12
2
3
2
5
4
6
23
16
19
30
21
23
8
4
6
40
31
29
55
40
41
53
39
40
35
26
35
48
37
43
12
8
15
2
2
12
5
2
22
28
14
34
54
29
43
51
40
46
39
30
35
58
26
25
198
39
21
222
36
13
219
33
15
216
33
16
216
33
20
216
34
21
215
34
23
218
36
24
219
37
23
216
37
26
210
35
27
217
37
27
216
35
27
214
35
27
215
34
26
216
36
29
210
34
28
204
35
30
214
38
26
206
39
31
214
40
26
215
40
24
211
40
27
212
43
26
210
41
27
212
42
29
215
42
26
214
42
25
219
45
25
215
43
26
217
41
25
215
44
29
219
45
29
213
41
30
218
44
28
216
40
26
221
38
20
223
39
20
224
40
18
224
40
16
224
41
17
222
45
17
232
58
20
230
52
18
229
52
16
229
49
12
229
48
16
223
44
19
223
44
21
220
42
20
219
42
20
217
44
21
221
45
20
224
52
20
221
46
19
220
46
24
214
47
23
221
51
25
220
51
26
221
51
25
220
51
26
221
52
28
222
53
29
219
52
29
213
50
31
211
50
35
213
52
36
215
51
35
216
53
36
209
59
44
218
34
19
222
37
18
221
36
19
221
37
21
223
35
20
220
36
20
220
37
21
220
36
17
216
37
20
216
37
18
224
36
17
223
37
19
224
36
17
216
38
20
217
37
19
220
34
14
217
35
16
220
34
15
220
34
16
223
32
15
223
33
15
223
34
16
223
34
16
225
34
15
223
34
15
222
35
17
223
33
15
224
35
15
225
34
14
225
34
14
228
34
14
229
34
13
229
34
14
229
35
14
228
35
13
228
35
12
228
34
13
229
34
11
229
34
10
230
34
9
229
33
8
231
32
8
230
33
9
229
31
8
230
31
8
229
31
9
231
33
8
231
33
7
233
36
10
233
38
10
229
33
5
234
40
13
231
41
12
232
45
14
232
48
15
232
41
11
234
48
15
236
47
13
235
47
12
238
53
16
234
48
13
234
50
16
232
45
12
233
51
15
235
52
15
237
53
16
237
53
13
234
50
12
237
53
15
238
56
17
237
54
14
235
55
15
233
55
15
232
54
14
233
50
11
231
48
13
231
48
11
230
49
10
232
52
12
232
53
9
233
52
7
239
66
11
245
78
10
243
76
10
241
74
7
243
77
6
245
79
7
242
76
8
241
74
8
242
77
7
251
90
3
250
91
0
250
91
0
250
91
0
250
90
0
251
90
0
251
90
0
250
91
0
251
90
0
251
90
0
251
90
0
251
90
0
251
90
0
250
90
0
251
89
0
250
90
0
251
89
0
251
89
0
252
90
0
253
90
0
253
91
0
252
91
0
252
92
1
249
106
10
246
130
26
246
130
28
246
131
26
245
137
31
245
140
32
242
143
31
239
153
27
238
177
31
247
209
50
248
223
61
248
229
64
249
240
81
251
248
118
251
249
132
251
249
134
251
247
119
248
240
68
250
239
56
251
237
52
248
217
19
237
173
18
236
147
18
237
146
19
238
134
18
241
99
1
245
98
1
245
101
1
247
98
1
250
96
1
251
93
1
252
88
2
252
88
1
251
88
1
250
88
1
250
89
1
250
88
1
250
89
1
252
90
0
252
92
1
254
93
1
252
93
1
250
94
1
235
92
20
131
37
20
131
51
36
121
60
34
89
61
37
66
42
33
75
52
35
95
62
30
119
57
30
114
57
35
106
55
31
111
56
33
117
59
35
77
44
23
53
38
24
52
36
29
19
10
10
52
38
25
79
59
31
81
51
27
92
63
37
97
68
37
87
58
36
95
68
37
89
61
31
87
59
33
82
50
29
73
50
27
59
48
25
42
35
20
36
28
18
63
50
31
84
68
36
93
70
33
90
63
28
98
63
32
108
66
39
103
62
36
79
56
25
86
62
32
85
61
31
63
45
26
71
57
32
82
60
33
88
63
31
81
62
34
81
62
30
76
56
26
74
54
28
79
58
30
47
32
21
86
46
29
99
63
35
75
55
34
70
50
34
78
58
46
67
48
37
32
21
25
13
6
20
45
30
30
21
10
23
28
20
23
42
29
27
57
41
37
59
42
37
41
25
26
55
35
38
32
21
29
4
3
16
5
4
20
48
35
31
53
36
30
63
46
39
56
38
35
59
43
42
18
11
25
1
4
9
1
2
9
22
16
22
36
26
30
8
5
15
39
29
29
36
28
35
31
21
27
61
47
48
56
44
47
11
7
16
2
1
13
3
2
16
4
3
12
44
35
35
31
27
33
30
25
35
60
23
21
211
60
29
235
57
18
230
50
14
232
51
15
227
37
13
228
38
13
230
41
14
232
45
15
231
43
14
227
42
18
227
41
20
229
40
20
227
39
21
227
37
21
228
38
19
228
38
18
229
40
21
222
35
19
225
36
16
224
38
18
227
38
18
224
39
17
221
42
19
225
42
15
226
41
15
224
44
21
223
43
22
219
42
22
222
46
25
217
44
26
217
42
25
219
42
25
220
42
24
218
43
27
219
45
27
215
41
26
214
48
33
215
48
35
212
45
34
214
48
34
214
47
34
215
50
34
213
48
32
214
48
32
216
52
37
213
52
36
213
49
32
219
62
42
217
58
35
219
59
40
210
51
36
208
50
37
211
54
39
212
61
41
205
53
36
210
55
41
210
57
42
209
55
38
208
57
41
206
60
45
200
59
46
203
56
44
206
60
48
200
61
48
201
61
47
207
64
50
203
60
49
200
57
47
206
59
48
206
65
53
220
37
23
219
38
23
219
37
24
219
37
23
220
36
22
223
37
22
222
36
21
221
37
21
220
37
22
222
36
22
223
35
21
223
36
22
223
37
20
222
38
19
224
39
22
224
39
20
220
36
18
224
41
21
220
35
17
220
36
17
225
37
18
223
36
17
222
41
21
220
39
18
219
39
18
220
40
19
223
36
14
224
37
15
221
36
14
223
45
22
228
55
27
225
46
20
222
42
21
219
39
21
218
43
24
225
58
34
220
54
28
223
58
33
218
54
30
224
60
34
223
57
31
225
61
35
221
55
30
222
57
33
224
57
31
225
59
33
223
56
28
229
59
27
230
56
27
229
56
24
226
52
18
231
53
22
230
50
15
234
49
15
232
52
17
233
51
17
233
50
15
235
52
17
233
53
16
234
53
17
237
55
17
235
53
18
235
53
17
235
55
16
234
55
15
237
56
17
236
57
16
238
60
16
236
58
12
236
61
17
235
57
16
236
60
16
235
59
16
232
60
17
232
57
14
236
63
13
245
75
13
240
69
10
248
80
6
250
83
3
250
84
3
250
85
3
250
85
3
251
86
3
252
86
3
252
87
3
251
88
2
252
88
3
251
87
3
252
88
3
252
89
1
251
89
0
251
90
1
251
90
0
251
90
0
251
90
0
251
90
0
251
90
0
251
90
0
251
90
0
250
90
0
251
90
0
250
89
0
250
90
0
251
90
0
250
90
0
250
90
0
250
89
1
250
91
0
251
91
0
253
91
0
252
91
0
254
91
1
253
92
1
253
92
1
254
92
1
254
91
0
251
91
1
248
107
12
240
114
6
249
197
21
246
204
17
243
214
43
245
228
64
249
239
96
252
248
140
254
253
187
255
253
196
254
253
194
254
253
190
254
253
170
251
247
107
253
246
84
247
218
25
248
203
15
240
171
21
241
159
18
242
155
18
244
147
18
246
129
12
249
129
18
248
100
6
254
88
0
254
87
0
254
87
2
252
86
1
252
87
1
252
88
1
251
90
0
252
90
0
252
91
0
253
91
0
253
91
1
251
92
1
250
91
1
248
92
0
238
90
17
154
42
23
128
53
35
82
45
29
55
35
26
36
18
16
65
47
28
92
58
30
130
57
36
110
50
31
105
54
30
110
64
40
113
59
39
89
50
28
66
49
24
63
49
32
37
26
18
33
21
13
78
56
30
93
57
32
88
59
33
92
66
44
95
63
48
90
64
33
85
56
30
102
64
34
110
63
39
88
57
29
60
46
22
42
34
20
54
42
27
56
44
28
75
54
35
82
56
33
89
66
29
74
54
29
92
65
32
88
62
34
85
58
27
84
58
32
68
47
31
53
37
22
78
62
38
95
65
44
97
64
36
61
46
29
72
56
35
70
51
32
75
56
31
57
42
27
39
29
24
57
43
29
88
65
39
71
50
33
79
57
40
79
60
47
56
40
38
30
20
29
33
24
31
20
14
19
20
15
25
25
19
19
48
37
32
57
45
44
44
31
31
43
30
29
44
31
32
12
7
17
3
2
16
3
1
22
31
23
32
34
25
33
50
38
39
50
36
36
44
31
37
4
2
14
6
5
9
13
10
14
4
1
10
37
28
37
18
11
26
32
24
28
27
21
29
39
25
31
41
28
33
22
15
31
2
2
10
1
1
13
1
2
15
5
3
10
49
38
39
41
35
38
18
15
23
41
10
8
185
62
39
204
64
41
213
59
38
219
59
36
221
62
37
224
62
38
225
61
38
218
55
37
216
57
42
215
58
40
218
56
37
223
59
40
221
60
40
215
55
38
217
59
41
221
61
42
218
56
36
217
60
41
217
64
42
215
62
42
216
62
41
217
63
42
215
61
41
217
65
44
218
64
46
213
64
45
212
66
48
214
67
47
211
63
48
210
66
49
213
69
52
210
66
48
212
67
50
205
63
47
208
68
53
205
65
50
207
69
56
201
65
54
204
70
59
207
70
57
205
71
59
199
67
56
200
69
57
202
74
60
196
69
57
201
68
56
205
71
58
206
72
60
199
67
54
195
71
59
197
74
62
199
75
61
196
68
57
191
71
59
187
69
60
191
71
60
191
69
59
190
68
58
190
70
61
185
65
55
191
66
56
193
67
58
191
69
60
192
70
59
191
69
58
188
65
56
188
67
59
186
67
60
195
71
64
192
70
62
212
46
28
211
48
31
209
49
33
201
49
35
208
55
38
210
51
35
215
57
39
216
59
40
217
58
40
218
53
37
219
53
38
213
50
33
218
57
38
218
61
39
218
60
38
221
60
37
220
59
37
219
58
35
220
61
35
220
65
41
212
50
29
210
54
35
213
62
41
214
62
41
216
69
44
214
63
39
222
60
35
220
56
32
221
62
39
222
66
42
218
62
39
214
58
35
216
63
39
215
64
41
219
68
43
216
65
39
215
66
40
216
67
39
212
66
37
213
68
38
216
66
37
218
66
36
215
64
35
217
66
37
220
66
37
223
67
36
224
67
34
223
67
32
223
64
29
226
67
29
228
67
27
232
69
28
232
67
26
235
69
23
235
68
21
242
73
19
242
73
15
244
75
14
247
80
16
247
81
17
243
77
13
245
81
15
247
82
15
244
80
15
244
80
13
244
80
12
246
84
14
246
84
12
247
85
12
247
85
12
250
88
12
248
87
9
249
87
8
249
88
9
250
89
10
249
89
7
249
89
3
248
87
4
247
86
5
248
86
3
249
85
3
249
86
1
249
86
0
251
87
0
250
87
1
251
88
1
250
88
2
249
89
7
249
89
7
251
88
2
250
89
1
250
88
2
250
88
2
249
89
3
250
89
2
249
89
2
249
90
2
249
89
1
250
89
1
250
89
2
249
89
2
248
90
9
247
92
14
246
92
15
246
91
15
245
91
16
245
92
17
245
92
17
246
92
18
246
92
18
247
93
14
247
93
9
243
91
15
242
90
16
248
93
16
248
92
15
248
90
10
248
90
3
245
108
13
242
111
8
244
155
15
242
157
10
247
191
13
247
208
12
250
237
87
254
252
178
255
253
214
255
253
219
255
253
218
255
253
217
255
254
202
253
249
125
252
239
66
251
209
13
251
192
17
241
154
27
240
130
25
241
104
8
247
110
12
250
88
0
252
88
0
253
88
0
253
87
1
253
87
1
254
87
0
253
89
1
253
88
0
253
88
0
252
90
0
253
91
0
254
91
1
252
90
1
250
90
1
251
91
1
250
92
1
250
93
1
236
94
20
133
35
21
140
52
37
100
49
26
89
58
31
67
49
31
76
56
34
78
48
26
123
61
41
141
68
46
146
62
35
138
63
36
122
62
39
104
55
31
63
41
23
42
30
25
38
26
20
53
41
24
75
59
33
74
54
28
87
64
31
79
56
34
87
61
43
84
62
31
71
51
25
95
61
35
115
60
42
68
36
25
36
23
18
49
38
34
30
20
16
51
39
25
71
54
32
72
55
32
68
52
29
46
30
27
52
31
21
44
27
14
80
58
28
87
62
29
79
60
29
67
52
29
77
57
35
83
58
39
83
60
40
34
19
15
67
52
34
70
47
28
93
61
37
59
43
26
54
42
29
18
9
7
53
36
31
74
52
43
77
55
42
71
51
43
52
37
39
45
32
35
54
38
37
8
4
13
33
25
31
28
21
26
36
24
27
30
18
31
35
22
30
28
19
24
34
23
25
8
6
15
21
17
26
2
1
18
27
20
31
30
23
36
40
32
41
18
11
23
44
33
38
9
5
12
1
1
4
2
1
8
12
5
19
60
44
44
37
27
30
34
27
31
10
5
19
23
14
29
42
31
34
15
11
26
2
2
11
1
2
4
1
1
4
4
1
6
40
32
40
1
1
5
0
0
1
1
0
0
9
0
0
33
8
6
70
23
22
129
50
38
180
81
58
212
85
54
218
82
50
209
74
48
214
78
53
218
79
51
219
78
49
220
78
52
218
75
49
218
78
51
215
77
50
214
75
49
212
75
47
217
82
53
215
82
50
215
83
51
212
80
51
211
79
50
211
79
53
212
82
55
210
82
60
205
76
52
212
87
59
212
83
57
207
77
57
206
78
56
212
84
58
210
84
57
206
81
60
206
82
60
205
85
64
203
83
62
205
82
65
201
81
67
194
78
63
199
82
66
202
85
67
195
79
62
199
82
66
196
82
68
194
80
65
195
79
65
194
81
68
196
83
68
197
83
70
192
80
67
196
83
69
196
83
69
191
78
66
197
85
69
192
78
64
196
80
64
194
78
64
194
78
66
196
82
69
190
76
63
197
76
63
190
75
63
179
71
61
191
76
63
189
76
63
188
78
64
191
81
68
192
85
70
187
77
67
194
78
69
144
48
39
152
56
43
156
58
46
79
23
22
141
61
47
161
66
53
183
79
56
186
79
57
199
84
62
199
79
57
196
79
59
209
84
58
214
80
53
215
84
53
218
85
53
221
84
51
223
84
49
218
81
49
221
86
49
224
84
52
221
79
48
222
84
52
218
84
50
218
85
51
209
83
53
210
83
53
220
89
54
211
76
49
218
80
47
215
75
43
219
78
45
221
80
45
220
78
44
216
80
47
204
81
51
194
78
49
196
80
51
195
81
53
198
82
54
204
85
58
204
83
54
194
77
47
195
77
46
199
79
50
185
71
46
184
75
48
186
77
48
170
71
44
175
73
42
179
75
45
174
77
48
161
67
44
154
63
42
157
68
44
162
68
43
170
70
42
176
71
39
177
70
35
181
73
34
201
78
33
211
82
29
207
83
29
207
81
29
187
77
34
160
72
38
160
72
40
165
77
43
190
82
34
193
79
28
183
74
28
184
77
30
167
68
28
169
69
30
176
74
36
166
66
25
170
68
28
175
69
27
175
68
28
157
56
23
168
62
24
163
58
22
187
69
22
210
79
20
212
80
18
220
85
24
207
78
18
180
63
15
154
51
15
146
45
13
184
69
21
200
76
20
183
64
17
177
61
19
174
62
18
176
63
18
182
65
20
176
62
17
179
64
20
182
64
20
184
66
20
184
67
18
156
47
15
135
32
12
134
32
16
134
30
13
134
30
17
132
28
15
136
29
16
132
26
13
131
25
14
145
36
13
152
45
15
132
25
13
132
22
14
147
32
14
141
26
14
153
37
16
170
51
14
193
59
15
215
65
13
215
65
10
217
71
9
226
127
23
233
146
20
234
158
45
234
173
98
242
194
137
249
211
158
250
212
157
234
179
132
235
176
120
229
158
63
229
152
27
227
138
21
221
89
9
222
78
11
221
73
12
218
70
10
226
73
12
227
73
10
226
72
11
224
72
9
224
72
10
227
74
12
226
76
13
225
79
17
222
78
15
223
78
14
224
82
20
229
92
33
221
87
28
224
90
30
226
96
39
220
90
30
227
99
40
217
88
25
216
95
39
132
42
19
145
49
30
118
56
35
54
29
21
40
20
24
60
37
29
89
53
32
105
58
34
98
61
35
89
50
27
105
58
30
120
64
32
101
57
32
29
14
12
44
30
29
34
21
20
46
30
24
72
55
31
76
56
26
65
48
29
56
39
29
49
33
22
75
55
28
81
63
29
91
61
29
108
59
35
76
51
33
62
47
34
22
12
11
43
33
29
55
41
28
64
48
23
72
55
31
32
24
15
9
5
6
22
13
14
19
11
5
62
48
27
80
59
29
76
57
22
74
60
30
75
59
34
65
48
31
83
63
47
40
26
22
70
55
34
70
56
32
74
52
26
62
46
22
65
48
31
18
8
12
67
53
43
71
52
42
66
44
40
57
39
39
51
37
40
55
40
42
50
31
35
9
3
17
15
10
16
5
5
11
13
8
16
32
23
31
19
13
23
5
4
13
3
2
8
6
4
18
4
3
21
1
2
13
4
3
16
42
34
39
30
23
33
27
20
34
21
15
25
9
6
20
4
3
11
2
2
9
7
5
21
48
36
40
28
19
29
24
20
28
1
1
7
2
2
9
3
4
5
2
2
4
1
2
6
1
1
2
0
1
1
1
1
4
13
10
16
0
0
2
0
0
0
0
0
0
0
0
1
7
5
20
11
9
29
4
2
14
21
5
21
114
51
44
201
85
60
206
87
56
206
82
54
178
73
50
159
69
52
161
69
53
171
75
55
141
67
54
143
67
52
117
49
42
114
54
47
116
60
54
114
60
55
113
60
55
113
61
54
117
64
55
138
71
60
138
68
56
133
67
58
127
69
62
119
65
58
117
62
56
124
66
63
123
65
64
114
62
60
116
63
59
117
65
62
116
63
62
121
68
66
123
70
66
145
75
69
197
96
78
188
86
66
189
93
74
198
96
77
197
82
64
203
86
68
202
90
72
196
84
68
197
83
67
204
92
73
195
82
65
201
87
69
200
85
67
197
82
66
194
82
68
200
86
71
200
87
71
168
78
63
183
87
71
176
83
69
157
74
62
130
64
52
127
69
58
162
78
65
163
81
69
112
52
44
161
81
66
117
57
47
103
56
45
100
56
45
96
51
39
99
53
45
136
70
61
52
35
53
45
27
46
45
28
47
28
21
36
52
39
58
62
41
60
73
52
58
72
50
56
72
44
49
69
41
49
75
48
52
99
53
52
114
58
50
124
69
59
127
63
52
133
60
50
139
68
59
123
69
60
118
65
56
117
58
49
130
62
55
140
68
60
132
69
60
108
59
55
90
54
56
100
57
54
113
61
53
119
62
55
140
70
56
145
69
55
139
68
54
129
62
48
106
48
38
111
59
49
79
50
49
70
51
53
70
53
55
74
55
55
79
56
60
82
52
55
74
42
40
60
36
37
59
33
34
68
41
40
63
41
41
61
38
39
58
35
37
69
51
53
64
46
47
74
55
61
73
48
57
84
49
55
79
48
54
77
53
58
79
55
58
79
55
59
79
55
58
77
53
56
76
52
53
81
50
51
84
46
46
86
51
50
83
51
51
87
56
53
81
55
50
82
53
48
90
62
56
89
56
49
89
52
48
89
53
52
85
51
49
85
51
51
77
41
46
89
47
48
90
48
47
91
51
49
96
53
51
92
51
47
89
48
45
86
45
41
94
55
49
99
57
50
90
48
42
91
47
40
90
44
36
82
44
39
73
41
41
72
41
40
66
36
37
78
41
43
86
44
45
74
36
38
78
39
42
69
32
33
69
32
36
80
39
42
71
34
37
76
36
38
91
43
45
89
41
41
78
35
35
92
38
39
92
35
40
91
36
39
92
37
37
95
30
35
107
27
34
108
30
37
105
27
33
106
28
34
111
26
34
114
24
32
116
25
31
116
23
31
116
22
31
114
23
31
116
21
28
119
21
25
123
20
23
133
18
19
144
18
16
169
29
21
186
32
21
198
21
7
218
17
5
218
15
5
218
15
3
221
17
0
223
21
2
220
20
5
205
19
5
197
22
12
176
21
13
165
20
14
165
25
21
152
19
17
145
20
19
141
21
20
141
21
22
137
22
24
132
22
22
129
19
17
128
21
19
131
22
21
135
29
28
127
26
27
126
31
34
119
25
27
128
35
39
136
43
45
125
37
39
122
37
37
131
46
43
127
42
42
138
49
48
134
43
43
137
45
44
136
50
34
126
48
37
104
46
32
50
23
22
34
13
16
64
46
30
84
62
33
92
58
25
80
53
32
54
33
21
101
57
31
107
62
32
96
60
38
48
27
21
41
24
21
48
35
27
53
40
32
63
51
34
68
48
31
32
20
19
29
19
16
24
16
13
65
49
37
81
59
30
89
59
26
104
64
31
76
46
27
53
30
20
44
24
22
40
24
28
53
35
32
56
40
34
57
41
38
9
5
7
0
0
0
24
20
17
6
5
4
48
36
26
70
48
27
83
62
38
84
63
36
65
48
30
58
44
32
70
50
37
38
23
21
49
34
26
42
29
24
58
42
28
74
57
35
64
48
30
32
21
20
58
43
33
54
33
28
71
44
38
62
42
37
50
37
41
45
29
35
48
30
36
26
18
28
14
12
17
1
1
10
15
10
25
24
20
30
8
6
20
2
2
9
11
8
17
7
4
19
29
24
35
33
25
28
15
10
16
16
12
21
40
32
40
22
16
34
13
7
22
18
10
25
5
3
14
1
1
2
1
1
2
35
27
33
27
18
33
6
3
16
1
1
3
2
2
3
2
1
6
8
6
14
7
6
14
1
1
5
0
0
0
0
0
0
0
0
0
0
0
0
0
0
1
0
1
2
2
1
9
2
1
11
1
1
8
1
1
5
6
4
22
18
9
32
77
36
38
86
46
42
100
52
50
39
17
36
39
24
46
54
28
46
36
13
34
21
12
30
19
10
27
18
8
30
18
9
29
36
28
38
40
32
42
51
46
61
42
37
46
34
27
32
41
30
40
59
51
66
60
55
68
57
51
66
53
49
59
40
37
42
51
47
55
57
49
63
62
52
65
62
53
66
62
54
70
63
54
69
55
49
59
54
50
59
56
49
60
79
52
62
74
50
59
67
53
61
85
56
61
125
70
68
108
60
58
100
63
62
112
74
71
108
65
63
114
72
68
126
78
73
134
78
69
156
91
75
146
81
69
138
79
66
120
63
54
125
64
54
43
19
17
81
53
48
61
40
37
4
1
0
3
2
2
3
3
2
6
2
1
11
3
2
3
2
1
24
14
10
4
2
1
3
3
4
3
3
3
2
2
4
2
3
3
3
4
4
58
36
56
42
28
54
42
29
49
50
37
50
46
34
53
44
32
53
55
45
56
51
44
52
49
42
52
47
40
51
48
40
51
39
29
39
38
30
40
36
31
39
34
26
33
45
32
45
55
42
52
52
46
49
30
25
29
18
13
19
27
20
27
33
24
33
33
27
30
69
53
55
76
53
57
75
54
57
64
52
53
58
45
48
56
42
46
70
52
61
60
47
51
60
48
52
67
49
58
69
49
58
66
52
61
68
54
59
57
51
51
51
43
42
50
34
40
44
22
30
47
23
26
40
16
19
41
19
21
51
26
29
40
13
17
39
13
18
55
28
33
47
24
26
54
32
33
66
47
49
74
53
56
77
59
60
75
58
58
72
54
55
55
35
36
55
35
36
56
37
38
52
36
36
49
32
33
33
10
15
46
23
26
52
30
30
38
13
17
41
15
18
39
12
13
42
12
13
51
31
29
64
46
41
62
40
39
60
41
42
65
46
45
50
29
28
35
9
13
45
19
21
55
30
30
70
44
42
48
20
19
49
17
18
45
14
16
44
13
16
54
25
24
60
33
31
84
54
51
79
50
50
82
49
47
87
52
49
86
54
52
84
49
48
92
55
52
86
48
51
87
49
52
86
48
47
80
42
38
86
49
52
86
47
48
90
49
50
86
44
43
89
46
43
87
39
39
90
40
39
93
43
43
97
40
40
97
40
45
94
38
43
93
38
40
103
36
40
107
30
37
106
29
39
108
29
39
106
29
36
114
29
38
117
26
36
113
26
34
115
22
31
116
24
37
114
23
36
124
25
36
123
21
33
136
22
28
140
19
26
142
20
26
150
21
23
160
27
22
175
29
21
202
29
22
201
24
17
203
24
18
216
22
13
213
13
4
192
18
11
166
30
23
147
17
14
143
23
22
148
29
25
142
20
21
136
20
24
134
22
24
133
24
26
139
29
30
134
26
29
117
23
23
104
28
26
116
29
28
114
25
26
120
37
40
121
39
43
115
35
39
124
41
46
124
41
46
125
37
42
117
39
41
88
24
25
90
27
25
91
34
33
126
64
57
88
32
29
74
26
21
106
54
37
104
54
37
100
52
35
63
32
30
54
27
26
68
50
32
84
61
34
76
46
34
37
22
16
34
22
16
86
54
36
103
56
32
91
51
35
39
22
21
26
13
16
41
26
25
65
46
37
66
47
36
40
27
22
17
10
12
1
0
0
8
5
4
56
42
30
76
54
34
75
53
29
92
68
32
62
37
22
53
27
21
34
19
17
12
4
10
41
27
26
68
50
39
39
28
25
0
0
0
0
0
0
9
7
6
4
3
4
49
35
26
76
54
30
84
64
36
74
54
34
25
14
11
17
12
10
43
31
28
11
5
4
3
2
3
25
18
21
48
35
32
64
42
32
58
39
34
15
5
10
58
43
35
47
30
30
44
26
27
66
44
40
50
34
39
26
16
30
19
11
24
3
2
11
14
10
20
15
8
25
16
11
33
4
4
16
1
1
3
0
0
1
12
9
18
15
10
28
22
17
28
25
19
25
26
20
24
13
9
18
19
14
31
29
21
36
25
17
32
8
5
25
3
2
17
1
1
2
1
1
1
44
34
36
59
44
45
36
29
30
2
2
6
13
12
19
22
20
27
2
1
7
1
1
4
1
0
2
0
0
0
1
0
1
1
2
4
1
1
2
2
2
13
1
1
8
2
1
7
1
1
2
1
1
1
0
0
1
2
2
9
6
5
22
7
3
25
41
34
43
36
25
36
37
27
40
39
28
41
37
23
34
34
22
33
31
23
29
32
24
31
29
22
32
29
22
30
25
20
24
28
22
27
52
46
59
28
24
28
26
20
22
32
23
27
60
51
60
65
57
64
65
56
66
43
38
39
19
23
12
28
30
28
59
54
64
52
43
51
52
43
49
51
43
53
48
41
49
23
21
22
14
14
13
32
31
31
49
44
48
46
42
45
53
48
48
56
46
49
46
37
43
54
46
46
55
48
46
43
41
42
45
41
44
54
44
46
60
49
47
44
41
38
35
34
30
34
33
27
42
35
27
31
27
23
36
30
27
31
26
21
28
25
22
39
33
30
41
38
36
19
19
19
34
35
29
30
30
26
25
24
22
40
40
35
28
27
22
29
27
23
28
27
25
32
35
29
31
34
29
23
24
20
36
38
33
52
47
33
49
47
32
45
45
34
46
46
29
52
45
33
52
43
35
54
45
38
53
43
36
56
44
35
59
48
40
60
50
39
64
51
39
66
54
41
54
43
33
60
47
35
51
37
33
49
38
32
50
43
31
50
40
35
45
36
34
52
38
36
53
37
35
45
36
31
47
37
31
51
40
33
44
33
26
63
41
33
54
33
29
51
31
30
65
41
35
57
44
27
62
53
29
55
45
29
53
44
30
45
42
28
53
47
29
49
43
21
49
39
21
51
36
28
57
39
29
61
43
29
62
48
31
64
49
30
69
50
33
67
51
38
66
48
38
71
47
38
71
51
40
72
53
39
72
49
41
72
51
42
70
54
41
57
41
35
55
39
32
51
35
30
50
33
29
57
36
27
57
38
30
55
35
28
57
35
28
55
35
30
58
38
32
53
32
27
56
35
28
67
43
32
63
40
29
55
34
27
59
39
28
58
37
27
58
37
25
57
37
26
52
32
23
56
35
25
57
39
27
62
43
27
66
47
30
59
42
26
72
46
34
65
39
31
64
39
32
75
48
35
71
42
28
64
42
29
63
39
26
70
42
24
80
49
26
82
51
29
74
43
21
64
37
20
59
33
24
76
51
30
79
58
21
77
62
20
71
55
24
85
57
25
87
57
26
89
60
19
90
60
18
87
59
19
77
54
17
86
59
19
92
60
16
93
61
20
94
61
21
95
61
23
100
55
21
104
50
21
105
27
22
106
22
24
108
22
25
110
16
18
113
16
19
110
15
18
111
13
16
112
14
20
111
14
20
114
12
16
118
13
17
125
12
15
129
10
10
132
12
10
137
12
9
140
11
7
145
15
9
155
23
18
159
27
19
154
19
13
168
25
17
148
8
4
144
13
11
136
17
13
130
11
7
126
11
8
131
14
8
135
12
6
134
14
7
138
21
4
143
24
11
133
20
6
129
22
5
127
32
9
105
34
6
113
40
15
102
28
14
118
41
30
116
34
25
105
30
24
95
21
13
108
30
21
109
34
24
88
24
7
80
26
6
74
26
11
66
19
5
67
20
6
65
20
7
63
22
14
57
26
24
100
51
38
95
52
38
54
31
26
51
29
22
74
53
34
70
47
35
51
30
34
5
1
2
30
19
15
70
47
34
86
54
36
89
52
37
27
14
14
13
6
12
39
24
26
64
42
39
50
30
37
15
6
13
9
6
8
0
0
0
1
0
1
52
36
30
81
56
40
77
53
30
86
64
28
60
38
25
30
14
12
15
7
8
37
22
28
57
33
36
56
36
32
23
13
14
1
1
2
1
2
2
1
1
2
7
4
9
46
32
35
60
39
29
83
62
35
57
38
28
21
10
14
9
6
10
19
13
20
1
0
1
0
0
0
3
2
4
22
15
26
47
27
41
57
35
48
42
26
32
45
32
35
34
23
25
20
10
14
50
34
34
43
31
36
6
4
21
2
2
7
1
1
6
19
14
23
32
23
32
18
13
27
2
2
10
1
1
2
1
1
1
2
2
6
11
7
18
22
17
32
21
17
31
9
7
13
17
13
24
25
19
36
36
26
37
14
9
33
3
4
21
1
1
5
2
1
1
1
1
3
50
38
45
36
23
36
43
34
41
1
1
3
5
6
9
1
1
3
0
0
0
1
1
0
0
0
1
0
0
0
0
0
0
1
1
1
1
1
1
2
1
7
40
36
43
32
31
41
4
2
12
0
0
2
0
0
1
0
0
1
1
1
3
1
1
8
4
2
17
54
42
45
79
59
53
78
60
53
76
59
53
78
59
52
77
60
50
78
61
51
79
60
52
77
58
51
75
58
51
75
60
50
65
60
43
66
62
40
67
62
35
68
62
33
64
57
31
64
58
35
63
56
38
61
56
36
52
60
29
52
59
30
62
58
37
54
53
35
50
47
29
53
53
37
50
50
34
54
54
40
55
55
38
58
52
34
60
51
35
61
53
34
58
54
33
54
53
29
49
53
27
44
52
26
43
51
25
50
51
34
49
46
34
56
48
33
57
51
35
47
52
30
47
55
30
51
59
30
60
58
27
57
59
32
53
59
31
56
62
30
50
58
28
54
58
29
56
60
29
52
59
27
51
59
27
48
58
26
52
59
26
53
60
26
53
61
27
55
59
28
55
58
30
55
59
29
53
58
29
54
60
32
56
62
33
49
62
12
40
55
11
31
49
16
39
59
17
47
58
11
46
54
15
38
47
17
49
59
17
55
64
13
53
59
15
34
44
14
32
39
11
40
46
14
55
57
21
58
56
17
57
50
18
53
51
19
63
65
21
63
61
19
60
58
24
61
60
25
61
56
19
55
56
24
52
52
22
55
53
23
63
58
24
68
57
25
66
57
29
67
57
30
75
63
27
63
63
22
67
68
23
53
51
22
60
54
25
95
78
34
115
88
46
108
85
42
97
82
40
76
69
35
78
68
31
86
75
31
91
82
34
99
86
31
88
77
25
73
72
27
61
63
25
76
73
19
69
69
15
70
70
21
58
49
18
54
50
20
62
67
16
58
65
18
52
61
17
56
64
15
50
57
18
70
71
16
68
73
18
69
70
20
75
72
21
72
74
22
72
77
22
72
78
23
69
76
23
75
77
15
73
76
16
70
75
21
69
71
17
71
71
13
65
69
16
63
66
18
59
61
24
57
56
21
52
54
20
52
55
17
56
62
15
61
71
16
60
61
17
63
61
23
65
65
30
70
70
20
68
68
16
63
64
23
62
63
21
71
70
15
76
72
14
73
72
15
71
69
14
66
63
15
66
60
16
71
64
14
52
46
7
48
42
12
40
36
6
64
59
15
67
58
17
77
70
12
76
71
10
79
69
8
70
61
10
72
61
8
87
71
5
88
73
4
86
74
4
84
73
5
84
70
4
87
67
3
94
60
8
94
46
8
108
45
12
102
32
7
101
26
7
101
14
3
109
24
9
112
24
12
114
16
6
115
14
7
118
14
7
120
13
8
121
13
7
121
13
8
123
13
7
126
9
3
126
9
6
124
10
7
122
9
5
130
14
9
138
19
11
140
24
16
127
13
8
128
10
6
129
12
6
130
15
9
136
18
9
136
18
9
127
17
7
163
69
37
169
72
40
162
69
41
151
66
36
146
76
36
137
84
33
130
81
29
104
58
14
103
57
12
101
54
11
98
53
13
98
51
11
100
53
9
101
66
11
112
80
11
111
79
9
104
77
14
105
75
9
103
73
10
104
72
14
80
46
18
27
7
5
94
50
37
87
46
33
35
15
14
36
21
17
78
53
38
58
32
32
29
16
20
0
0
1
13
6
12
64
46
42
78
59
42
73
49
35
45
32
29
21
13
15
41
25
26
62
44
39
38
24
28
13
8
11
3
2
1
1
1
1
9
4
5
63
45
42
79
54
42
63
40
23
76
58
34
47
28
21
21
9
9
3
2
3
31
21
23
48
30
28
60
41
32
12
6
6
3
4
4
2
2
4
2
2
8
10
6
13
40
28
27
57
39
25
74
52
32
67
41
31
27
15
17
20
13
19
31
20
26
0
0
1
0
0
0
1
1
1
9
6
15
31
20
34
67
46
50
53
34
38
30
19
32
28
20
25
38
26
27
51
34
34
48
33
40
16
9
29
2
2
11
10
9
13
12
10
19
38
31
34
40
30
37
14
8
28
5
3
16
2
1
3
1
1
1
2
0
4
39
32
43
20
16
30
33
28
33
38
30
36
39
30
37
44
32
40
18
9
31
2
2
12
1
1
2
1
1
1
2
1
3
40
29
40
21
14
32
38
32
38
0
0
2
12
13
17
17
18
22
1
1
2
0
1
0
0
1
0
0
0
1
0
1
1
0
1
1
1
1
1
7
6
21
15
12
31
26
21
36
15
10
27
0
1
4
1
1
3
1
0
1
0
0
1
2
2
8
2
1
9
11
9
26
51
32
23
77
58
31
73
57
27
70
54
27
76
66
32
78
65
27
85
66
32
73
55
33
78
58
31
69
57
29
61
55
21
62
56
21
64
53
20
63
50
20
62
49
20
60
47
22
66
52
25
72
55
25
61
56
20
63
55
24
76
54
26
62
57
26
61
57
18
51
54
14
48
54
17
44
52
18
45
52
17
53
60
18
51
58
21
48
54
16
49
55
17
50
55
17
47
53
16
43
52
18
42
52
19
48
55
18
49
54
17
49
58
19
47
58
17
43
53
17
38
47
14
42
53
17
45
56
14
47
57
14
47
60
17
43
56
15
47
59
16
53
62
13
64
68
9
62
68
10
60
68
9
62
68
10
63
67
7
64
69
7
65
68
6
65
69
8
64
68
8
63
70
4
59
70
10
45
62
12
47
62
16
27
34
10
15
23
5
7
14
3
19
26
6
26
30
9
26
28
10
12
16
4
17
21
6
28
31
10
32
33
11
26
29
12
32
34
17
39
38
18
37
34
15
33
31
10
48
41
17
45
40
17
40
38
18
31
28
12
27
25
9
31
29
12
35
33
11
32
32
10
21
22
8
32
34
14
33
39
11
30
36
8
30
36
10
34
38
13
35
38
9
44
50
14
39
45
13
39
42
13
41
42
10
49
48
12
39
40
12
33
37
9
47
55
15
39
42
12
51
50
12
48
50
16
38
42
16
52
58
20
38
46
15
32
39
12
30
34
8
71
68
14
73
68
12
41
41
8
42
39
10
41
44
12
51
72
16
50
71
9
53
71
8
60
73
7
60
68
9
68
73
6
60
70
10
35
41
9
35
35
9
52
51
16
62
65
15
59
66
12
60
66
10
71
78
6
64
76
11
47
55
10
52
55
8
73
65
8
70
62
11
69
64
10
65
65
15
66
63
12
65
62
13
65
63
13
69
66
10
72
70
11
76
69
11
76
70
13
71
73
15
76
78
12
76
80
9
77
79
11
76
79
16
79
81
10
76
78
6
73
76
8
72
74
12
58
60
12
62
66
11
74
77
13
79
66
14
80
56
15
85
69
14
80
68
15
45
31
8
71
54
13
74
58
9
79
61
8
83
66
8
88
68
12
81
64
13
86
69
12
84
73
6
81
69
9
81
68
5
81
67
6
80
68
6
87
62
9
90
62
7
91
65
7
94
63
8
101
59
6
102
58
7
106
52
8
111
49
13
113
47
7
119
46
14
115
41
8
119
29
7
116
16
6
113
25
8
114
17
5
116
10
8
118
12
7
130
25
15
123
9
5
124
11
5
126
11
5
124
12
7
126
12
5
127
12
7
124
11
8
120
9
5
115
16
5
112
11
4
117
26
11
109
10
2
106
11
2
105
36
7
104
52
12
97
56
8
97
57
4
99
56
4
100
55
4
96
61
5
94
64
8
98
62
9
97
61
5
99
70
7
103
71
5
102
70
4
98
68
7
101
71
4
99
73
3
98
72
11
57
30
8
24
6
6
85
50
37
74
41
33
32
16
16
40
24
19
78
50
41
63
40
44
11
5
10
1
0
2
26
17
18
67
48
37
76
54
40
68
45
37
24
14
15
4
2
3
32
21
23
51
37
31
29
22
22
1
1
3
1
2
1
1
2
2
3
1
3
47
31
32
73
51
37
75
53
33
68
52
34
39
26
23
22
12
12
1
1
1
11
6
9
38
24
26
57
44
41
23
15
21
8
6
13
14
10
16
2
1
10
5
2
8
29
19
19
48
33
22
56
39
25
66
45
44
13
4
19
7
3
13
40
28
32
0
0
0
0
0
1
1
1
2
1
2
4
4
2
11
23
14
19
30
24
30
44
36
38
5
2
6
17
14
18
34
26
27
34
25
29
26
22
33
7
6
9
1
1
2
23
21
28
17
15
22
11
6
15
34
23
30
4
2
7
1
2
3
1
1
3
3
1
2
42
31
37
3
3
23
7
5
18
17
13
21
12
8
21
8
6
22
11
5
32
2
1
18
2
2
8
1
1
1
1
1
2
24
18
31
14
9
29
31
27
33
0
0
1
1
1
2
1
1
2
0
1
1
0
1
0
0
0
0
0
0
0
0
0
0
0
0
0
0
1
0
0
1
3
1
0
7
19
19
32
16
13
32
2
2
16
2
2
14
1
1
4
0
0
1
2
2
8
0
0
3
2
2
9
4
2
4
53
36
26
76
51
25
77
51
24
68
47
23
72
53
23
89
67
29
71
49
30
77
53
31
71
52
27
69
51
24
64
61
23
59
55
26
51
36
23
65
50
30
58
37
22
62
40
26
65
43
28
74
52
30
74
53
33
72
52
39
75
58
37
76
59
35
72
55
26
74
58
23
78
68
26
72
73
24
69
73
23
73
73
25
74
75
24
62
66
23
58
65
24
54
61
22
52
58
22
51
58
22
50
57
21
42
46
22
31
38
21
31
39
18
47
55
20
59
65
16
66
68
18
68
73
19
74
76
16
77
77
14
75
75
17
74
74
14
73
73
12
71
71
9
69
72
9
70
70
8
68
66
9
70
67
8
66
69
12
73
68
11
75
68
9
77
68
9
77
69
7
75
69
10
69
70
16
64
70
19
56
64
16
58
65
16
61
67
15
61
66
17
56
59
18
63
66
18
55
63
15
58
66
16
66
64
16
67
61
17
63
65
18
62
62
18
52
50
18
48
47
20
53
56
19
65
68
18
67
68
18
57
62
16
58
60
17
65
59
14
68
61
19
64
63
14
61
64
14
59
62
22
58
64
23
67
75
19
66
76
12
64
73
16
62
70
20
59
71
15
60
71
13
62
70
19
57
71
16
63
72
15
59
65
15
58
63
18
46
57
15
65
73
16
54
65
16
77
78
12
72
76
13
66
72
15
65
68
12
69
64
14
67
67
16
69
72
13
76
73
11
74
75
14
70
75
15
64
71
15
59
74
15
59
74
12
60
72
12
63
70
12
62
71
10
63
74
10
62
72
11
55
73
12
53
68
19
53
60
22
63
67
23
67
73
18
63
76
13
62
79
15
53
68
11
47
67
14
55
71
13
56
73
7
53
67
8
47
48
8
50
53
14
47
60
13
58
70
12
48
56
9
52
53
9
54
58
9
50
58
10
49
56
10
48
56
10
40
53
11
46
53
9
56
62
8
70
73
15
37
36
4
48
51
11
63
64
12
70
72
11
70
74
10
67
67
10
70
72
10
70
79
7
76
75
9
78
70
14
75
69
11
73
65
16
42
35
11
75
62
16
79
65
8
82
71
12
81
68
13
59
47
7
61
48
9
60
48
10
81
63
10
82
59
8
88
62
11
70
52
8
85
67
5
88
64
6
83
68
6
85
70
4
86
61
8
86
57
8
95
70
7
99
68
8
91
54
7
105
54
12
84
31
10
103
49
14
110
43
10
92
29
12
89
30
8
106
37
12
110
28
9
104
15
7
119
21
8
120
18
3
117
22
2
116
40
6
115
43
7
124
51
13
117
33
4
114
13
4
109
19
3
107
51
14
104
35
4
107
41
9
94
33
13
99
41
13
101
52
13
95
47
17
93
57
18
97
61
11
99
59
10
102
61
9
88
62
5
88
62
5
89
65
8
89
64
7
83
69
4
86
71
3
87
73
4
84
73
12
79
63
15
73
53
10
69
46
10
44
19
13
11
2
1
76
51
37
67
41
29
20
12
11
36
24
21
70
43
38
72
46
44
11
4
3
2
1
1
29
21
24
62
44
37
79
57
45
63
43
37
5
2
3
9
5
5
33
22
23
46
34
31
27
19
23
8
5
13
7
6
7
1
1
2
2
1
2
44
30
30
70
49
41
68
43
33
65
44
35
31
20
21
11
8
12
1
1
1
17
12
19
37
25
25
54
39
33
35
24
26
9
6
13
15
13
21
7
5
15
6
4
9
31
20
18
41
25
14
53
39
26
48
33
27
18
11
19
8
4
14
16
10
18
1
1
3
4
3
15
10
6
17
14
9
16
16
10
23
44
32
31
14
8
14
23
18
27
4
2
11
4
3
13
28
22
24
42
33
32
31
28
30
1
0
1
1
0
3
21
19
31
8
7
29
3
3
24
5
4
19
0
0
2
0
0
2
2
2
6
3
1
3
49
39
41
48
36
40
37
30
38
8
6
19
11
9
24
11
9
28
9
7
27
4
4
24
1
1
4
1
1
1
1
1
1
7
5
15
2
1
14
3
3
14
0
0
1
0
0
0
0
0
0
0
0
0
0
0
0
0
0
1
0
0
1
1
0
1
1
0
0
1
1
2
2
2
4
1
1
2
1
1
2
2
3
10
4
5
16
1
1
7
1
1
5
0
0
2
1
1
6
1
1
3
0
0
1
0
0
2
10
7
16
51
46
27
63
64
20
54
63
15
60
71
17
57
72
17
63
70
22
66
64
20
73
68
21
65
64
20
60
65
19
52
53
22
64
59
23
52
59
16
48
56
18
45
52
23
47
53
23
55
56
23
56
54
23
52
51
27
50
47
25
40
43
16
47
49
22
33
36
12
38
49
18
15
36
9
20
35
13
8
11
3
10
13
2
5
10
3
26
40
18
35
49
12
38
51
12
33
49
18
46
63
22
46
63
20
49
65
19
43
63
18
43
64
18
45
68
16
47
68
17
55
67
18
54
75
17
49
76
14
48
69
13
59
78
10
60
75
10
64
74
8
61
76
7
59
74
8
48
64
12
54
68
10
54
68
9
53
66
11
51
66
11
51
68
10
53
69
9
46
62
12
14
32
5
10
29
7
27
22
7
36
28
10
36
27
7
37
31
9
53
48
17
48
46
10
45
49
12
43
49
14
39
38
8
46
50
16
35
48
15
23
28
9
3
4
1
24
27
11
35
44
11
48
56
17
46
53
10
55
67
14
48
58
14
51
53
12
53
58
15
45
45
11
49
49
15
40
43
16
45
47
17
64
62
13
64
67
9
64
67
17
36
38
8
52
59
15
46
48
10
39
36
10
70
71
17
70
73
15
57
60
16
61
64
19
50
58
17
58
62
14
58
61
17
65
61
12
76
74
13
67
72
13
72
70
8
74
70
5
67
68
10
49
54
11
60
59
16
47
48
14
42
48
15
35
45
16
36
49
14
54
64
17
52
55
10
51
53
16
56
57
13
63
67
11
53
58
15
49
55
15
30
35
8
15
20
3
29
35
11
35
41
11
32
38
8
52
57
15
61
65
17
62
65
19
60
61
13
66
76
12
57
73
14
42
47
13
45
48
13
52
61
15
58
70
7
59
71
10
55
65
11
59
66
12
60
69
12
59
70
14
60
67
10
59
67
12
55
64
13
53
62
15
58
67
18
52
59
12
52
55
8
59
59
14
77
69
13
81
73
12
79
71
12
81
70
10
83
74
5
81
71
7
73
64
9
45
43
7
49
47
9
52
51
14
52
53
17
56
50
12
60
49
11
75
62
13
78
66
6
76
67
7
74
68
6
75
71
7
78
69
6
85
72
2
82
73
4
81
71
4
82
69
5
79
69
6
80
70
9
80
67
13
91
71
13
84
65
10
89
70
10
95
68
8
77
41
10
58
22
8
89
43
15
92
42
12
107
44
15
84
30
10
93
36
10
115
43
11
94
29
7
85
27
9
110
49
13
111
60
11
105
51
10
107
46
9
116
56
5
112
62
6
111
55
8
116
52
11
106
49
12
97
40
8
96
49
12
86
48
12
82
41
9
80
45
15
84
47
12
89
55
15
76
61
12
86
70
11
87
67
10
81
65
12
88
64
17
85
60
18
77
61
15
78
71
8
77
59
8
79
62
13
63
53
18
65
47
31
56
35
23
21
10
8
49
30
33
4
1
1
73
47
32
57
39
26
5
4
3
19
12
17
72
44
42
70
44
43
27
16
16
2
1
1
33
20
24
71
46
39
83
55
41
59
38
36
5
3
3
9
6
6
15
9
14
40
31
27
38
29
29
29
21
32
7
5
8
0
0
0
1
1
3
23
13
27
60
43
48
66
48
41
65
43
36
30
18
20
0
0
1
0
0
0
2
1
5
43
32
30
56
43
38
48
38
36
8
7
12
19
17
20
5
4
11
5
3
10
27
14
16
44
26
19
42
27
20
44
31
25
41
25
25
29
17
22
39
28
31
2
2
4
2
2
9
7
5
13
16
11
18
34
26
34
20
14
23
2
1
6
3
3
7
2
2
12
4
3
18
32
25
30
19
13
21
0
0
1
0
0
0
1
1
2
11
9
14
21
18
28
17
15
30
6
5
17
0
0
1
0
0
0
0
0
1
1
1
4
23
17
27
22
14
28
13
9
26
5
4
15
15
13
27
6
4
23
11
8
29
2
2
17
0
0
2
0
0
0
0
0
0
4
4
9
0
1
3
0
1
1
1
1
1
1
1
1
0
0
0
0
0
0
0
0
0
0
0
0
0
0
1
1
1
2
9
14
15
1
1
6
33
29
36
23
22
29
1
1
6
11
12
22
7
6
19
1
1
7
0
0
0
0
0
0
1
1
5
1
1
12
13
14
22
2
2
7
7
5
23
28
28
33
27
38
19
12
30
8
12
31
6
12
32
8
9
23
5
6
11
3
6
9
2
6
9
1
2
4
1
2
2
1
15
21
6
16
37
11
14
33
8
5
15
4
3
7
2
8
16
5
7
15
4
2
7
2
6
16
5
18
40
15
14
40
11
14
39
13
20
48
14
16
42
11
17
35
14
19
39
11
24
50
16
20
47
18
21
45
16
37
66
17
32
55
13
20
36
12
17
28
11
14
26
12
17
27
12
2
4
1
1
3
1
1
3
0
1
3
1
1
2
1
3
12
2
11
32
7
11
31
5
19
41
11
16
36
8
22
46
11
23
58
14
23
65
14
21
49
12
21
46
13
19
45
13
19
43
15
13
37
11
15
53
15
12
56
11
10
55
11
10
48
9
14
56
15
37
28
9
37
25
8
39
25
6
46
33
9
54
40
14
54
41
14
47
41
15
42
42
18
36
38
16
31
36
14
34
40
18
19
27
6
42
52
15
50
61
14
55
70
14
60
74
14
61
75
12
55
68
15
21
30
8
21
25
6
35
38
9
43
48
18
36
41
18
30
33
13
46
52
19
41
45
11
46
51
19
40
46
14
41
45
16
36
40
11
60
62
18
55
54
17
56
62
18
46
55
20
40
49
29
37
51
20
36
53
14
36
53
15
36
50
12
42
50
13
62
60
12
59
62
12
67
70
7
65
73
6
50
63
10
30
40
7
34
41
9
40
48
13
44
50
14
40
48
14
43
58
16
53
64
9
69
73
11
69
74
16
72
71
13
68
69
12
59
64
14
48
54
12
49
55
18
56
60
21
54
60
16
51
60
15
53
61
16
54
62
20
24
26
5
28
28
5
59
53
17
46
44
8
48
50
12
53
56
16
62
63
16
58
62
12
57
66
10
54
73
9
63
75
8
70
70
10
74
72
9
74
73
10
73
72
9
71
71
6
68
69
7
60
59
9
49
46
9
61
56
11
66
57
8
47
44
8
43
37
6
49
45
6
74
72
11
82
75
10
81
72
7
75
71
11
73
73
14
72
75
11
75
76
10
62
61
13
65
65
18
70
69
15
78
71
12
73
71
13
55
59
10
46
45
7
51
47
9
74
68
8
75
70
9
79
75
9
80
76
7
77
70
7
79
71
10
71
60
11
63
50
11
82
66
8
89
71
8
92
71
8
91
70
4
93
69
6
83
62
9
82
60
11
87
59
9
86
60
9
93
59
7
98
58
8
103
56
6
134
74
21
159
95
33
150
96
39
153
94
39
158
94
38
151
92
38
150
93
40
135
71
27
115
58
7
113
58
4
119
55
12
104
47
13
75
39
9
79
47
12
100
51
12
97
55
12
79
49
12
85
46
11
97
53
12
107
68
18
142
95
41
152
107
52
136
94
49
126
88
56
58
49
24
37
44
15
58
47
12
88
53
24
55
29
14
48
28
17
51
25
18
26
9
5
7
2
4
49
34
38
3
1
2
65
44
41
57
39
33
1
0
1
8
4
6
71
46
39
61
40
40
26
17
17
1
1
1
20
15
17
63
48
38
71
53
32
58
43
31
1
1
1
1
1
3
25
18
21
43
35
27
40
33
29
36
25
33
3
1
3
0
0
0
1
1
2
24
17
24
62
47
40
58
43
33
54
39
36
24
15
17
0
0
1
1
1
1
1
0
6
15
8
15
38
26
29
56
40
39
26
17
23
22
17
16
1
1
1
1
1
1
6
3
3
23
14
12
24
13
10
41
28
23
39
26
29
35
20
25
32
22
28
2
2
3
3
3
4
7
6
9
17
13
19
24
17
35
29
24
37
1
1
9
2
2
6
0
1
3
2
2
10
24
18
24
34
28
32
1
1
1
1
2
1
1
1
1
1
1
1
1
1
3
1
2
6
1
2
13
1
1
6
0
1
0
1
1
1
0
1
1
0
0
2
0
0
3
0
1
5
1
1
4
1
1
5
2
2
16
6
6
22
1
1
7
1
1
1
0
1
0
1
1
0
1
1
1
0
1
0
1
1
1
0
0
1
0
0
0
0
0
0
0
0
0
0
0
0
0
0
0
0
0
0
0
1
2
7
12
11
0
0
1
1
1
2
1
1
4
1
0
3
2
3
7
2
2
8
10
9
20
1
1
8
0
1
3
1
0
2
1
1
2
4
6
9
2
2
6
3
2
13
14
10
32
11
9
29
37
41
37
34
42
31
33
28
20
57
39
22
62
40
20
67
43
20
82
56
23
83
59
25
79
57
20
81
58
20
81
61
20
80
63
20
81
65
20
75
60
17
78
61
19
78
59
18
72
51
18
71
49
18
71
49
18
68
45
16
65
43
16
64
42
16
62
39
16
66
46
23
69
54
24
55
43
19
47
35
15
53
44
20
48
46
17
37
34
14
20
15
4
17
13
4
17
13
5
17
13
5
16
11
4
14
11
4
15
11
5
13
10
5
12
8
4
15
11
5
24
17
8
32
24
11
39
34
16
35
34
14
40
46
23
20
43
16
16
41
13
23
49
20
16
37
14
18
45
16
16
46
13
15
43
13
10
32
11
16
46
16
11
37
10
11
22
10
4
12
4
170
105
65
198
121
77
174
108
67
181
116
73
177
119
76
152
102
64
99
74
46
36
31
12
33
31
12
28
28
8
42
42
14
56
59
18
67
75
17
76
71
12
77
71
10
66
76
13
45
63
9
62
70
11
67
69
18
76
71
23
79
69
21
77
74
27
70
70
22
66
61
13
61
56
17
52
52
17
55
53
18
58
54
12
56
50
16
63
61
17
61
69
14
63
74
18
56
67
17
47
49
12
60
59
18
72
74
16
77
80
11
77
78
13
74
77
16
66
65
16
53
46
11
55
49
11
71
66
13
67
67
11
63
71
18
63
65
14
65
64
13
67
71
13
65
69
9
58
65
14
35
44
11
47
52
10
78
80
12
68
76
15
39
46
7
38
49
8
43
51
10
40
48
12
19
27
5
9
10
2
16
15
5
15
19
5
15
19
4
14
20
5
32
39
20
27
30
14
30
32
13
32
34
11
38
38
16
25
25
14
10
9
4
21
12
5
26
18
4
56
70
14
55
69
11
43
41
9
43
43
10
48
55
11
57
62
12
55
61
9
61
70
9
60
69
10
53
60
11
55
61
14
47
49
14
39
42
20
53
58
21
64
68
17
71
70
16
50
42
10
61
48
14
67
56
16
69
60
12
81
76
14
74
76
15
52
57
18
26
28
13
7
6
1
20
15
7
32
30
9
61
60
16
72
69
14
77
69
13
74
69
6
71
66
9
75
70
12
77
73
9
79
75
10
81
68
13
84
63
14
89
64
14
87
65
12
80
61
11
83
56
9
83
60
10
81
63
11
78
60
11
72
51
9
79
56
14
73
48
10
79
51
10
82
48
11
101
51
12
92
43
8
98
39
8
97
34
8
86
22
3
85
20
5
86
20
5
84
32
6
94
60
17
95
68
16
94
66
9
90
68
11
93
54
10
94
44
8
96
52
11
80
29
6
97
58
9
88
48
7
93
54
11
84
53
9
87
57
8
101
63
11
97
61
10
95
65
24
87
54
15
95
57
24
118
62
26
134
69
33
101
53
26
34
12
4
6
3
2
2
1
1
1
1
0
5
1
2
49
33
32
2
2
1
73
50
42
60
41
29
2
1
0
6
3
6
54
29
29
72
49
41
18
9
7
0
0
0
18
10
20
44
28
34
66
45
35
38
27
22
1
1
1
1
1
6
11
6
22
29
22
31
48
35
27
63
49
43
5
2
4
1
1
2
1
1
1
4
2
8
34
24
24
65
48
36
58
42
31
28
21
16
1
1
1
1
1
2
4
2
15
40
31
40
28
19
24
62
46
43
32
22
29
20
14
18
1
1
1
0
0
0
6
5
5
30
24
23
20
11
9
54
38
32
55
38
36
64
41
39
28
15
22
3
2
3
3
3
3
2
2
8
6
3
20
17
12
32
20
18
33
1
2
10
0
1
3
1
1
3
1
1
16
12
9
31
24
20
30
1
1
2
0
1
1
0
0
2
1
2
7
16
15
16
3
2
6
1
0
4
0
0
2
0
0
0
0
0
1
0
0
0
0
0
0
0
0
0
1
1
3
2
4
16
1
1
7
1
2
15
1
1
8
3
2
10
1
1
3
0
0
1
0
0
0
1
1
1
0
1
2
0
0
0
0
0
0
0
0
0
0
1
1
0
0
0
0
0
0
0
0
0
0
0
0
0
0
0
1
1
2
4
3
6
0
0
1
0
0
1
0
0
1
0
0
0
2
2
3
1
1
4
1
2
20
1
2
22
1
1
18
0
0
2
1
1
4
1
1
4
1
1
8
2
2
15
2
3
16
11
11
29
10
9
15
57
43
37
139
94
72
164
103
74
186
113
75
204
119
72
214
131
75
219
138
74
222
140
76
215
138
74
209
140
74
207
141
75
203
137
71
203
137
72
204
134
68
207
137
76
210
134
73
214
137
72
218
141
73
222
143
77
220
140
75
221
141
75
225
146
76
227
148
73
225
147
76
218
141
74
224
147
71
220
143
65
208
133
70
198
128
76
193
124
76
199
129
77
198
127
74
196
125
76
196
127
74
197
127
70
190
120
70
186
118
68
196
127
72
197
128
71
217
145
73
220
149
79
199
132
82
123
89
58
12
20
6
4
13
4
5
13
5
3
9
2
2
12
2
6
24
6
3
15
2
1
3
1
1
6
1
0
1
0
0
1
0
2
4
2
127
76
46
108
65
35
56
38
17
52
35
14
53
38
12
40
30
12
10
7
3
15
12
5
53
43
21
59
54
15
62
60
22
41
39
14
46
44
10
77
67
13
63
66
13
55
70
14
60
74
17
44
45
11
30
25
5
24
17
2
41
30
16
23
20
4
61
56
16
73
64
18
60
53
16
61
58
16
63
63
17
67
64
15
51
47
16
48
44
21
33
33
7
39
40
13
37
37
9
51
48
14
44
42
9
36
34
7
48
46
12
44
41
10
22
20
3
5
6
1
2
3
1
2
3
1
18
15
3
35
31
12
22
21
7
7
6
2
12
12
4
48
52
13
55
61
12
54
64
15
52
66
15
64
84
13
61
84
7
56
85
10
56
82
15
53
80
12
54
75
12
48
62
18
49
69
20
49
65
15
49
62
15
48
57
16
47
55
16
42
54
18
33
44
16
27
32
15
32
37
16
48
56
22
56
56
20
42
38
10
38
29
10
145
76
41
208
115
58
200
115
52
182
110
55
180
101
53
151
85
50
75
54
31
100
62
34
119
71
36
108
70
31
88
60
33
48
34
17
38
26
13
26
29
15
25
29
9
14
16
4
14
10
1
36
32
10
43
41
17
26
23
4
40
38
10
47
44
14
46
46
18
29
35
11
28
36
15
31
38
16
22
27
13
23
28
14
20
21
10
40
39
14
47
47
12
44
40
8
50
45
8
53
45
9
42
30
5
47
35
7
58
45
10
71
40
10
73
33
6
74
34
10
52
26
5
43
21
3
56
27
7
47
20
4
29
13
2
29
16
4
26
9
2
52
26
9
53
21
4
48
20
2
40
18
3
62
32
9
53
25
6
48
18
3
72
27
7
87
31
6
89
33
16
90
34
22
67
20
8
68
27
8
71
27
6
78
28
5
94
46
10
105
52
12
91
45
12
92
49
14
90
44
13
84
41
10
77
37
12
72
39
11
63
31
9
58
30
8
53
24
7
37
14
6
37
17
8
82
34
18
139
62
33
111
50
24
63
34
14
22
9
4
9
4
2
10
5
5
21
10
8
18
9
6
23
17
16
44
31
30
4
3
2
61
36
32
45
26
22
3
3
3
2
2
3
30
15
22
58
36
34
7
3
5
0
1
0
9
5
8
17
8
18
37
23
31
24
16
23
1
2
2
2
1
6
2
1
21
16
12
36
50
33
33
62
44
44
6
3
7
0
0
0
0
0
1
0
0
1
19
11
12
58
33
26
62
38
30
25
17
14
1
2
1
9
7
9
20
16
21
26
20
27
7
3
10
38
24
31
29
19
23
31
24
21
1
1
1
1
1
0
0
1
2
5
3
6
18
10
13
37
20
19
35
17
21
48
29
28
31
18
21
3
2
2
2
3
3
2
2
14
3
1
25
22
17
32
9
7
20
2
2
10
5
4
17
39
34
38
29
21
33
29
21
30
30
23
25
1
1
2
1
1
1
1
1
2
1
1
6
1
1
13
4
5
27
18
17
30
1
0
3
0
0
0
1
1
1
1
0
2
1
1
5
0
0
1
2
3
6
0
1
2
1
1
2
3
4
9
1
1
1
1
1
1
1
1
1
0
1
0
1
1
1
1
3
14
7
14
32
1
1
8
1
1
4
2
1
9
1
1
4
0
0
0
0
0
0
0
0
0
0
0
1
0
0
1
2
2
6
19
15
29
25
21
28
1
1
1
1
0
0
1
1
1
1
1
1
0
1
1
0
1
4
1
1
6
5
5
22
1
1
11
2
2
16
2
1
18
1
1
14
1
1
4
1
1
2
0
0
3
0
0
1
1
1
2
6
5
22
13
9
27
46
34
39
99
62
49
134
75
50
171
99
65
207
113
70
218
106
66
211
106
63
192
96
53
190
96
60
180
87
57
188
92
61
183
90
59
208
101
65
193
93
59
181
86
53
181
89
57
201
96
62
201
98
62
210
102
59
230
118
62
225
111
58
215
106
57
217
113
59
226
117
62
215
108
60
194
105
68
182
98
63
212
113
63
217
112
60
204
108
64
198
112
63
181
105
57
166
94
49
169
101
58
145
86
48
163
94
49
198
110
55
177
101
52
110
70
32
27
32
9
4
12
3
14
30
13
17
40
16
15
48
13
14
56
12
10
46
9
11
49
10
10
37
10
10
39
9
15
42
12
9
31
8
19
48
13
5
4
3
7
6
3
23
22
10
33
29
10
56
53
14
60
63
19
50
57
13
47
55
18
39
41
18
43
46
15
40
46
18
25
31
12
47
56
19
58
67
17
45
65
19
32
54
15
38
63
18
31
52
15
28
41
13
28
39
16
14
21
6
27
37
16
32
44
13
22
30
8
32
42
18
31
44
12
36
45
11
34
42
14
30
45
13
39
58
19
43
63
11
43
69
18
32
50
16
29
39
18
26
35
14
34
45
12
36
47
12
39
52
19
44
57
18
47
61
17
48
58
24
32
35
15
53
58
24
49
56
14
58
55
13
60
47
19
60
45
20
48
38
16
11
14
4
31
42
19
47
65
19
61
80
7
56
73
7
48
65
13
45
59
16
44
62
15
48
66
12
37
48
13
19
25
7
30
40
9
32
44
12
9
14
5
15
20
10
4
7
2
55
41
18
150
95
56
87
56
32
45
50
21
66
68
18
64
64
19
58
53
19
94
62
17
154
87
26
156
93
34
92
67
19
115
72
19
79
54
18
36
27
11
96
59
27
162
93
49
168
93
50
145
87
47
89
60
32
109
74
45
27
25
8
47
46
18
106
69
33
172
98
51
170
94
44
155
88
47
158
88
45
79
50
25
16
14
5
19
21
12
7
8
3
10
14
4
20
23
9
10
11
3
16
14
5
19
15
6
91
53
29
125
65
24
125
63
24
138
64
23
189
97
26
194
96
19
200
102
25
192
97
16
205
122
22
209
129
30
211
109
25
192
89
22
189
99
21
193
105
21
196
100
20
178
97
25
155
74
24
173
76
24
206
96
27
213
87
26
211
93
25
198
100
22
198
105
18
202
104
21
199
97
27
209
103
27
221
110
29
196
81
31
191
88
36
196
97
34
200
106
27
232
148
40
222
122
21
219
121
26
225
122
40
145
53
12
86
46
16
46
27
9
31
18
8
25
15
7
36
23
13
40
22
9
46
23
9
37
15
8
25
10
7
21
8
4
60
34
16
65
37
15
53
30
12
43
22
8
47
22
13
39
17
10
19
6
5
19
8
4
17
7
3
16
6
4
16
3
3
25
9
6
35
24
19
24
16
11
2
3
2
1
2
2
3
2
3
14
8
9
6
5
6
0
0
0
1
0
0
2
1
2
38
28
32
17
11
18
2
3
2
0
2
1
1
2
4
4
4
14
33
22
35
51
34
42
5
2
5
0
0
0
0
0
0
9
6
16
5
3
11
41
20
21
47
24
26
9
4
6
1
2
2
3
4
4
3
5
4
3
3
5
19
14
21
36
25
31
21
17
21
7
5
8
0
0
1
0
0
1
4
2
18
1
1
9
0
1
3
19
14
16
27
19
22
20
14
16
7
4
10
1
2
2
1
1
2
1
1
2
1
1
8
6
3
18
17
14
22
1
0
4
25
20
27
14
11
20
25
16
24
30
17
19
43
30
28
4
2
11
4
4
12
5
5
13
4
3
10
0
1
4
1
1
9
2
3
14
0
0
2
0
0
0
0
0
0
0
0
0
0
0
1
0
0
0
0
1
1
0
0
1
0
1
1
1
1
0
0
1
0
0
1
1
0
0
1
0
0
0
0
0
1
3
4
20
7
10
29
1
1
11
1
1
7
8
6
23
2
1
14
3
2
11
0
1
1
0
0
0
0
0
0
0
0
0
0
0
0
1
1
3
16
13
25
10
7
18
0
0
0
0
1
0
0
1
1
0
0
0
0
0
0
0
0
1
1
1
2
1
1
8
2
2
17
1
1
15
1
1
15
2
1
10
2
1
13
2
2
13
2
1
7
2
1
9
1
0
11
2
1
12
3
3
15
36
30
23
82
60
37
113
64
37
153
74
41
204
91
54
243
139
72
243
143
64
243
140
66
232
126
66
228
123
65
218
117
65
212
115
63
199
109
60
193
102
49
192
109
54
197
108
51
193
110
57
186
105
48
183
106
48
150
88
40
151
89
38
132
83
35
202
113
54
228
111
49
227
117
58
222
117
63
222
115
59
193
104
52
85
56
17
63
54
20
32
36
12
33
39
12
31
38
16
19
25
8
32
40
10
41
44
10
26
31
6
21
34
10
26
47
16
11
26
9
5
17
6
6
25
7
13
44
14
14
46
13
14
40
13
5
24
5
1
9
1
6
26
5
7
33
7
10
37
12
7
28
8
40
42
12
57
56
16
54
51
15
44
43
16
54
58
21
36
41
10
52
54
16
45
44
13
38
36
8
44
46
11
48
48
16
29
29
10
25
29
9
33
37
10
65
56
30
78
57
37
102
71
48
108
71
46
111
73
48
98
65
45
73
54
27
50
43
15
53
57
17
55
57
17
58
57
19
68
68
14
77
75
18
55
56
19
64
67
19
69
74
19
61
71
14
50
62
14
53
61
21
55
59
17
56
58
15
64
66
15
57
59
13
38
44
13
35
40
10
55
61
14
65
66
14
61
56
13
65
59
13
77
74
13
85
77
11
117
90
42
133
97
55
111
87
45
37
37
8
33
37
9
52
62
17
58
76
15
59
68
12
49
54
15
55
51
19
57
56
15
56
62
15
51
60
18
59
64
19
59
58
17
79
63
32
78
55
32
58
42
25
44
38
18
75
58
14
167
93
38
116
69
27
35
35
8
44
47
17
57
62
22
60
64
17
60
72
22
45
53
12
60
64
18
45
55
8
61
82
10
56
75
20
44
51
24
51
56
17
66
67
13
52
52
21
49
41
14
17
13
3
30
26
9
38
38
17
48
50
18
70
61
20
84
62
14
83
60
17
101
61
23
168
93
42
138
89
49
134
88
54
94
65
45
86
64
42
103
74
42
167
102
44
158
91
35
129
71
29
111
66
28
138
69
30
161
77
26
155
69
27
171
69
28
196
95
25
204
99
25
210
101
22
215
112
26
213
132
31
205
134
32
175
91
23
169
65
17
188
89
17
189
96
18
199
93
17
193
87
16
180
74
18
184
63
17
171
62
16
152
45
10
189
67
22
219
92
21
243
150
29
244
174
29
236
157
21
231
158
19
225
144
17
222
128
23
207
95
24
211
98
21
201
102
18
228
138
22
220
101
11
232
119
18
232
111
15
201
79
19
168
68
23
123
46
16
110
45
18
88
41
22
36
13
3
42
20
6
37
19
7
16
5
2
12
4
2
19
7
4
22
6
3
21
5
2
20
6
2
35
17
7
35
18
6
29
14
6
26
13
7
34
16
6
33
15
6
29
10
6
24
4
3
24
5
4
17
3
2
25
15
8
30
20
13
7
3
2
3
2
1
4
1
1
8
3
3
0
0
0
0
0
1
2
0
1
8
4
7
5
3
5
3
3
2
3
1
2
2
2
3
1
2
5
14
10
17
27
21
21
1
1
1
0
0
0
0
0
0
5
4
6
12
8
10
40
26
25
31
15
21
13
7
11
1
4
3
2
3
3
2
2
2
2
1
4
21
13
21
40
27
30
22
16
21
2
2
4
1
0
1
0
1
0
0
1
3
1
1
3
1
2
3
25
21
19
20
15
22
18
13
21
12
11
19
1
1
1
0
0
1
0
0
1
3
2
4
15
12
18
4
3
7
1
1
3
9
7
8
7
6
7
2
2
4
1
0
1
6
3
3
1
1
3
3
2
6
1
1
3
1
0
1
0
0
0
0
0
0
0
0
0
0
0
0
0
0
0
0
0
0
0
0
0
1
1
1
1
1
1
0
0
1
0
0
1
1
1
1
0
1
0
1
1
0
1
1
1
1
1
1
0
0
0
0
0
0
1
1
5
2
4
12
0
0
2
0
0
0
0
0
1
1
1
4
2
1
10
0
0
1
0
0
0
1
0
1
0
1
0
1
1
1
1
1
3
3
3
17
2
3
10
1
1
1
1
1
1
1
1
1
0
0
0
0
1
0
0
1
1
1
1
4
2
1
8
5
4
23
9
9
31
15
14
28
27
26
39
9
7
29
36
32
40
39
33
34
49
42
40
42
32
28
46
28
21
103
57
35
148
78
42
187
98
55
216
115
61
240
146
72
234
133
68
228
130
67
215
129
68
198
108
55
164
87
45
134
76
38
92
54
26
78
61
27
56
55
13
57
61
13
44
59
13
45
51
17
27
30
7
44
46
16
35
38
15
12
20
6
26
40
14
34
55
14
79
66
15
147
81
33
143
82
37
110
70
29
113
71
30
51
44
12
25
42
14
24
47
20
15
30
14
9
16
7
21
29
11
34
40
15
51
59
22
55
57
21
33
28
11
46
44
21
38
43
16
35
44
20
38
45
26
42
46
28
43
59
26
35
54
22
41
36
23
39
29
21
35
26
20
42
33
24
46
38
27
43
40
27
42
38
26
83
69
11
83
70
16
86
66
20
68
56
18
76
68
19
63
56
18
85
67
27
108
78
35
105
78
28
87
73
21
74
65
25
74
66
24
65
67
21
59
59
22
89
71
34
113
81
54
143
86
61
154
85
57
149
83
57
144
86
61
116
80
49
56
47
16
54
49
20
67
57
16
73
61
15
85
73
16
64
59
15
23
22
8
24
20
5
32
28
7
8
9
1
19
18
4
44
43
11
65
65
15
72
70
16
50
48
6
67
61
13
70
62
16
64
59
18
70
68
16
77
76
6
83
79
5
86
79
5
83
79
7
79
78
12
74
75
18
63
63
14
84
75
9
81
68
15
58
50
15
63
60
16
43
49
9
36
37
8
47
45
15
52
43
11
72
61
11
73
75
8
73
77
10
86
74
9
87
74
12
154
100
50
195
119
69
159
97
56
114
76
34
80
70
8
77
71
7
71
72
10
57
62
14
59
67
19
53
63
17
60
62
11
61
70
17
60
74
20
68
83
16
51
76
16
50
74
16
22
33
6
9
12
3
12
15
2
43
49
17
31
34
15
12
12
3
8
6
2
11
9
3
18
15
4
12
11
1
17
17
3
26
28
6
41
43
11
42
43
12
43
42
9
60
57
19
57
46
10
49
45
15
48
46
14
55
44
8
129
73
21
139
75
25
77
39
14
37
18
4
19
6
4
25
14
7
29
15
7
38
18
7
44
23
9
51
24
10
57
26
12
47
17
6
54
17
6
52
18
8
38
17
9
44
17
8
49
19
9
45
21
8
76
35
20
58
21
7
53
25
11
68
35
15
79
47
11
72
52
13
59
37
8
120
39
11
199
77
18
217
102
12
232
136
15
252
213
30
254
239
36
254
239
45
254
236
54
254
235
55
254
235
53
253
230
46
249
217
40
249
215
36
252
216
30
251
207
28
247
190
28
233
154
16
228
150
24
215
134
25
204
127
25
197
120
18
174
97
24
140
69
20
117
48
16
95
40
9
120
47
21
111
39
13
94
33
5
84
33
10
52
19
3
36
17
4
41
21
9
38
14
7
31
8
6
18
4
3
10
3
1
5
1
1
17
11
8
16
7
4
12
6
3
13
7
6
6
2
1
6
1
0
11
3
3
2
1
1
3
1
2
12
4
4
14
5
4
11
4
5
11
3
2
23
8
8
4
2
2
1
1
1
1
1
1
1
1
1
1
0
0
0
1
0
0
0
0
1
0
0
0
1
1
1
1
1
2
1
3
2
2
4
1
3
3
1
2
1
0
0
0
0
0
0
2
1
2
7
4
4
2
1
2
2
2
3
2
2
2
1
1
1
1
0
1
1
2
1
2
2
1
19
15
11
3
3
3
2
2
4
3
3
3
0
0
1
0
0
0
0
0
0
0
0
0
0
0
1
0
1
1
0
1
1
0
0
1
0
0
0
0
0
0
0
0
0
0
0
0
0
0
0
0
1
0
0
0
0
1
0
0
0
0
0
0
0
0
0
0
0
0
0
0
0
0
1
0
0
1
0
0
0
1
0
1
1
0
1
0
0
0
0
0
1
0
0
1
0
0
0
0
0
0
0
0
0
0
0
1
0
0
0
1
0
1
1
1
1
0
0
1
0
0
0
0
0
0
0
0
0
0
0
0
0
0
0
0
0
1
2
2
10
1
1
13
4
5
20
1
1
5
12
12
24
23
19
34
30
28
42
12
9
24
37
32
40
42
36
47
26
18
28
25
21
30
39
36
37
42
35
39
41
35
42
34
31
48
38
34
51
9
9
32
13
12
34
8
6
29
30
7
29
134
71
62
138
61
48
166
75
59
171
73
52
216
104
61
232
122
64
239
134
65
232
133
62
238
146
71
183
103
59
111
60
36
80
56
30
83
67
34
57
56
17
42
50
15
29
38
15
36
53
13
35
61
7
33
66
6
31
68
10
30
63
9
35
60
9
43
63
13
44
63
16
46
67
15
48
69
12
47
72
11
46
69
11
51
71
12
53
69
9
50
60
13
22
29
8
24
36
12
12
23
9
18
36
16
26
45
16
40
55
17
46
61
20
55
66
19
43
51
14
36
43
17
33
31
14
19
17
4
48
56
23
64
73
37
74
77
48
83
78
53
82
78
46
76
79
45
79
67
37
82
64
35
80
67
36
81
70
33
83
69
30
86
72
33
89
76
38
80
71
7
76
72
11
66
59
17
38
31
10
35
29
7
26
21
6
37
29
9
42
30
8
52
44
11
62
60
16
62
59
19
74
65
16
76
76
15
59
56
10
35
33
5
36
35
9
39
35
10
43
39
11
28
24
6
31
28
11
33
30
11
37
33
11
32
25
7
50
36
18
37
25
10
47
34
14
62
60
21
60
58
16
66
56
20
64
56
18
68
64
19
71
63
17
81
75
15
83
78
16
79
74
16
77
74
10
77
70
11
63
51
12
55
47
18
53
49
15
74
70
13
79
75
5
84
77
4
85
77
10
67
65
17
62
59
21
72
69
19
83
79
14
78
72
13
64
65
17
65
65
17
65
65
16
68
66
17
73
66
15
76
67
14
79
70
12
77
72
7
80
76
10
81
78
13
78
78
11
92
78
7
88
73
6
74
71
7
72
74
3
70
72
3
55
59
9
32
36
7
19
22
5
13
18
4
16
21
5
23
25
7
22
28
6
58
62
13
73
78
9
67
76
14
47
51
13
29
30
8
47
41
15
72
52
27
67
45
23
82
60
30
104
67
44
126
80
59
103
71
44
113
79
35
158
105
51
169
110
51
170
116
59
114
84
24
109
81
26
118
76
27
141
89
40
129
82
34
82
66
18
70
69
14
69
70
16
63
64
15
57
56
13
58
54
13
53
50
12
47
43
15
46
41
18
52
49
18
51
46
18
67
57
18
53
47
14
50
42
12
44
30
13
29
18
7
41
31
11
35
26
6
49
34
14
35
17
7
53
38
14
56
43
15
76
55
20
75
56
19
79
63
24
72
55
10
74
63
14
78
64
14
65
43
13
65
32
10
95
28
7
150
43
9
222
117
21
242
178
23
254
233
33
251
229
28
253
226
31
247
189
24
247
174
22
248
176
23
248
172
20
242
160
17
236
139
15
237
134
15
245
152
29
233
132
17
237
132
20
234
128
15
244
161
28
238
143
28
235
130
31
233
127
26
237
145
25
240
141
25
234
127
23
230
134
19
229
133
27
212
126
27
173
101
23
153
84
26
90
40
14
53
27
10
29
17
7
35
22
10
33
22
12
30
19
12
17
10
8
15
10
11
22
16
14
26
20
18
23
16
15
36
24
21
35
21
21
42
33
32
43
36
32
43
35
31
44
36
31
47
37
32
48
39
38
38
32
31
43
33
29
35
26
21
34
26
18
12
9
6
18
14
11
0
0
0
1
1
3
2
2
2
7
5
3
10
5
3
20
16
13
24
20
18
2
2
2
1
0
0
4
3
2
1
0
0
3
1
1
2
1
1
17
12
9
29
25
15
16
14
9
2
2
1
1
3
1
2
2
2
1
2
2
1
2
1
1
1
1
0
1
1
0
0
0
0
0
0
0
0
0
0
0
0
0
0
1
0
0
0
0
0
0
0
0
0
0
0
0
0
0
0
0
0
0
0
0
0
0
0
0
0
0
0
0
0
0
0
0
1
1
0
2
0
0
1
1
0
0
1
1
2
11
10
13
5
5
7
0
1
1
1
0
2
1
1
2
0
1
3
1
1
3
1
0
5
12
9
15
6
4
12
4
3
9
2
1
5
2
1
12
3
2
19
6
4
18
22
17
28
9
7
17
15
14
22
19
17
24
17
14
18
14
13
17
16
14
19
7
6
21
24
22
41
16
15
35
39
37
46
41
39
53
43
41
59
42
40
60
43
40
57
45
37
52
41
37
49
44
36
45
33
30
38
30
31
37
22
20
27
3
3
6
2
2
7
4
3
8
2
3
8
1
2
6
8
1
8
144
75
60
231
142
85
222
121
68
240
124
70
231
117
59
247
151
77
240
134
67
230
114
59
182
90
49
175
95
61
69
40
26
20
24
14
16
19
7
14
19
8
4
11
2
4
10
3
5
16
4
18
45
14
14
48
12
14
46
13
13
49
11
18
56
14
15
45
8
22
45
10
10
26
4
13
41
9
10
33
5
14
43
12
11
38
10
23
51
16
21
51
12
21
53
12
22
52
14
21
51
12
15
44
10
13
38
8
18
44
10
22
54
11
17
57
12
22
61
13
18
54
14
15
36
12
10
33
9
11
42
10
10
41
8
22
43
12
25
50
12
29
59
12
40
68
12
32
69
13
27
64
11
27
66
11
25
66
9
26
63
13
24
48
10
34
69
15
34
66
17
68
63
13
70
66
15
65
60
16
63
58
20
64
60
16
56
51
13
66
59
14
72
61
15
72
65
11
79
73
15
70
65
16
84
72
16
86
76
14
87
78
15
66
66
18
67
68
17
67
68
17
76
69
12
65
56
14
52
44
16
42
36
15
58
52
16
58
53
16
55
47
18
51
39
16
40
29
14
58
49
17
73
58
16
72
52
15
73
61
12
86
76
17
82
63
13
83
75
17
78
73
19
54
46
10
72
65
13
70
59
11
56
44
14
51
42
15
50
46
15
58
50
14
68
65
12
68
67
10
50
47
9
54
54
16
54
57
17
56
58
18
53
55
16
40
40
9
37
40
11
37
43
13
26
34
7
28
30
8
35
31
8
34
30
7
36
31
7
44
43
15
57
58
11
55
58
10
67
69
11
78
78
6
73
80
5
71
79
11
68
75
7
69
77
3
67
74
6
70
74
12
72
77
20
63
73
15
66
73
13
66
73
13
65
76
15
66
74
7
69
75
7
64
76
10
69
83
20
72
81
21
94
79
20
128
89
47
147
96
57
155
97
53
152
93
56
190
109
67
144
90
44
73
64
12
91
68
10
116
79
20
107
81
19
79
79
10
71
73
17
65
53
14
74
53
17
69
55
13
67
63
16
53
52
10
55
59
12
64
63
14
67
64
10
73
74
10
69
71
14
57
54
16
59
59
20
70
74
18
74
74
14
77
71
9
74
70
9
69
67
12
49
48
10
50
49
12
65
55
13
79
64
13
85
68
17
60
48
16
30
24
7
21
16
3
25
15
4
28
17
4
36
32
10
45
45
15
60
58
17
65
57
15
47
37
12
55
44
15
55
42
15
71
43
11
133
48
9
193
77
13
243
145
21
243
150
22
244
130
16
229
72
10
202
45
15
191
43
15
195
64
29
135
34
6
144
47
20
151
38
15
162
57
19
112
38
12
123
43
18
134
41
16
173
52
15
186
53
17
147
50
16
221
90
32
217
106
22
229
107
23
193
74
26
194
109
28
206
98
26
226
130
29
247
178
36
241
153
33
204
88
28
143
68
31
33
18
5
25
17
13
16
9
15
20
14
16
1
1
1
2
2
2
1
1
1
1
2
3
1
2
4
4
2
7
10
5
15
16
12
18
18
15
18
19
14
19
21
15
17
22
16
16
22
17
23
22
18
23
25
19
19
23
18
18
1
0
1
0
1
1
1
1
1
1
1
2
2
1
6
3
3
7
3
3
8
3
2
9
14
7
15
48
37
33
39
27
21
31
21
19
40
29
28
24
15
18
31
22
22
23
17
22
14
6
16
21
13
23
7
4
9
2
2
2
19
16
16
34
30
30
24
21
20
33
28
26
9
8
13
2
2
6
0
1
0
0
0
0
0
0
0
0
0
0
0
0
0
0
0
0
0
0
0
0
0
0
0
0
0
0
0
0
0
0
0
0
0
0
0
0
0
0
0
0
2
2
2
27
23
22
15
12
20
3
3
7
1
1
1
6
6
14
4
3
12
2
2
9
1
1
7
6
6
22
23
21
31
20
20
35
29
27
41
22
20
36
34
29
40
30
24
37
29
24
37
36
32
43
33
30
44
29
28
46
15
12
33
21
16
32
12
9
25
25
21
33
25
22
32
27
23
28
23
21
27
23
21
28
11
11
20
1
1
10
1
0
6
1
1
5
1
1
7
2
1
8
4
4
17
4
5
13
2
2
7
1
1
5
1
1
3
0
1
2
0
0
1
0
0
0
0
0
0
0
0
1
3
3
9
4
3
13
18
10
15
88
44
35
177
90
65
194
114
65
185
101
52
214
122
70
220
123
64
212
129
64
209
119
64
198
109
64
99
60
27
95
68
39
21
24
12
12
35
12
12
42
10
13
43
13
19
48
17
19
50
18
22
49
19
12
33
10
8
22
8
5
12
5
17
37
17
12
29
12
1
3
1
1
2
1
1
2
1
8
15
8
1
2
1
1
2
1
1
3
1
4
6
3
1
5
2
8
23
8
11
29
10
19
48
17
11
48
12
13
51
10
15
55
12
10
43
9
13
43
13
6
30
5
16
42
14
12
33
10
18
53
15
11
50
9
14
43
12
8
28
7
13
39
11
13
48
13
13
51
12
8
44
8
13
38
12
1
12
1
4
18
3
6
21
5
2
14
1
12
33
12
2
8
3
34
33
11
44
42
15
45
40
10
54
49
14
70
69
14
67
65
15
77
73
12
80
73
10
80
73
13
52
47
10
36
33
10
54
46
16
43
36
7
62
52
14
62
56
22
37
36
8
27
28
5
55
44
12
65
57
17
58
59
18
45
48
15
55
55
15
46
48
12
50
45
15
54
42
15
47
38
17
45
36
12
58
44
14
61
48
9
73
66
8
81
75
15
71
65
16
54
54
14
34
39
11
52
59
20
58
65
19
68
67
18
70
68
19
69
68
19
58
59
18
48
47
9
59
63
15
67
72
12
69
70
10
60
58
11
56
57
15
66
71
15
76
78
9
68
75
15
62
75
16
65
81
15
62
83
14
55
74
15
52
71
16
51
74
16
51
70
16
56
67
15
66
74
10
66
80
8
68
81
6
69
81
6
69
84
5
69
80
8
67
79
7
68
83
4
65
80
4
64
79
7
61
79
13
57
74
11
69
76
8
70
77
5
65
75
9
59
68
8
63
75
6
50
68
13
33
47
13
33
41
6
49
48
11
30
30
7
27
22
5
53
41
9
81
58
19
109
67
25
80
56
17
45
47
10
54
56
13
46
47
8
45
56
12
52
65
17
28
32
7
10
12
5
28
32
7
50
56
20
43
46
17
45
47
13
52
61
17
49
55
16
53
50
15
62
64
13
78
75
19
75
68
14
81
79
14
67
74
15
68
71
11
76
70
9
75
73
11
75
76
10
73
74
8
74
72
11
82
68
10
88
68
9
99
67
12
93
69
17
73
66
14
58
51
16
32
26
9
73
65
25
73
68
24
68
68
22
47
44
13
52
46
13
51
46
11
62
52
17
54
45
13
78
64
13
96
66
15
117
44
13
205
61
22
215
75
16
182
54
15
152
48
13
101
47
14
93
43
14
70
30
8
81
42
12
84
45
11
78
46
11
80
58
12
76
61
13
77
61
18
74
56
14
92
61
11
100
62
13
91
59
11
155
63
20
140
61
23
160
68
25
94
40
14
61
36
17
87
34
9
132
46
9
206
101
31
158
62
15
130
43
16
108
48
20
59
47
18
51
43
14
52
37
21
33
20
14
20
11
5
27
13
11
11
5
4
3
4
4
5
4
3
5
4
3
8
5
4
3
2
2
2
1
1
18
14
11
5
4
3
0
0
0
0
0
0
0
0
1
1
0
5
3
2
24
2
2
9
1
1
2
3
2
10
1
1
8
10
6
19
44
35
35
49
38
39
43
36
37
33
25
29
35
22
18
57
41
32
34
25
23
34
25
24
26
18
15
22
16
16
17
10
12
15
9
10
15
10
11
7
5
9
16
13
11
11
9
13
17
14
20
1
1
6
2
2
11
1
1
8
1
1
4
1
1
1
0
0
0
1
1
1
2
2
4
0
0
1
0
0
2
0
0
0
0
0
0
1
0
0
0
0
1
0
0
1
0
0
0
0
1
0
0
1
1
0
0
0
1
0
0
1
1
1
1
1
1
1
1
1
1
2
2
1
2
2
1
1
1
1
1
1
1
1
2
1
1
3
1
1
3
1
1
3
0
0
1
0
0
1
0
0
1
0
0
1
0
0
0
0
0
1
0
0
2
0
0
1
0
0
4
1
0
5
1
1
2
1
1
1
1
1
1
0
0
0
0
0
0
0
0
0
0
0
0
0
0
0
0
0
0
0
0
0
0
0
0
0
0
0
0
0
0
1
1
1
1
1
0
1
2
2
1
2
1
1
1
1
1
1
6
2
2
19
4
2
18
22
14
26
37
22
32
95
45
37
206
110
68
221
127
78
219
140
86
219
136
81
225
138
92
224
135
83
209
131
75
207
129
86
185
118
84
58
51
26
52
50
30
2
5
2
12
34
13
9
38
10
11
34
12
7
24
6
11
29
11
3
11
2
1
2
1
10
19
11
3
10
3
7
16
7
1
1
1
1
0
0
0
0
0
0
0
0
1
1
0
1
1
1
1
1
1
1
1
1
1
1
1
1
1
1
0
1
1
1
3
1
7
21
6
1
5
1
10
26
9
9
30
8
10
23
8
4
10
4
0
1
0
2
5
2
0
3
1
1
3
1
0
3
1
1
2
1
1
2
1
1
2
1
3
11
3
10
28
11
1
6
1
1
3
1
5
9
6
1
3
1
4
8
5
1
1
1
1
2
1
3
3
3
44
40
15
61
54
18
64
56
18
52
46
14
37
36
11
23
25
6
38
38
10
44
43
10
45
44
13
23
24
7
24
27
9
45
46
16
60
56
12
64
61
12
67
64
16
68
65
13
61
61
15
44
43
13
56
57
21
37
43
13
38
42
13
72
70
21
70
67
18
54
48
17
44
40
20
31
31
12
47
44
16
65
59
20
72
67
13
74
73
8
65
62
8
48
42
10
61
51
22
35
35
8
44
54
20
36
49
16
28
36
11
11
15
0
43
54
19
40
58
17
43
59
10
44
59
16
39
51
13
47
63
10
54
69
11
47
58
16
36
39
8
64
74
10
64
75
11
70
78
11
74
83
5
72
81
5
71
81
5
69
82
5
67
83
6
63
81
12
56
73
11
55
81
5
54
82
5
53
79
11
44
63
10
60
82
8
62
85
3
64
86
4
62
84
10
55
75
10
57
86
8
53
83
12
38
56
9
65
77
10
66
77
6
59
78
8
58
76
11
62
72
9
62
69
13
60
64
17
58
60
14
57
62
19
13
14
3
6
6
3
5
6
4
5
6
3
4
5
1
3
3
1
3
4
2
2
2
0
1
1
1
2
2
1
6
7
2
36
39
18
33
41
17
39
45
18
25
27
6
32
31
14
44
45
15
40
45
13
52
54
22
37
35
9
68
72
21
51
54
11
61
62
17
41
38
9
24
27
6
58
59
18
62
51
11
54
52
15
51
51
11
64
68
15
57
55
11
79
58
13
89
66
10
95
67
12
96
69
14
79
65
9
81
62
14
80
62
21
79
61
14
69
53
11
51
46
15
53
43
16
62
52
15
59
48
11
63
48
18
41
30
10
54
42
11
70
53
16
61
38
11
88
40
12
112
60
22
64
35
9
73
48
13
92
61
13
75
42
7
84
51
13
86
52
12
84
48
9
80
57
12
61
43
10
63
50
10
65
49
11
66
49
11
81
68
11
69
60
14
78
67
15
78
64
13
81
66
19
72
58
14
80
69
16
74
65
13
62
58
14
75
56
16
105
52
17
67
42
17
63
49
19
54
50
14
49
48
16
36
34
8
59
57
18
54
52
17
53
42
18
49
36
16
39
22
12
25
11
5
33
21
15
25
13
7
28
14
11
26
14
11
29
16
7
33
22
11
26
14
8
17
9
8
2
1
1
1
1
0
1
1
4
1
1
15
2
2
8
2
3
4
2
3
4
2
2
5
1
2
7
3
1
10
3
1
16
6
4
18
35
30
30
34
29
28
35
29
31
25
20
27
9
7
20
18
16
21
28
25
31
41
34
35
44
38
35
40
35
32
26
22
23
38
34
30
15
14
16
8
5
10
0
1
7
5
3
20
2
1
18
1
1
10
1
1
2
0
0
1
1
1
8
4
3
17
1
1
12
2
2
13
1
1
4
2
1
3
22
17
22
5
4
12
9
7
20
41
32
36
31
25
29
41
34
39
46
38
41
20
18
22
40
32
36
40
32
38
7
6
14
12
10
20
22
16
27
44
32
38
41
29
38
43
28
36
37
26
31
20
14
21
1
1
5
1
1
2
1
0
0
1
1
1
0
0
0
0
0
0
0
0
0
0
0
0
2
3
3
10
11
13
0
0
1
0
0
0
1
1
1
1
1
1
1
1
1
1
1
1
1
1
1
0
0
0
0
0
0
0
0
0
0
0
0
0
0
0
0
0
0
0
0
1
0
0
1
0
0
2
1
0
6
2
1
8
2
1
8
3
2
15
10
6
28
13
6
17
68
47
33
112
60
42
160
73
45
230
130
62
231
138
72
195
120
69
181
106
64
193
111
77
173
98
61
174
105
65
128
85
59
63
47
31
27
27
18
27
26
20
1
3
1
15
39
15
1
8
1
4
5
4
0
0
0
0
1
1
0
0
0
0
0
1
3
4
2
1
1
1
0
0
0
0
0
0
0
0
0
0
0
0
1
1
1
0
0
0
1
1
1
1
1
1
1
1
1
1
0
0
1
1
1
1
1
1
1
1
0
0
0
0
1
0
1
0
0
0
0
1
0
1
1
0
0
0
0
0
0
0
1
1
0
0
1
1
0
1
1
0
2
1
0
2
0
1
1
1
1
1
0
1
1
1
0
1
1
0
2
1
3
8
4
3
7
3
2
4
2
5
13
5
7
13
7
4
8
4
8
13
7
29
28
11
33
30
13
27
22
7
35
32
17
30
32
16
48
48
19
58
58
22
62
58
19
75
65
20
62
60
13
58
58
18
51
52
17
59
58
16
61
62
13
60
61
19
58
57
14
61
69
17
49
50
12
63
60
19
69
66
19
59
56
20
53
56
20
48
51
15
42
39
14
23
29
7
42
55
20
50
60
15
63
70
15
68
71
11
62
73
10
63
77
13
57
63
19
54
56
18
63
72
17
63
72
21
50
62
17
59
74
18
56
73
22
43
56
16
34
50
12
41
57
15
21
33
9
27
43
13
43
73
12
44
77
7
48
75
12
54
74
12
59
81
11
64
83
12
67
82
8
71
83
5
69
81
7
69
83
7
66
85
8
59
83
12
51
80
15
46
74
15
44
75
12
43
79
10
39
75
13
41
74
16
44
73
12
48
71
11
50
74
13
50
74
17
40
56
16
56
76
19
50
73
14
48
82
16
51
77
13
43
59
9
35
53
11
26
39
9
19
24
4
14
17
2
21
22
8
17
18
3
45
46
15
46
46
21
49
47
27
38
42
16
44
48
14
56
56
20
46
48
19
40
42
21
40
37
19
10
8
4
19
21
9
37
38
17
35
37
16
25
28
11
7
8
2
2
3
1
21
20
15
22
22
13
15
17
6
13
14
4
4
4
0
21
24
7
14
16
4
15
15
7
3
3
3
8
10
4
19
21
7
7
5
2
3
3
2
9
9
4
31
34
13
60
59
20
69
56
14
91
64
10
91
67
14
96
67
17
95
68
11
95
67
10
89
66
11
84
68
10
80
66
8
75
66
15
75
62
17
73
56
15
70
54
10
74
57
18
69
50
19
74
53
18
60
40
12
57
37
13
103
53
16
110
54
22
61
36
9
87
62
17
77
55
7
84
65
11
82
65
9
86
63
10
86
62
11
85
67
11
84
63
9
82
67
15
80
59
14
71
52
14
52
42
10
36
29
11
55
49
17
57
52
17
53
46
16
39
29
4
75
65
16
49
41
9
40
35
11
47
42
16
49
37
13
43
32
12
43
42
11
59
64
12
60
65
13
54
59
16
56
64
19
57
68
22
39
40
11
52
51
22
41
34
13
73
65
34
52
46
20
35
21
10
15
5
3
10
3
2
33
21
10
29
19
8
28
18
11
4
1
1
27
15
8
35
17
11
8
2
3
11
5
12
33
21
22
18
11
19
2
1
4
1
2
2
0
1
1
1
0
2
7
4
15
1
1
5
8
5
5
6
4
5
5
3
4
3
3
7
2
1
12
4
2
10
3
2
12
1
0
9
0
1
4
1
1
3
12
12
12
22
23
19
18
16
14
1
1
2
1
1
4
5
3
18
1
1
11
1
1
7
1
1
2
6
4
3
7
4
4
2
2
4
28
19
17
14
6
8
15
10
10
14
7
8
13
7
6
1
1
2
2
2
5
12
8
11
7
4
8
40
32
36
39
30
35
39
33
27
44
31
26
43
29
30
52
38
38
18
10
20
56
38
48
48
33
41
47
30
42
77
58
46
73
56
43
56
45
37
17
14
24
3
2
14
4
3
12
5
3
5
4
2
5
3
2
2
2
1
2
2
1
1
2
1
2
3
3
6
2
2
3
1
1
3
1
0
1
1
1
3
4
2
3
3
2
3
1
1
5
2
1
3
1
0
3
1
1
2
3
1
2
2
1
1
2
1
1
2
1
2
2
1
11
2
1
16
28
22
39
19
13
42
26
20
40
18
12
26
14
9
16
8
5
5
101
57
39
153
70
45
198
90
49
240
138
64
219
119
56
236
146
69
238
149
80
230
137
75
233
144
76
228
141
74
213
131
75
187
113
69
112
71
47
85
59
42
59
50
34
13
27
9
1
1
0
0
0
1
1
1
0
0
1
0
1
1
1
1
0
1
0
0
0
0
1
1
1
1
1
0
1
0
0
0
0
0
0
1
0
0
1
0
0
0
1
1
1
0
1
0
0
0
0
0
0
0
1
1
1
1
1
1
1
1
1
1
1
2
3
10
3
14
28
13
12
25
11
0
1
0
5
8
5
1
2
1
2
4
1
29
39
15
29
42
12
32
48
13
19
43
18
7
13
6
3
6
3
4
5
4
4
13
3
14
41
8
18
41
14
16
30
16
3
13
2
19
42
17
3
14
2
15
28
14
9
17
8
38
41
21
11
14
4
11
14
6
23
29
12
32
31
12
39
35
14
28
30
9
44
45
12
55
56
16
59
66
18
54
64
19
50
51
18
35
33
13
43
50
18
47
53
19
48
50
21
50
56
16
72
72
19
69
69
19
62
62
19
47
47
13
35
40
15
51
55
22
51
52
22
52
58
20
54
63
15
57
64
15
64
68
16
63
67
15
46
60
16
47
64
19
43
52
18
39
44
18
41
51
15
60
64
21
49
52
15
62
70
16
55
66
15
64
66
18
61
63
25
48
57
23
40
52
20
34
44
19
53
68
17
55
69
11
48
62
13
54
70
16
52
74
14
47
70
11
54
84
7
54
85
6
57
87
4
58
88
5
40
59
9
18
29
6
11
19
4
5
8
2
5
11
3
17
30
9
5
15
2
16
29
9
6
14
3
18
24
13
10
16
4
16
26
8
21
31
13
26
37
11
31
42
13
22
35
7
31
37
16
5
5
1
3
2
2
2
1
2
1
1
3
0
1
1
0
1
0
1
1
1
11
11
4
14
15
6
27
27
13
51
58
19
66
76
17
56
61
17
54
60
23
38
41
18
26
24
14
57
55
37
53
52
28
57
54
21
66
58
28
59
57
29
57
60
22
61
66
28
52
52
22
53
56
21
49
50
20
42
46
20
32
43
15
41
55
19
40
56
19
39
54
12
42
53
15
48
55
20
48
50
21
42
43
27
34
34
20
46
43
23
57
55
27
46
53
18
53
60
16
60
59
13
50
48
11
44
37
8
61
57
14
61
60
16
54
56
9
65
66
13
72
67
10
69
67
15
60
60
15
64
62
13
71
70
11
83
71
12
139
84
39
154
81
37
164
81
39
180
96
33
219
142
49
197
107
39
143
75
44
92
50
21
73
45
22
79
55
22
110
70
30
144
76
33
129
66
22
101
61
21
96
51
16
70
45
17
63
30
7
85
52
26
55
36
13
71
44
20
53
41
15
58
48
17
69
55
19
84
61
15
100
73
18
74
51
15
90
56
20
133
76
21
158
86
22
162
93
32
85
54
19
103
65
26
89
64
19
47
48
17
29
30
8
54
56
19
57
56
21
38
36
14
62
58
27
60
57
23
51
50
23
13
8
3
38
34
22
14
11
5
16
8
4
19
10
6
10
6
4
27
20
13
59
49
28
78
63
40
67
51
31
68
56
32
76
66
43
41
28
26
15
7
7
13
8
7
2
1
1
1
0
1
1
0
2
2
1
2
1
1
3
2
1
6
23
20
27
10
5
12
2
1
8
2
1
9
1
2
8
3
3
6
13
10
9
2
2
2
23
22
17
24
19
13
33
25
19
20
10
6
23
14
10
9
5
5
10
5
5
31
18
16
28
15
10
31
19
9
53
35
19
35
26
15
48
31
20
29
19
11
14
9
4
36
27
18
39
32
18
38
33
18
21
16
7
28
23
12
32
27
13
32
28
15
31
28
13
40
37
19
43
37
18
43
30
14
41
28
18
26
19
14
20
14
8
41
34
20
36
30
18
28
24
14
32
24
19
45
34
22
27
17
16
49
33
41
52
35
44
53
36
37
47
34
34
46
33
35
47
33
34
47
35
33
47
38
31
30
23
25
42
29
29
32
21
24
43
26
23
48
31
30
55
34
36
60
37
40
45
25
28
46
25
25
46
29
23
37
26
28
63
43
47
66
46
44
59
52
48
52
44
53
31
22
40
29
17
32
33
21
32
27
19
35
8
4
10
5
3
5
3
4
4
29
20
9
123
71
40
140
71
39
193
100
58
201
104
53
194
100
52
231
137
64
235
139
62
234
141
66
239
151
66
221
140
61
244
164
71
241
159
71
135
80
33
163
98
61
73
52
32
38
37
20
14
12
7
9
10
6
30
31
22
4
6
2
19
22
15
1
1
1
2
3
1
10
19
10
1
1
1
1
0
0
4
5
3
9
13
9
0
1
0
0
0
0
0
0
0
1
1
1
8
14
8
10
18
10
1
1
1
2
5
1
3
10
2
4
12
4
2
8
2
10
24
9
11
25
9
4
15
2
16
42
12
15
38
9
26
43
11
40
51
18
40
49
16
36
54
17
5
20
3
26
51
20
16
33
11
19
35
12
23
52
12
20
61
10
15
38
12
25
35
10
50
64
19
40
57
10
44
64
10
33
63
12
24
43
10
33
33
8
60
57
15
51
52
13
63
65
18
71
64
15
63
57
16
45
51
14
37
42
14
21
22
5
54
57
16
65
66
17
48
37
14
62
48
26
51
50
22
39
42
15
40
47
20
39
50
20
32
34
10
48
54
18
26
32
7
55
58
26
46
49
20
45
46
20
18
19
7
22
24
8
37
41
17
27
29
12
12
15
5
19
20
9
8
11
3
12
16
5
16
20
8
12
14
8
26
32
19
30
35
14
18
20
10
27
30
12
25
27
5
32
33
11
27
28
12
39
42
20
35
40
17
10
12
4
13
16
4
8
11
2
4
5
2
13
18
5
41
57
21
40
55
18
40
65
14
36
63
13
49
69
12
53
75
12
49
72
19
42
56
15
44
55
18
29
36
10
16
20
7
12
15
5
15
20
8
25
30
16
22
29
16
19
27
15
24
37
14
30
39
17
33
37
20
28
30
15
33
32
17
50
50
32
55
56
32
63
59
34
58
50
34
66
56
48
66
57
48
70
58
41
72
58
41
75
64
46
82
71
43
95
73
44
100
70
40
108
82
44
105
81
27
108
85
33
86
76
35
52
51
27
63
58
35
80
69
42
95
72
38
104
74
41
84
69
39
71
69
29
61
66
26
73
77
27
93
81
32
105
79
31
92
80
29
79
77
29
34
40
11
30
35
10
40
45
18
50
54
20
103
81
52
99
79
53
98
79
50
101
78
57
121
87
66
113
80
46
119
83
47
51
45
22
11
13
4
7
6
2
8
4
1
5
2
1
5
4
1
25
21
6
62
56
16
64
57
16
48
39
17
49
38
16
51
42
16
55
46
17
75
55
11
132
90
34
145
89
40
126
58
22
146
74
37
113
48
13
141
80
35
118
52
26
101
47
33
55
19
9
61
28
20
73
35
19
102
47
27
153
76
38
155
89
45
89
43
18
91
51
31
78
36
10
180
107
51
116
47
15
184
103
38
188
83
30
176
81
29
168
76
26
149
72
28
193
100
35
169
87
36
162
79
36
195
103
31
228
147
31
241
177
49
236
156
44
161
85
37
173
94
49
151
75
32
75
48
15
44
32
7
96
67
31
40
40
14
16
19
8
33
35
15
65
66
31
63
59
21
48
41
20
53
43
23
53
40
21
20
11
6
12
7
3
17
10
5
38
30
17
57
50
30
55
43
26
64
50
31
82
66
38
56
46
29
27
13
12
21
8
6
27
16
10
45
31
17
39
26
13
20
11
8
22
14
14
28
21
12
49
38
20
59
45
28
69
54
31
56
44
28
47
30
20
34
20
12
39
27
10
51
36
16
37
32
11
40
32
12
42
31
12
34
24
10
39
31
19
30
29
14
42
41
17
45
43
18
44
41
21
57
58
20
53
56
20
50
43
18
45
39
19
64
49
19
63
56
25
51
48
17
37
35
12
27
30
14
27
31
13
33
38
18
37
42
20
28
31
11
36
40
22
19
20
8
13
15
7
14
17
9
3
4
1
2
4
1
26
28
14
12
12
2
9
10
2
3
3
2
12
11
8
18
13
5
37
29
17
41
34
17
50
40
19
45
32
19
47
37
19
32
28
11
29
21
7
52
37
16
52
44
14
59
54
23
51
41
21
50
40
17
63
55
19
53
49
17
62
57
26
68
52
31
52
32
17
54
41
23
61
58
33
54
59
25
58
60
26
53
42
24
71
53
36
62
54
37
49
39
33
19
12
13
28
19
15
20
14
7
15
8
3
45
29
18
40
27
23
21
14
12
43
29
14
75
56
29
76
55
27
74
54
22
87
60
26
91
56
26
159
85
46
181
86
49
192
98
60
168
85
46
138
75
40
176
93
46
222
128
65
198
119
58
230
147
73
111
71
39
19
20
11
20
23
13
29
29
18
4
5
1
1
3
1
1
2
1
1
1
1
1
1
1
1
2
1
1
1
1
1
1
1
1
2
1
3
4
3
0
1
0
0
0
0
0
0
0
0
0
0
1
3
1
11
20
11
10
12
8
29
36
24
31
43
24
36
50
33
33
54
22
38
59
22
32
50
22
50
73
20
53
70
11
53
71
18
39
58
12
34
55
23
11
29
9
12
29
11
2
5
2
18
35
14
15
40
11
16
53
9
16
53
11
10
29
7
9
18
4
31
59
15
42
65
9
50
57
11
57
74
12
49
78
11
35
59
13
55
60
16
63
65
15
63
64
17
57
61
13
65
67
19
57
62
16
54
64
19
54
64
23
54
60
18
66
69
21
64
63
18
60
52
21
30
23
8
54
45
22
55
49
22
41
39
16
34
39
16
22
25
9
32
39
15
34
43
15
20
24
9
38
41
21
36
37
20
16
16
7
20
23
14
3
5
1
2
3
1
0
1
1
2
2
1
0
1
0
2
3
1
15
15
6
25
23
8
23
21
7
17
16
3
41
35
20
69
54
44
60
47
34
65
51
38
66
50
37
73
58
42
72
57
39
76
61
41
79
62
42
91
66
44
75
59
40
65
59
33
46
65
22
17
26
9
2
4
0
5
9
1
30
34
17
15
19
5
42
60
15
61
78
10
66
73
11
92
78
36
102
77
43
143
100
60
109
70
44
93
65
45
27
29
17
22
25
11
52
61
29
91
70
32
127
88
46
144
105
55
150
96
53
135
90
52
107
75
51
117
73
48
123
76
49
128
81
50
89
57
36
89
66
42
121
82
59
132
80
55
137
78
37
171
91
43
196
97
48
183
88
43
213
129
52
201
117
49
151
89
47
65
42
16
77
59
24
146
97
50
181
104
46
153
85
36
72
56
16
56
52
15
139
87
49
145
88
32
181
110
43
174
94
43
67
59
13
45
55
14
59
69
23
85
79
31
101
78
36
92
70
30
135
82
41
94
70
33
86
72
32
124
81
50
174
94
55
138
69
32
159
88
48
80
53
28
60
48
34
52
44
34
60
47
38
56
43
36
88
47
37
108
52
34
118
59
31
138
67
28
133
64
28
149
69
19
163
79
20
183
94
36
161
73
23
217
136
53
196
104
39
206
110
37
216
114
30
219
135
51
215
126
42
160
70
34
109
43
27
46
19
9
52
29
20
67
33
19
90
38
20
137
59
28
135
72
33
77
27
4
180
92
46
161
82
25
241
166
61
186
102
37
222
162
48
234
157
24
242
165
26
226
151
30
129
65
17
189
111
43
191
111
46
213
120
52
190
103
21
243
165
41
207
117
28
230
148
44
189
102
35
194
121
53
217
131
46
127
82
34
90
50
19
140
75
36
47
42
17
11
13
5
44
38
16
63
44
19
47
38
15
35
28
12
40
37
17
55
43
21
64
45
24
81
55
28
83
56
35
68
48
26
61
49
26
41
27
15
51
36
21
64
51
23
66
55
22
59
51
24
59
53
25
44
40
17
47
40
18
47
43
18
35
25
11
27
17
7
45
38
14
60
52
17
61
51
26
68
60
24
67
64
22
61
50
19
44
37
16
57
56
16
50
53
14
45
52
19
45
52
20
34
33
11
39
35
16
31
29
15
22
23
12
35
35
15
22
22
8
8
10
4
25
31
10
7
13
2
5
4
1
16
17
3
59
51
23
56
56
21
42
53
18
27
33
12
16
23
12
42
46
13
56
54
19
56
55
22
54
61
19
29
37
13
24
31
11
30
40
15
22
33
16
39
47
14
60
66
18
61
56
21
62
58
24
55
54
23
49
46
24
48
41
21
53
47
24
42
35
15
38
37
14
48
51
18
40
40
15
48
54
23
43
56
21
55
61
26
44
38
14
66
64
24
52
57
20
48
46
23
38
34
14
51
58
18
44
61
19
50
57
21
49
38
18
42
34
15
54
54
19
56
57
17
72
72
29
56
58
18
63
60
24
60
60
25
41
46
21
20
19
10
17
16
5
45
44
19
48
49
23
48
51
18
52
54
19
47
47
15
40
38
14
40
41
19
55
59
24
49
55
21
45
52
19
47
53
18
33
36
12
80
62
24
91
63
23
88
66
22
64
55
19
62
48
19
86
58
23
138
83
40
108
72
28
196
118
59
189
114
70
107
74
44
64
53
24
33
34
14
31
36
17
6
10
4
0
1
1
1
0
0
6
6
4
14
14
10
5
6
4
1
1
1
20
20
15
7
8
4
4
3
2
2
3
1
1
2
1
8
9
3
33
38
17
24
26
12
5
3
1
30
29
20
16
19
9
11
16
7
33
59
19
32
67
13
27
60
14
33
73
13
39
74
12
31
64
16
17
51
14
12
31
11
16
43
16
13
38
14
8
13
8
2
6
2
15
33
12
4
23
3
13
29
11
1
4
1
17
27
9
35
50
19
34
50
16
23
34
12
31
50
16
16
37
9
17
36
12
33
47
19
11
22
8
2
3
1
4
7
2
3
5
1
2
3
1
9
9
3
51
49
21
59
61
21
37
43
16
17
21
8
22
23
11
51
49
25
55
49
22
52
49
24
55
54
18
58
62
16
45
58
19
67
74
16
69
74
16
24
31
6
19
28
9
25
36
16
22
31
11
31
45
18
48
57
18
60
65
17
58
65
14
59
60
16
42
41
8
58
58
17
65
60
17
73
66
16
77
74
25
71
71
17
82
73
25
147
107
78
129
87
57
157
109
73
180
122
85
193
138
97
146
97
54
159
106
63
154
99
57
186
129
89
106
75
35
108
85
35
37
48
15
41
50
17
39
46
15
39
49
19
56
65
19
35
45
14
40
52
13
68
81
11
72
77
9
108
79
36
123
77
37
171
100
48
139
73
33
113
71
34
81
65
33
81
67
31
85
61
19
141
82
32
208
129
50
226
149
53
209
121
47
225
145
58
214
129
52
214
129
55
171
92
43
232
148
55
220
138
46
219
144
47
219
142
45
230
142
52
212
107
45
178
91
38
161
81
36
129
68
31
185
112
43
152
92
29
147
91
36
124
80
25
148
91
39
125
76
31
105
69
24
89
63
23
61
54
18
65
52
13
157
85
35
193
113
40
233
144
47
168
90
33
43
40
14
23
26
12
34
38
14
89
73
27
113
78
38
79
61
22
95
68
22
99
68
24
129
74
30
171
101
30
238
154
42
229
127
29
233
118
33
216
123
32
184
102
34
145
69
15
151
70
21
135
57
15
211
114
34
229
131
35
205
105
25
224
117
26
209
119
19
239
160
25
240
157
26
228
122
23
219
134
27
246
190
49
218
132
41
231
137
42
229
128
39
196
88
30
205
104
35
141
61
32
122
51
23
33
11
3
33
15
6
131
77
38
146
76
31
171
93
28
174
110
39
110
64
27
164
87
40
199
112
39
233
149
43
199
103
29
229
166
46
232
157
29
226
154
29
240
185
34
112
73
12
104
61
19
141
81
33
127
73
34
110
53
10
226
127
39
225
124
34
232
154
47
181
106
33
212
131
50
218
137
41
81
49
13
112
60
25
146
75
29
58
48
15
22
22
7
80
65
22
101
75
26
65
58
19
44
44
15
41
44
16
52
48
22
61
49
20
86
68
23
81
67
21
76
64
24
61
48
15
72
58
27
63
45
21
60
45
18
59
46
17
45
33
12
29
26
9
18
17
6
11
8
4
24
21
10
29
26
14
49
47
22
46
45
19
28
26
6
23
21
9
26
24
7
22
24
5
5
7
1
3
5
1
17
22
6
10
14
3
2
3
1
2
3
0
1
2
1
1
1
1
17
16
10
4
5
2
27
27
18
3
3
2
1
2
1
0
0
0
0
1
0
12
17
5
31
38
19
13
16
5
15
18
5
3
6
1
6
9
4
20
28
11
50
55
20
31
26
7
30
27
9
38
43
12
35
45
17
46
54
21
49
65
19
43
65
25
47
70
19
41
56
13
30
31
11
32
40
18
20
28
12
30
30
14
34
33
14
50
57
17
41
53
12
30
41
12
43
58
23
50
66
18
47
62
10
54
69
17
51
70
14
60
73
15
60
77
15
63
84
20
52
64
21
18
23
5
30
47
14
49
73
19
39
45
15
36
38
15
44
52
18
55
69
18
56
71
14
59
70
17
50
58
16
53
67
21
40
54
19
30
47
17
19
32
10
37
57
17
45
62
19
24
31
10
29
37
13
25
38
13
40
54
18
37
49
17
21
30
14
21
34
13
32
48
20
30
42
15
27
39
14
25
39
14
29
41
14
17
28
11
28
47
14
23
48
13
20
44
11
40
55
17
57
57
18
40
60
14
87
70
27
123
87
39
142
92
49
143
85
44
152
94
54
120
74
39
72
47
27
61
43
23
47
30
14
32
26
17
43
43
33
38
39
30
6
6
1
37
37
25
37
38
26
76
72
55
60
59
44
95
88
75
113
98
78
114
96
67
120
96
70
107
87
64
96
84
53
98
84
55
104
95
68
87
93
59
38
66
15
33
58
11
44
72
17
23
51
14
15
33
13
9
24
8
3
8
2
9
23
8
16
36
14
14
29
12
10
22
9
2
5
1
4
12
3
14
25
13
1
1
1
6
10
5
6
19
6
13
37
11
21
48
16
14
33
11
14
32
11
18
32
15
2
3
1
0
1
0
2
3
1
4
7
1
28
50
18
30
53
22
24
27
14
25
22
12
7
7
2
1
2
0
1
1
1
1
1
1
8
8
3
22
24
13
27
29
12
41
44
15
75
75
19
80
79
20
85
74
17
89
74
19
51
52
17
28
44
16
31
48
18
37
52
17
60
74
15
71
79
14
78
78
11
75
76
11
72
74
10
74
75
10
72
77
8
74
74
8
78
71
13
74
74
9
74
78
5
85
76
16
109
80
34
83
70
20
72
56
19
82
60
18
99
78
14
92
79
9
96
77
12
98
69
17
88
66
22
54
53
18
62
71
22
36
51
20
33
38
10
59
59
21
53
56
16
68
74
9
63
76
12
65
76
13
74
82
6
82
81
4
152
103
46
168
105
45
229
154
78
207
120
52
220
139
56
196
114
48
194
106
44
206
115
41
221
132
51
220
132
43
226
142
51
189
116
43
206
134
51
201
119
39
204
132
61
154
91
39
233
145
47
246
162
49
241
163
42
241
166
37
210
136
43
85
44
13
32
21
6
53
40
19
45
39
14
49
40
8
41
39
10
64
59
11
75
72
13
67
60
12
40
30
9
21
17
4
18
15
5
16
16
6
26
24
9
28
19
5
49
28
4
107
65
21
106
70
28
48
46
21
30
30
14
36
39
17
58
60
20
48
45
11
57
55
17
61
61
19
75
61
17
98
64
18
151
89
28
213
141
36
232
162
42
248
185
40
250
197
41
245
181
40
249
189
49
245
173
35
244
166
33
250
201
43
251
218
46
250
218
50
253
221
43
250
224
38
252
229
31
251
224
32
237
183
32
243
193
40
240
197
38
202
121
38
218
129
43
228
154
58
213
156
51
236
184
50
196
134
36
230
152
45
170
107
43
161
87
43
191
109
38
201
113
39
226
131
31
230
148
42
127
74
25
134
67
29
212
128
48
215
133
43
209
114
33
234
129
33
237
140
34
209
96
26
219
117
29
116
69
16
68
51
13
70
56
17
23
13
1
80
39
8
214
106
38
173
86
22
107
64
16
85
53
15
174
96
33
207
112
38
90
53
11
92
56
16
106
68
21
56
52
14
44
44
14
63
59
18
78
72
25
44
46
8
48
52
14
57
64
24
65
71
19
67
72
17
71
73
19
66
67
21
65
67
22
65
64
17
65
58
22
55
39
19
47
41
19
15
14
4
3
2
1
1
1
1
1
1
0
17
11
7
19
13
7
32
28
19
10
11
4
6
8
3
1
1
1
0
1
1
0
2
1
1
3
2
1
4
2
1
4
2
1
3
2
0
3
1
0
1
0
1
2
1
2
2
1
34
37
17
28
35
13
22
27
14
19
24
14
31
34
15
27
30
15
7
10
3
11
17
6
30
36
18
17
20
7
9
9
2
40
41
19
25
29
12
8
12
6
26
31
13
43
45
19
38
43
17
31
44
18
21
32
15
3
5
1
21
34
10
33
58
17
14
35
8
14
27
10
22
27
9
40
47
23
31
46
19
41
61
18
47
67
16
45
57
10
61
75
10
54
76
12
47
62
16
35
42
10
58
69
15
60
80
13
65
81
13
68
87
12
70
86
12
66
88
10
60
84
12
61
90
12
53
82
15
55
82
13
53
86
13
56
73
9
54
70
13
49
73
14
56
78
8
61
78
10
54
66
13
37
46
11
42
62
17
26
46
8
45
76
16
38
69
12
41
81
16
35
70
19
21
39
10
4
11
2
3
11
2
4
12
1
8
15
3
2
5
2
16
23
12
15
26
10
32
46
22
8
17
6
25
43
23
8
19
7
6
15
5
17
39
16
12
35
13
12
39
11
20
56
17
22
55
15
18
46
12
5
19
3
42
52
18
107
77
36
122
78
39
190
119
58
218
125
53
201
117
66
209
124
65
206
117
62
181
106
63
163
96
60
160
92
60
125
71
48
149
93
65
108
67
45
49
31
19
12
12
4
22
23
10
48
40
17
51
50
18
63
54
17
59
59
16
50
55
13
59
58
16
56
65
14
36
67
14
21
52
9
26
44
15
21
35
11
4
17
3
9
24
9
2
6
2
1
3
1
3
8
3
15
35
13
18
38
15
18
33
16
5
17
5
17
38
15
16
40
13
8
21
7
12
26
11
17
39
17
11
39
9
16
51
10
9
29
5
26
59
14
23
46
13
32
39
12
6
12
3
38
40
28
32
33
11
61
71
24
43
54
15
57
60
24
29
34
13
30
35
17
26
28
14
25
25
14
22
25
16
18
19
8
25
26
10
27
29
15
29
30
19
7
9
1
21
23
6
16
15
2
39
33
11
36
43
18
33
45
16
46
54
23
37
44
14
60
75
20
46
66
14
54
67
12
50
63
10
58
75
14
57
72
10
60
79
5
63
78
6
67
76
10
66
75
10
69
79
5
72
78
8
81
77
10
70
79
9
64
76
16
65
72
12
72
78
10
69
79
7
68
74
10
60
61
13
42
43
9
54
57
19
45
52
13
32
37
9
47
52
16
55
61
12
66
73
13
67
77
8
65
79
6
65
77
12
64
67
12
77
82
4
84
82
3
102
79
7
137
86
20
130
76
12
136
84
18
125
78
16
113
77
13
99
71
7
100
68
6
99
65
7
126
74
24
109
66
20
110
71
20
98
65
19
78
51
17
88
51
18
161
72
20
198
106
40
196
101
31
223
136
45
120
77
21
64
61
15
43
51
18
44
54
22
44
51
21
34
38
15
28
31
15
29
28
13
53
48
14
65
63
19
18
17
4
58
47
19
52
44
13
45
42
13
48
42
14
38
31
7
26
14
2
90
58
31
66
52
19
23
20
4
48
36
14
63
60
14
75
76
17
80
75
14
79
70
19
79
73
19
81
74
9
81
74
7
80
68
11
90
53
14
143
70
24
216
125
34
226
141
32
196
118
29
198
131
36
222
148
38
224
147
36
235
176
37
250
213
39
247
212
36
249
210
29
251
222
27
251
215
23
242
189
23
236
164
28
214
122
24
239
163
37
154
76
18
195
105
39
154
75
21
223
174
56
241
185
32
248
190
35
223
138
26
218
130
45
212
124
45
199
110
41
180
89
31
185
94
39
194
116
48
102
54
18
169
94
34
239
181
51
238
185
41
200
131
37
192
94
24
179
90
24
124
53
20
139
62
24
71
40
9
71
56
19
77
61
19
54
43
13
81
52
14
167
86
36
90
63
22
47
46
20
31
32
13
58
35
8
137
72
30
63
48
16
65
55
13
75
71
15
70
70
15
57
54
13
69
66
19
52
53
16
63
70
22
50
55
16
42
44
17
37
47
13
47
65
20
57
65
21
54
56
21
38
39
10
47
53
17
49
55
20
46
52
20
55
66
24
64
65
34
51
41
27
32
26
14
23
25
10
41
32
20
33
25
16
18
18
8
36
44
21
46
47
26
52
48
31
50
46
28
50
43
27
55
54
31
53
54
25
38
32
14
37
30
14
40
38
19
22
21
8
57
52
18
63
56
21
79
71
20
69
62
19
44
40
16
37
38
20
46
47
22
35
41
18
38
46
18
47
55
21
55
62
15
60
70
20
61
67
17
66
71
18
65
64
22
38
38
14
43
48
18
64
69
22
57
71
15
51
71
20
29
42
13
27
42
13
35
57
19
17
33
10
7
14
6
2
3
2
26
33
15
25
33
12
17
25
6
59
73
22
64
82
14
65
82
10
66
79
6
62
75
11
52
62
16
55
66
19
49
64
12
47
73
14
33
50
12
52
83
13
44
74
10
56
87
12
50
84
9
56
89
7
64
86
8
66
85
9
58
85
9
61
80
8
66
77
10
59
80
10
58
80
6
59
79
8
49
67
14
49
70
13
52
79
9
49
78
10
50
81
7
49
81
9
46
79
8
38
65
12
32
60
20
24
56
19
22
52
12
39
69
12
38
67
15
13
31
6
3
9
2
12
23
11
8
22
6
3
11
3
8
23
7
10
32
7
10
35
10
10
25
9
2
4
2
6
13
5
6
26
5
19
53
16
3
14
2
2
6
2
28
42
17
76
67
32
86
64
29
139
93
48
220
142
71
168
97
38
243
152
53
240
143
55
239
144
55
245
152
57
244
152
61
238
148
65
232
143
65
222
134
68
177
112
66
154
100
64
122
72
46
180
116
77
102
69
36
169
115
73
114
81
44
93
67
36
102
72
41
63
66
24
57
69
25
23
48
17
12
28
10
18
32
16
3
10
3
16
29
15
3
7
3
1
3
2
2
3
3
8
19
6
17
36
15
17
39
14
3
9
3
11
26
9
13
29
11
3
11
2
5
15
4
6
17
5
17
35
11
27
63
18
22
40
8
43
63
15
38
52
19
68
72
13
56
57
17
48
45
19
57
50
16
77
64
16
82
67
18
76
67
17
56
58
14
56
61
22
46
43
15
50
47
17
47
48
15
50
48
12
57
55
15
38
38
11
29
27
7
22
21
3
27
29
6
28
29
4
51
52
16
49
56
14
64
67
14
55
53
15
44
43
11
58
61
14
40
49
11
55
60
15
70
74
14
74
77
15
48
53
7
61
80
9
53
80
10
52
73
16
47
61
15
48
66
12
43
58
12
49
60
13
49
62
13
50
64
11
70
78
8
71
77
6
68
78
7
69
77
7
71
78
5
71
80
10
72
82
8
71
81
8
73
79
11
75
79
8
74
80
4
73
80
5
69
80
8
65
78
7
65
79
7
67
75
8
70
78
6
68
80
3
70
81
3
71
82
6
68
77
17
41
47
9
55
66
20
47
61
15
50
63
14
67
75
10
63
71
4
60
69
5
59
66
14
42
50
15
24
30
8
12
15
4
30
31
15
60
51
17
86
68
20
101
68
18
151
89
31
96
72
20
64
62
19
16
19
3
2
3
0
7
8
3
17
19
11
7
9
3
24
24
10
50
45
14
68
66
17
59
54
20
113
75
24
107
72
15
103
77
19
98
73
13
106
75
19
106
69
25
108
65
21
90
68
12
74
59
13
134
78
35
114
76
19
73
67
11
54
50
13
23
18
3
31
31
11
51
55
13
62
66
12
71
62
9
119
67
24
205
107
44
226
125
33
241
156
41
224
143
34
247
185
35
243
178
29
247
191
28
251
209
31
243
185
26
245
166
32
235
136
24
221
146
29
228
139
30
222
114
31
197
92
22
144
56
15
176
88
30
117
49
18
152
70
39
97
36
13
182
106
47
196
98
22
239
148
33
192
104
27
175
85
29
182
97
36
117
57
19
145
72
35
107
49
18
140
76
35
69
36
8
111
59
15
193
113
37
192
100
26
135
60
11
206
119
42
220
129
43
146
66
17
134
69
25
94
72
11
86
80
11
84
81
13
81
80
13
79
72
11
108
66
19
59
45
16
20
19
6
59
48
23
40
27
5
110
64
23
69
65
11
70
74
11
65
77
15
62
77
18
69
82
15
69
82
14
67
76
15
65
81
15
45
54
14
15
15
3
11
15
4
24
33
14
24
29
10
50
62
19
46
59
17
33
37
8
27
34
13
32
44
13
49
64
24
63
66
28
61
52
35
69
59
35
51
54
24
46
43
25
57
50
33
66
60
28
65
70
21
50
49
20
59
48
23
67
56
26
45
37
17
62
57
23
63
64
23
69
63
29
66
56
27
53
53
19
65
63
17
76
72
13
79
74
13
81
77
14
76
69
22
56
48
19
16
15
5
33
36
21
30
38
15
46
54
21
44
51
15
67
78
13
61
77
11
54
70
13
55
69
13
63
71
18
62
68
19
67
81
15
63
81
12
62
82
10
60
80
11
50
68
14
49
70
16
34
50
13
37
44
14
22
29
7
35
35
15
45
47
17
49
54
20
34
41
8
45
58
14
50
68
10
63
86
9
62
85
7
56
73
10
44
59
13
44
60
9
59
77
10
55
80
11
52
80
12
54
84
7
54
84
8
60
84
7
65
86
11
55
86
6
78
85
10
71
84
9
59
84
6
60
82
9
62
80
8
54
77
12
50
78
12
49
81
12
30
52
10
37
63
15
35
57
11
38
63
12
32
66
12
33
62
13
37
64
12
44
69
18
26
49
17
22
48
17
26
60
15
38
74
11
36
72
12
26
67
14
19
59
14
19
46
14
28
64
17
20
57
14
14
50
12
12
49
11
8
42
9
13
31
12
5
9
5
2
3
2
5
16
5
7
26
6
6
11
6
0
1
0
7
17
6
7
19
4
30
36
11
118
86
43
202
126
59
181
123
57
243
164
68
239
159
75
229
148
66
228
148
63
227
151
66
197
134
55
220
150
70
214
147
69
212
146
74
215
150
79
205
146
83
227
165
87
110
87
31
198
150
83
130
98
50
134
102
60
158
115
74
122
101
64
119
98
66
13
23
10
16
28
15
12
23
10
4
10
3
5
13
5
4
11
4
10
20
9
16
29
15
5
12
4
13
23
12
13
26
11
14
33
8
13
33
10
11
31
11
12
36
8
26
58
15
30
57
12
32
59
15
34
59
11
50
68
15
55
66
17
23
35
10
59
54
13
67
59
17
49
46
12
71
69
20
45
42
8
64
55
18
60
51
14
60
54
15
68
65
15
72
61
17
63
57
17
65
63
16
70
68
13
74
77
12
75
76
15
79
74
14
78
72
14
78
76
16
82
76
15
84
79
14
83
80
13
82
76
13
83
78
15
81
79
17
79
80
8
80
81
13
80
81
8
84
80
8
81
76
16
71
75
15
51
77
17
32
70
14
39
60
12
37
40
10
55
64
16
46
53
12
25
28
6
31
34
6
67
73
10
73
76
6
73
77
6
70
78
6
71
77
7
71
79
7
69
79
11
72
81
8
73
80
7
75
81
8
74
81
7
74
82
6
75
83
6
69
76
8
70
75
12
64
69
9
70
77
5
69
78
5
67
78
4
62
71
7
66
74
17
33
43
11
34
48
19
25
37
13
27
35
16
13
17
3
45
53
10
58
76
11
42
68
12
43
64
15
47
66
18
42
61
15
52
60
20
33
36
15
38
44
19
35
42
16
37
38
13
44
37
16
34
32
9
28
34
12
29
36
15
37
40
20
19
20
10
17
19
9
42
44
18
43
45
16
53
56
23
40
50
15
38
37
9
105
70
20
112
72
18
100
76
15
98
77
13
89
71
15
94
67
18
100
65
17
85
66
14
87
62
14
151
82
33
113
68
23
38
35
11
4
4
2
2
2
1
4
4
2
28
27
8
64
59
19
52
48
13
57
47
10
161
91
38
179
90
30
185
98
36
170
90
32
217
133
29
228
137
27
247
178
28
246
191
29
240
169
36
209
124
35
189
93
36
169
82
28
209
122
40
208
116
38
186
101
43
78
44
20
70
41
15
59
30
10
140
80
45
63
24
4
161
77
40
162
65
29
219
134
47
142
79
27
132
82
42
60
36
8
82
57
21
91
57
20
49
39
11
48
41
13
49
46
16
65
50
15
100
49
21
144
54
31
93
39
18
153
79
27
161
81
22
134
74
29
102
62
21
96
74
12
75
73
15
67
66
16
59
60
15
57
55
14
83
66
23
40
35
14
14
10
2
72
56
27
37
29
9
81
59
18
60
69
10
56
75
14
58
74
15
41
68
16
41
77
21
45
70
19
52
61
13
63
72
16
66
69
21
65
63
22
57
62
15
50
57
21
56
60
20
63
69
14
66
70
14
65
65
20
56
64
25
46
60
19
51
62
16
53
67
16
57
68
23
65
68
21
72
68
30
71
70
33
82
79
35
79
72
41
47
47
25
53
52
23
61
61
24
37
39
16
47
51
28
40
48
22
19
24
7
52
57
25
26
32
13
24
34
12
60
70
14
64
70
17
67
68
20
56
59
16
55
61
19
71
71
21
58
64
18
45
59
14
45
58
15
55
61
21
47
48
14
70
84
15
56
80
16
26
43
9
37
58
17
39
61
16
18
33
5
40
69
17
44
73
15
38
65
11
36
61
12
51
72
16
50
70
12
66
78
16
63
81
14
57
77
18
63
70
16
70
78
13
66
83
13
67
82
8
72
82
10
68
84
10
73
85
12
51
88
7
57
88
9
54
80
9
62
86
11
63
85
5
64
85
4
56
85
7
53
85
9
47
85
8
47
83
9
53
82
7
53
84
6
58
84
7
62
84
8
65
83
5
57
84
8
52
87
13
43
83
12
46
82
16
36
73
16
31
57
21
6
16
5
26
46
17
35
61
17
8
27
4
11
23
10
7
18
4
27
46
15
19
43
14
10
37
10
4
21
5
16
40
13
8
31
6
13
53
13
9
61
8
15
61
13
8
53
9
6
37
6
12
46
12
5
33
8
9
32
10
3
8
3
2
3
2
1
1
1
4
8
4
7
15
7
4
7
4
1
1
1
1
2
1
14
12
6
19
22
9
58
38
17
141
82
49
155
92
44
221
137
69
220
142
73
218
141
66
218
141
72
211
134
72
195
125
65
198
118
70
209
131
69
218
144
68
198
135
74
163
107
60
197
140
78
79
66
17
155
118
73
86
66
30
103
86
48
68
64
25
80
79
37
55
52
28
5
8
4
7
16
6
14
24
12
6
13
4
17
36
16
18
33
14
27
51
15
23
52
19
7
17
6
17
29
12
31
58
14
30
70
15
16
52
8
18
50
14
29
65
13
49
76
15
40
58
15
38
66
14
32
73
12
34
76
9
43
83
10
52
86
19
49
45
13
67
57
18
64
56
13
76
70
17
60
53
16
44
38
18
46
40
19
51
45
14
66
62
17
70
63
16
69
63
13
71
67
18
61
61
16
45
53
11
53
56
13
55
47
12
43
37
8
58
56
13
64
56
13
63
57
14
61
58
13
46
43
10
64
58
16
55
50
11
71
69
13
72
73
11
79
82
10
78
77
16
48
47
15
40
53
17
27
45
11
37
63
15
57
78
19
50
56
13
71
77
14
68
73
14
64
68
21
63
67
17
71
73
10
68
67
11
74
72
9
74
76
6
70
71
9
73
77
8
73
77
8
76
77
9
69
68
13
63
61
13
78
81
9
77
82
5
77
81
4
78
81
6
77
79
10
56
60
8
68
74
7
70
76
7
71
76
4
62
64
10
57
55
10
58
60
17
67
74
17
70
75
13
61
67
19
49
54
15
50
59
19
43
56
16
22
37
10
18
29
8
21
34
10
29
41
14
41
43
14
50
47
22
30
32
12
54
57
17
48
50
14
39
36
13
21
23
11
29
37
18
14
19
6
6
7
2
29
24
11
71
54
22
54
48
17
52
50
18
51
51
21
40
43
16
58
49
20
72
52
20
74
50
17
67
55
17
61
51
10
84
71
19
58
53
17
48
44
11
61
56
14
52
45
13
83
55
20
64
53
20
43
41
15
25
21
14
22
20
5
42
45
12
55
57
15
72
68
12
68
68
11
70
69
9
79
67
7
74
61
10
71
57
13
85
64
17
120
70
19
147
74
22
220
127
29
246
166
36
226
125
30
169
90
30
147
81
36
152
70
22
203
106
33
194
99
34
181
96
48
119
62
28
160
84
42
147
77
39
166
83
39
108
56
24
116
56
24
111
49
20
217
144
52
116
68
21
89
61
29
48
40
8
83
62
21
71
49
19
36
35
16
41
46
18
38
41
19
25
24
11
24
22
9
64
46
18
57
48
14
59
49
14
75
67
15
73
66
16
70
59
13
85
67
15
44
37
10
12
12
2
11
14
5
19
21
5
22
21
6
27
30
9
39
48
12
48
56
13
37
53
10
43
59
16
51
70
16
46
69
17
46
64
14
47
77
14
35
69
19
30
56
22
44
69
24
31
48
15
13
16
6
21
19
7
38
37
10
23
25
6
22
25
7
33
37
9
37
39
11
7
8
3
21
25
8
55
59
17
75
77
14
55
68
17
62
67
17
69
67
17
66
63
19
59
69
24
59
71
25
59
60
31
20
20
11
23
23
8
31
31
11
39
38
25
36
34
17
42
43
23
27
29
15
50
50
23
54
53
23
62
68
21
63
74
18
64
64
18
38
35
14
3
3
1
39
43
15
44
46
14
61
70
19
42
59
12
48
64
18
70
79
23
73
75
26
45
60
19
19
35
10
19
27
8
28
38
10
30
49
15
35
49
23
3
9
1
3
12
3
19
35
16
17
34
12
41
57
16
66
87
17
70
87
12
68
84
13
68
86
12
74
79
9
76
78
12
65
82
10
66
84
7
65
80
6
58
82
11
53
81
9
55
81
8
50
88
8
48
88
11
49
74
13
45
67
11
55
79
13
40
67
13
34
63
11
24
57
12
29
61
15
37
62
12
46
70
10
45
78
8
45
82
11
47
81
8
52
77
14
38
64
12
40
80
21
33
72
16
24
56
13
21
41
18
12
23
8
18
31
14
6
15
5
11
19
11
0
1
0
0
0
0
0
0
0
4
7
3
3
11
3
4
13
4
19
28
16
4
8
3
3
16
4
7
33
9
15
32
14
6
26
7
10
30
9
10
33
10
7
19
7
11
27
11
1
4
1
0
0
1
1
0
1
0
1
1
1
1
0
6
9
5
0
1
0
9
13
6
42
35
23
52
54
25
88
67
34
141
94
56
169
118
58
226
156
79
195
131
63
218
152
71
240
171
87
204
135
66
203
141
68
222
153
72
239
164
61
238
169
72
176
122
59
155
103
62
218
152
91
89
74
29
160
111
69
115
73
33
108
74
39
87
74
34
59
66
23
15
30
10
10
24
7
23
48
18
6
16
4
1
9
2
21
48
18
33
54
18
33
65
18
21
61
12
22
52
12
38
51
15
28
53
12
23
69
11
22
72
11
51
72
19
54
68
13
55
81
8
44
76
15
17
51
6
11
44
6
7
42
4
21
68
10
25
68
14
51
43
13
65
55
16
61
53
14
51
50
12
50
49
17
40
40
15
30
33
17
34
35
11
45
47
15
42
44
15
36
35
10
28
28
7
37
36
12
38
36
13
41
38
18
36
34
14
32
35
8
38
41
13
65
58
23
46
42
17
44
44
17
29
29
10
59
55
21
38
35
13
54
52
20
45
48
9
76
81
15
68
68
13
58
57
11
72
74
16
42
47
13
25
35
10
25
34
8
61
63
18
43
50
9
55
61
19
37
41
11
35
41
11
41
45
12
29
31
8
50
51
11
76
77
9
72
75
6
72
77
6
68
74
10
57
58
8
77
77
15
51
50
8
70
73
14
79
82
7
79
81
5
80
78
5
77
81
6
73
81
6
70
80
5
70
76
8
66
67
9
70
69
8
75
70
7
69
61
9
67
71
11
70
77
11
68
73
13
68
76
17
61
71
17
49
58
14
28
34
11
6
6
2
22
25
12
17
19
6
63
37
18
81
52
25
59
45
18
131
82
40
83
63
14
76
64
19
41
39
16
25
29
10
35
36
15
51
36
12
112
58
23
142
80
28
71
56
15
53
53
20
40
42
12
56
53
20
48
50
15
56
68
20
46
54
17
57
59
17
49
50
12
70
67
16
49
57
17
47
60
14
60
65
20
44
48
12
47
51
14
44
53
13
58
64
14
52
56
14
63
64
13
69
73
10
71
73
9
72
72
8
64
67
14
56
63
12
68
69
12
71
63
17
41
36
12
50
53
15
55
59
15
56
47
12
125
68
17
215
118
38
187
94
31
117
67
20
64
56
15
86
65
18
160
91
36
166
91
35
128
76
31
107
61
19
173
92
38
200
113
45
182
96
40
127
77
34
57
44
15
105
63
29
170
95
33
93
52
18
50
47
13
55
54
13
76
67
11
81
68
16
52
46
13
53
54
22
48
50
20
39
36
15
24
24
11
25
26
7
60
59
18
42
41
13
58
57
18
66
63
18
48
48
14
41
39
10
54
56
16
56
69
19
50
65
24
59
64
23
53
60
20
58
70
15
48
67
15
54
71
14
54
74
10
41
60
11
16
37
8
37
66
14
40
71
12
32
57
14
26
43
16
37
58
23
49
65
17
52
67
20
34
37
11
41
36
9
45
48
13
52
64
18
59
67
21
55
60
19
51
56
15
51
57
16
60
64
17
76
77
17
81
81
11
80
79
14
65
68
21
39
49
19
40
39
14
56
54
19
37
40
12
43
46
15
57
58
20
63
65
29
70
71
23
67
69
30
73
68
32
61
53
27
35
42
20
39
45
25
25
23
9
24
25
5
51
52
18
55
54
27
62
54
33
16
15
8
11
13
6
25
27
9
56
68
19
26
40
11
35
47
12
71
79
16
71
71
20
14
20
4
5
11
2
55
64
18
69
83
18
39
51
13
40
54
24
36
43
21
8
14
4
21
29
9
58
64
17
72
81
13
67
87
12
68
87
15
50
62
12
71
87
12
70
85
9
72
83
11
58
82
12
44
71
14
42
61
13
37
63
13
41
69
16
11
26
3
32
61
12
24
47
9
8
16
5
19
29
9
26
40
10
21
35
16
12
22
9
15
30
12
19
35
13
19
30
16
46
64
19
48
69
17
36
67
11
42
73
17
36
58
17
17
33
8
32
58
22
36
60
23
27
48
17
20
32
13
33
49
18
29
50
18
1
10
1
1
3
0
0
1
0
0
0
0
0
0
1
1
1
1
9
13
8
1
2
2
3
5
3
4
7
5
1
1
1
5
9
5
2
4
1
1
3
2
1
5
2
3
5
2
7
12
6
11
21
11
0
1
1
0
1
0
6
10
6
1
4
1
11
15
9
14
20
11
3
6
0
35
50
21
18
38
9
52
63
19
148
106
61
182
118
67
192
136
68
225
160
82
210
143
77
156
110
55
174
121
63
172
113
58
163
113
59
214
141
71
210
140
66
145
102
48
109
85
45
69
61
28
176
130
72
77
71
19
133
92
47
124
84
37
114
80
37
97
75
34
60
76
22
30
70
12
33
68
12
24
61
16
15
36
11
13
40
11
17
55
11
21
46
12
22
50
13
46
76
16
27
72
9
61
77
20
63
69
16
55
70
16
37
69
17
46
63
19
47
74
12
42
82
6
34
81
6
41
82
10
27
56
9
16
42
12
33
50
13
41
46
18
37
38
13
58
56
22
20
25
6
15
23
6
25
28
11
31
31
12
27
31
11
15
21
6
34
40
14
48
54
16
26
34
6
41
49
13
53
56
11
75
69
18
45
39
10
39
40
9
62
65
19
46
49
13
46
45
14
40
41
16
63
63
22
62
64
21
57
59
18
47
50
21
53
53
18
53
55
15
79
81
13
82
82
9
83
82
9
81
82
8
68
71
11
65
71
13
61
67
12
74
77
16
42
44
7
57
61
14
45
50
9
58
64
17
62
67
14
63
68
17
57
62
16
76
79
12
77
79
7
74
78
4
74
75
11
56
55
10
75
75
9
67
71
14
50
57
14
78
81
12
80
81
5
78
73
9
77
80
7
75
82
4
74
82
11
38
47
7
36
41
13
47
50
11
61
61
10
71
73
12
63
73
12
62
68
15
40
43
8
52
60
16
69
75
15
77
80
13
51
56
11
81
55
19
95
67
18
79
59
13
189
109
46
171
92
31
105
68
19
126
75
31
82
64
15
67
65
15
60
65
18
59
61
15
70
65
16
120
68
14
217
114
42
154
85
25
71
63
14
65
66
17
52
58
15
46
54
19
47
61
15
53
76
14
34
52
10
53
68
16
59
72
12
64
77
11
64
80
8
65
83
16
59
64
10
71
79
13
62
79
12
59
78
12
65
75
7
66
72
10
67
70
11
53
53
11
47
48
10
47
49
14
27
32
8
30
37
14
56
60
18
53
54
17
37
39
16
41
47
20
34
37
13
55
47
17
115
71
27
172
93
40
88
46
19
47
38
14
27
31
6
47
53
17
95
67
24
110
81
25
76
72
12
83
74
12
117
81
19
153
93
26
143
86
30
77
63
14
47
50
15
34
31
11
61
52
15
56
47
14
67
65
15
69
69
11
75
71
10
76
74
9
78
76
15
69
69
14
70
67
14
80
71
20
80
68
20
80
69
20
88
75
19
76
61
15
77
63
20
51
45
16
19
20
6
45
50
16
69
72
16
57
62
15
17
23
5
8
8
2
30
34
8
54
63
16
59
75
22
40
57
15
37
65
16
45
72
14
37
67
21
25
54
19
27
46
13
22
39
15
8
29
7
26
40
15
48
62
20
61
73
22
58
64
20
63
58
14
66
68
12
64
75
10
37
44
9
43
50
16
41
55
15
40
47
13
52
58
14
51
60
15
44
49
10
35
36
6
23
32
8
37
62
18
30
59
17
48
60
19
53
59
18
56
62
16
72
70
16
73
66
18
60
69
15
68
81
28
78
76
27
31
26
7
17
23
4
28
35
12
46
48
20
56
60
15
72
72
19
80
75
28
74
59
31
17
13
4
2
3
1
18
22
5
57
67
23
54
62
19
58
70
15
70
82
11
75
79
16
66
80
18
59
74
11
73
87
14
70
88
14
51
67
19
52
69
17
43
53
19
48
59
22
48
60
14
73
80
16
69
70
16
69
74
15
63
77
18
42
59
15
60
85
16
42
72
11
39
64
13
25
45
9
18
37
15
12
24
10
17
29
13
16
33
11
6
16
5
36
47
24
0
2
0
0
1
1
1
1
1
1
2
1
3
5
3
6
11
5
16
25
16
7
13
6
24
43
18
22
46
14
37
59
25
27
51
18
21
37
14
22
33
17
26
42
17
30
55
20
15
29
8
35
56
20
15
26
8
34
44
24
19
33
12
27
48
19
3
9
2
0
0
0
0
1
1
4
7
4
10
14
8
0
1
0
1
2
1
0
0
0
0
0
0
0
0
0
1
2
0
26
31
17
4
6
2
7
17
5
12
23
8
2
3
1
2
4
1
1
8
1
22
44
18
20
41
16
23
45
20
18
38
14
28
48
19
39
59
19
38
66
15
25
63
12
33
64
12
82
70
27
164
113
63
192
134
74
156
112
65
203
148
90
93
74
30
103
85
45
118
87
46
145
99
47
180
121
58
197
139
76
193
129
78
104
73
42
121
87
50
113
86
44
69
58
14
155
111
67
65
65
17
79
74
24
88
63
21
65
71
23
21
57
10
33
57
16
32
52
10
42
74
17
20
52
11
22
51
16
15
31
10
42
56
19
77
76
25
26
54
15
31
51
11
50
75
21
42
68
14
39
65
16
23
54
15
31
71
10
34
69
9
26
65
11
38
71
9
49
68
16
30
47
14
47
44
17
60
51
24
50
48
15
57
51
16
60
54
21
50
47
14
61
51
23
58
49
16
57
59
15
51
58
20
69
71
16
79
79
13
70
73
16
71
75
17
68
75
14
72
79
12
71
77
13
71
76
12
71
76
13
73
73
12
56
57
14
33
43
16
35
47
17
22
35
6
30
39
15
40
44
13
55
55
15
38
37
8
69
68
18
64
66
14
57
61
8
73
76
7
71
76
7
60
69
9
62
72
8
63
74
9
62
72
13
65
77
13
57
78
15
56
78
13
64
79
11
62
74
17
42
53
16
36
41
9
42
54
11
67
76
16
73
72
11
76
75
10
74
75
6
57
61
10
51
53
11
77
78
9
78
80
5
64
66
7
76
81
7
76
82
3
77
83
6
60
64
10
70
72
20
53
58
11
46
52
12
41
47
6
62
68
14
49
53
13
45
48
12
37
46
16
54
60
19
80
76
15
84
76
13
140
86
24
156
97
34
98
75
16
154
93
32
121
75
14
81
70
13
64
66
15
41
49
14
33
49
19
39
50
16
64
63
16
83
66
13
164
92
29
148
83
25
66
45
12
55
58
16
62
63
17
50
60
21
45
56
17
55
69
12
59
75
13
40
48
12
61
68
16
61
71
14
61
74
10
63
77
7
85
79
9
99
79
12
93
78
12
62
74
12
50
67
15
59
68
14
50
60
12
61
64
13
71
63
17
36
31
10
15
17
10
20
23
13
34
34
19
31
32
11
27
30
10
21
26
5
42
54
21
40
50
19
44
46
18
50
45
17
32
28
12
10
5
1
8
9
4
5
7
2
36
47
17
57
65
17
72
78
10
71
76
11
69
78
11
70
79
11
61
72
12
51
63
11
50
68
13
52
62
14
37
44
9
53
58
15
21
24
4
51
62
15
58
65
15
52
49
11
62
64
16
48
57
13
60
65
16
64
70
13
77
78
12
82
81
13
74
82
14
69
78
10
74
75
13
59
58
13
46
42
16
51
52
21
70
74
21
70
74
22
31
33
11
6
6
3
11
13
5
10
13
4
10
9
2
40
41
15
42
54
19
31
53
19
22
40
10
10
23
4
33
51
25
48
76
22
45
80
17
43
74
20
35
56
17
35
52
17
37
49
16
36
49
16
38
49
14
53
64
17
54
72
14
53
67
19
50
64
21
54
71
17
40
55
12
44
56
15
52
73
20
55
77
17
52
68
21
54
65
19
54
77
19
61
86
15
65
83
13
57
70
18
44
56
17
44
51
15
61
59
22
65
69
16
67
75
16
66
61
17
53
54
18
68
82
20
75
84
23
75
77
16
76
76
11
67
74
16
68
74
21
68
68
22
68
63
21
46
49
21
43
48
22
24
27
8
40
39
17
41
61
14
60
84
11
72
81
13
60
83
10
60
85
8
60
85
6
56
84
10
50
71
11
57
77
12
57
71
12
69
83
14
65
84
12
54
78
16
21
38
6
29
47
16
13
31
7
22
43
17
18
39
11
11
34
7
18
37
13
18
33
16
12
28
11
2
8
1
13
23
11
2
5
2
17
27
15
39
43
24
2
3
1
0
0
0
0
0
0
0
0
1
1
1
2
1
2
1
13
18
11
1
3
1
17
33
15
13
30
11
11
32
9
21
42
17
13
19
10
13
19
10
17
29
14
8
17
6
9
14
6
22
30
17
10
16
8
23
31
19
18
28
10
41
57
23
5
12
2
7
9
5
4
4
3
2
2
2
18
21
14
13
22
10
26
41
19
22
36
12
7
10
6
0
0
0
1
1
0
29
33
18
41
46
29
29
40
21
34
52
21
52
59
29
39
52
20
34
75
19
19
67
14
23
42
12
39
49
18
55
69
24
34
59
18
65
75
29
55
75
21
39
66
21
45
55
18
78
71
39
147
107
62
172
117
64
160
123
75
155
121
74
73
71
33
48
46
17
111
80
52
130
89
49
105
86
42
101
80
37
114
79
38
63
52
25
75
63
31
74
72
28
45
49
12
80
66
35
51
71
22
57
65
17
92
82
32
38
62
13
56
81
18
50
67
17
54
78
18
53
74
12
36
68
16
17
35
11
33
50
17
33
44
13
68
63
20
25
48
11
17
39
6
36
69
22
34
77
14
38
77
14
40
70
17
48
76
9
62
72
18
41
53
21
26
37
7
43
58
14
40
47
14
43
46
15
38
57
19
41
48
16
59
58
17
51
46
14
55
53
19
35
34
10
42
40
12
50
54
16
51
55
15
77
77
14
56
59
9
46
50
13
35
41
9
63
71
19
52
64
9
72
83
12
72
78
11
59
63
10
74
75
13
63
63
15
30
36
12
30
38
10
54
61
20
43
49
11
68
70
14
72
79
13
70
72
13
59
59
15
42
44
16
55
60
16
63
71
8
60
70
11
59
71
14
61
71
11
57
70
13
38
53
13
38
57
12
33
59
15
27
52
12
31
45
12
17
26
6
32
38
12
24
29
14
19
27
8
35
44
12
53
55
9
76
76
7
73
76
4
73
76
6
73
76
6
73
77
3
76
79
5
77
79
6
76
80
4
78
81
5
76
81
6
78
80
6
76
80
5
73
77
6
68
74
8
68
73
8
67
74
7
67
72
8
66
70
10
45
48
14
36
39
13
67
68
12
72
71
7
88
75
9
94
74
13
76
77
14
65
70
16
53
72
15
59
78
10
60
74
10
55
70
16
36
45
17
12
14
4
44
45
18
53
47
13
100
69
22
50
46
14
8
11
1
31
36
8
64
68
18
63
78
18
47
65
13
57
78
14
52
75
14
32
42
11
31
30
10
31
35
12
46
53
11
76
69
9
155
92
37
124
79
26
85
75
16
54
62
14
16
26
6
29
33
12
20
25
7
74
58
19
99
69
19
89
66
24
47
36
18
28
27
12
64
53
17
69
67
19
42
54
19
19
26
9
35
45
17
45
57
16
48
56
21
36
43
14
35
46
16
70
61
32
54
48
21
41
49
16
59
67
16
47
64
17
42
62
13
45
65
15
58
77
11
60
78
7
54
77
13
39
64
8
61
75
10
59
73
8
59
76
10
71
73
11
69
57
15
69
65
16
83
68
19
81
58
19
53
45
15
58
53
13
60
53
16
51
56
17
59
66
13
64
70
16
69
76
16
67
70
15
58
60
18
9
10
3
3
3
2
7
8
4
26
28
8
40
41
19
25
23
13
27
26
15
55
63
20
51
64
22
40
49
16
50
56
17
65
71
15
51
72
17
64
82
20
52
65
16
57
62
19
60
67
13
60
76
10
55
70
11
41
59
17
39
57
21
45
56
17
48
60
13
49
63
15
44
55
17
33
50
14
27
47
15
27
51
16
50
73
19
39
56
14
36
44
11
58
71
13
62
77
10
59
66
16
62
67
15
68
79
12
71
87
10
68
88
11
60
75
19
22
32
7
20
18
4
71
65
23
71
73
15
74
72
15
46
39
10
61
61
21
49
60
14
46
51
10
59
58
12
56
53
13
15
19
2
21
30
5
56
66
20
58
64
20
47
54
22
49
53
18
43
43
12
50
53
16
59
80
16
67
86
12
70
79
15
45
73
15
45
72
10
52
74
11
45
72
12
52
84
9
57
86
9
66
84
6
67
82
8
57
80
13
33
56
14
3
10
4
12
21
10
15
26
14
5
11
4
4
8
3
11
19
9
7
15
5
2
6
2
2
5
1
2
4
2
9
14
8
1
2
1
6
8
6
15
23
10
0
1
0
0
0
0
0
0
1
0
0
0
0
0
0
3
5
2
1
3
1
1
2
1
13
25
11
12
25
12
11
22
10
2
7
2
0
1
0
19
32
15
11
20
8
18
25
17
1
2
1
18
21
13
18
22
14
15
24
13
28
41
19
22
42
18
16
33
14
25
39
21
4
8
2
4
4
2
5
8
3
20
28
15
5
13
2
17
31
10
1
3
1
1
1
1
8
12
5
4
8
2
16
23
12
18
30
12
29
54
17
50
73
18
53
77
23
38
73
18
32
61
16
71
80
41
67
84
36
39
70
19
27
58
16
41
63
20
32
55
16
24
42
15
37
43
23
39
37
17
66
57
26
145
111
67
169
132
81
108
88
47
64
65
25
45
66
21
25
41
15
36
40
15
49
55
22
126
94
55
112
79
50
68
56
35
47
49
25
41
50
23
51
52
27
46
47
17
64
73
25
79
66
29
56
60
19
26
46
13
45
72
21
23
52
10
34
62
16
24
58
11
22
63
13
18
50
14
47
62
19
68
71
23
47
71
16
26
74
7
53
74
15
44
57
16
19
45
8
31
63
17
38
53
9
69
81
16
55
55
14
35
41
21
30
35
13
59
60
20
29
30
9
9
17
3
21
41
15
16
27
8
24
40
16
11
23
5
18
36
15
17
26
8
30
36
17
20
27
8
64
63
16
79
78
10
59
66
10
36
54
16
42
53
10
79
87
14
73
81
11
65
74
11
71
79
11
64
71
12
52
58
12
46
51
13
47
58
17
61
71
17
66
71
13
72
76
15
74
76
10
59
68
12
56
64
14
42
53
13
31
46
15
27
43
11
45
63
15
24
46
9
16
38
10
36
56
13
32
48
12
31
44
17
19
28
7
8
12
1
38
47
22
41
53
15
46
59
15
64
73
18
67
77
17
67
77
12
69
80
11
72
81
8
71
80
8
60
75
10
61
72
8
64
74
7
63
75
8
68
77
9
60
76
9
55
75
10
57
75
13
50
61
12
57
75
13
50
70
10
52
70
12
49
69
10
54
72
11
52
73
10
47
67
8
47
66
9
39
59
15
35
45
13
58
72
17
50
61
12
68
72
15
103
79
29
73
74
10
61
75
12
58
79
14
70
75
9
79
70
11
69
74
12
58
62
15
40
48
12
58
70
17
57
71
17
59
71
16
56
68
13
50
69
17
58
76
19
65
79
11
63
83
11
58
77
13
59
78
13
54
77
11
50
74
15
53
71
16
41
62
15
49
58
16
83
62
15
130
77
30
103
73
25
76
72
16
60
73
15
35
49
14
31
35
10
55
62
19
44
45
10
68
55
17
83
67
21
109
79
52
79
60
19
99
77
16
88
79
14
55
67
12
36
44
14
52
60
15
62
75
9
65
78
13
63
77
12
60
77
9
74
77
16
75
76
17
68
79
14
61
73
11
38
60
13
21
42
12
26
45
14
37
56
9
49
65
11
30
48
9
45
65
12
65
68
15
78
62
14
113
81
11
130
87
19
114
77
19
104
75
17
113
83
22
99
71
17
92
70
12
94
77
9
91
72
19
45
37
15
57
49
20
46
44
15
77
67
27
37
32
10
70
65
24
22
19
3
49
38
18
37
30
8
49
42
13
38
35
11
39
37
14
49
46
17
63
60
18
51
48
16
52
50
15
66
68
14
76
75
12
73
78
14
69
80
12
68
78
17
63
67
16
63
67
17
55
59
16
41
43
10
41
43
17
44
45
18
50
50
13
69
69
16
55
64
20
39
44
16
40
51
16
36
49
13
42
58
21
51
70
19
60
81
18
56
74
22
64
74
14
61
76
12
64
74
12
71
73
14
85
77
11
102
82
17
94
84
19
84
82
22
82
76
21
78
65
19
82
70
18
74
70
13
61
57
15
73
66
20
50
50
16
21
25
8
7
7
3
18
19
10
6
8
4
1
2
1
23
32
11
22
29
13
14
15
2
58
59
17
80
82
21
80
82
17
74
80
20
51
68
14
40
56
11
35
41
10
11
16
2
49
56
13
58
68
15
37
52
14
29
53
11
40
63
12
65
84
13
55
76
13
32
61
15
17
37
13
1
2
1
1
1
1
8
16
8
5
9
5
9
14
8
2
3
2
1
2
1
2
2
2
2
2
1
13
15
9
2
1
1
1
0
1
0
0
1
0
0
1
0
0
0
0
0
0
0
0
0
0
0
1
0
1
1
5
10
5
1
2
1
1
1
1
8
15
7
2
4
1
4
8
3
9
17
8
0
1
1
8
13
6
1
1
1
1
1
0
19
22
13
32
41
24
22
30
18
3
5
1
8
13
5
9
17
7
14
33
12
36
55
21
36
42
22
46
60
31
33
50
24
47
60
31
71
65
56
71
61
53
61
56
46
67
65
46
47
58
28
77
71
47
70
67
43
36
61
17
27
65
13
33
75
11
30
76
13
22
65
17
20
48
13
24
45
14
41
72
28
25
49
16
48
48
26
97
79
49
62
69
28
28
45
14
22
37
13
39
47
17
69
63
28
152
123
77
124
105
67
48
50
20
54
64
25
19
50
8
24
48
15
24
27
12
54
61
37
47
56
20
47
48
25
38
42
20
27
35
15
50
52
27
22
26
9
16
26
9
16
32
9
24
31
10
25
47
12
24
53
15
25
63
17
14
42
11
12
38
11
19
61
15
15
46
11
10
33
9
20
51
15
21
44
12
12
38
8
29
64
11
57
67
19
24
36
17
14
32
9
25
53
16
34
40
15
38
39
10
48
46
19
44
46
19
11
18
6
6
14
3
5
21
3
15
40
11
13
32
13
46
42
14
38
39
15
4
7
2
5
11
4
26
31
20
15
18
8
43
45
16
73
71
11
78
76
10
75
76
10
56
66
15
61
71
18
62
76
12
69
83
16
72
81
16
82
82
12
76
75
18
36
45
9
35
50
15
37
53
15
40
60
16
36
48
9
32
39
8
48
54
15
15
22
3
4
8
2
4
7
3
4
11
3
13
36
11
18
50
13
35
57
15
29
36
12
44
50
15
63
68
15
60
69
15
57
71
14
53
68
17
39
63
17
55
76
13
64
81
12
68
80
11
62
79
14
60
80
11
65
82
10
51
78
13
36
57
11
18
38
10
18
34
11
18
35
7
11
31
5
19
35
6
11
30
6
5
25
5
3
13
1
2
8
2
8
22
5
10
24
8
4
15
2
3
11
2
5
18
2
13
37
8
22
53
15
16
46
9
28
59
18
23
29
6
62
65
19
63
63
17
60
58
16
64
63
10
66
67
10
72
69
9
74
70
8
70
72
8
72
73
13
73
73
9
69
80
17
61
81
17
69
80
9
68
78
10
64
76
10
65
75
8
56
77
15
52
71
17
47
57
9
61
77
11
64
81
9
59
74
15
54
75
16
51
78
17
57
75
19
50
63
15
51
71
18
52
70
17
45
45
12
22
24
6
35
43
10
58
71
17
58
71
24
47
48
12
78
78
11
77
75
9
80
75
10
82
75
9
83
74
11
71
62
15
71
63
11
82
77
11
58
70
11
35
58
16
43
72
13
48
71
10
65
76
10
66
78
11
52
75
11
48
76
12
53
81
14
42
78
13
22
48
9
5
11
2
4
5
2
2
2
1
9
16
3
30
42
16
1
2
1
30
27
4
89
71
22
81
60
17
120
85
13
122
86
10
114
85
15
92
72
15
57
48
9
59
52
15
76
69
15
81
71
12
87
67
20
48
39
17
48
41
15
56
51
23
51
46
21
8
5
1
62
61
22
75
73
21
89
78
25
70
66
19
58
55
15
62
61
21
59
64
19
57
66
16
65
68
18
57
58
20
53
55
16
69
71
17
71
75
14
54
64
14
59
76
20
68
77
17
57
65
22
36
42
13
35
39
10
67
63
18
74
72
18
76
71
17
71
68
15
63
71
21
42
47
14
49
58
15
63
77
23
46
53
20
61
65
23
54
61
16
61
68
17
70
79
19
58
65
16
36
49
12
38
53
16
41
46
9
61
76
17
32
35
4
53
56
22
35
38
11
58
60
17
79
72
15
74
69
18
74
68
18
66
60
16
73
74
15
64
68
17
19
21
4
9
11
2
36
44
14
35
41
12
30
30
6
63
68
20
33
38
9
58
64
17
75
82
14
68
78
14
69
83
17
53
69
16
26
40
10
64
68
20
64
57
21
70
72
22
50
58
13
49
59
14
39
45
16
26
37
16
28
44
16
36
52
18
4
16
1
3
16
2
11
19
8
2
3
1
1
2
1
8
14
8
1
1
0
1
1
1
0
1
1
0
0
0
1
2
1
1
1
1
3
5
3
6
13
6
1
1
2
1
1
1
1
1
0
0
1
0
3
3
2
0
0
0
0
0
0
0
0
0
1
1
1
2
3
2
1
1
1
1
1
1
1
2
2
1
2
2
1
3
1
15
22
12
12
21
11
10
22
9
9
22
7
29
45
19
24
36
13
7
12
7
5
7
4
12
13
9
4
5
2
12
21
7
25
36
12
48
54
27
26
43
18
42
63
23
61
77
32
91
80
56
102
80
54
94
79
48
110
88
46
82
77
37
127
100
63
123
94
59
97
83
42
63
71
27
38
66
12
42
63
18
16
37
10
26
49
17
41
59
21
74
79
34
102
94
57
41
54
25
127
110
70
70
71
28
22
40
12
39
59
19
66
63
30
111
87
52
149
114
64
93
87
47
41
53
21
29
42
19
31
47
17
37
52
18
48
50
29
13
25
9
24
37
18
14
22
10
32
39
21
4
6
2
30
36
17
26
34
15
18
33
13
13
26
12
17
35
13
48
67
18
32
52
13
27
67
17
13
39
8
5
22
4
9
35
8
20
49
16
18
41
14
30
57
17
24
45
16
20
43
10
64
73
18
42
58
13
15
36
13
5
17
4
24
48
17
7
18
4
22
33
12
26
44
15
12
28
7
29
52
17
39
52
20
44
61
22
44
68
19
20
33
13
64
55
11
51
54
18
12
24
10
0
0
0
1
2
1
12
17
7
30
33
11
61
58
15
57
56
11
75
74
16
38
41
8
55
61
18
23
44
8
21
50
11
31
50
10
48
57
13
38
54
14
23
38
10
40
58
19
30
49
10
32
52
15
37
49
18
26
34
12
30
39
14
29
39
18
18
26
6
26
43
10
18
37
12
19
46
15
17
50
13
26
56
14
30
55
15
39
63
15
49
69
12
68
80
11
63
80
9
46
70
10
32
62
13
37
71
9
27
59
6
29
52
11
20
43
7
12
33
4
16
29
5
11
27
7
1
3
1
0
2
1
1
1
1
1
1
1
0
1
1
0
0
0
0
0
0
1
0
0
0
0
0
1
1
0
1
2
1
20
33
14
23
39
15
26
38
19
35
48
15
46
72
20
32
67
15
40
69
19
29
56
17
44
60
20
48
53
19
61
62
20
39
42
13
49
70
21
41
66
15
46
61
17
70
63
12
69
73
6
66
79
10
77
79
11
61
64
13
40
50
8
68
73
13
61
74
14
61
74
16
49
57
11
47
58
16
35
42
16
51
57
16
58
76
14
55
79
17
48
70
19
50
70
24
50
67
25
31
39
15
32
38
21
26
38
17
16
22
4
3
4
2
12
15
10
13
21
8
27
35
18
6
10
1
51
49
15
80
73
13
81
72
14
72
64
15
60
50
11
60
48
13
25
22
6
43
41
16
61
66
13
36
56
12
16
31
13
21
43
13
13
27
4
35
42
11
23
32
6
2
12
1
3
13
1
20
30
12
25
47
17
34
55
18
36
45
15
9
13
3
1
3
0
23
25
5
31
34
8
28
35
7
65
60
13
103
79
13
102
79
13
95
76
17
59
48
13
52
45
13
21
20
5
3
4
2
9
13
5
13
19
6
24
25
7
21
17
4
38
27
10
63
48
18
79
57
17
91
56
18
84
52
23
50
52
21
63
71
22
49
57
16
55
63
22
23
25
7
24
21
8
26
25
9
31
39
13
37
43
12
33
37
9
58
61
16
58
67
16
58
65
18
40
42
9
54
56
17
76
75
17
61
65
14
81
78
18
81
80
15
84
77
8
79
74
9
69
68
13
61
61
11
56
58
16
36
33
6
57
64
16
61
73
18
40
39
18
17
13
4
18
21
8
28
33
16
25
35
14
9
16
3
18
28
11
26
39
13
42
54
15
59
72
19
6
9
1
18
19
8
27
27
5
72
75
21
78
72
17
73
63
16
82
75
21
45
43
13
72
77
19
72
82
14
61
74
14
66
73
17
66
78
13
65
79
13
67
78
13
66
76
8
64
73
11
64
76
11
51
75
9
43
73
15
41
65
11
54
70
15
64
69
16
82
80
14
73
69
20
55
67
17
26
51
15
47
65
17
33
46
12
25
41
18
9
19
6
2
3
1
1
2
1
16
21
15
2
4
1
0
5
1
1
4
2
1
2
1
1
2
1
1
2
1
0
1
1
1
1
0
1
1
1
1
1
1
1
1
1
2
2
2
2
3
3
2
3
2
6
10
4
27
34
21
15
13
13
38
37
34
32
39
27
22
36
17
5
9
4
9
10
7
1
0
0
1
1
1
1
2
0
1
3
2
1
2
1
6
13
6
2
7
3
3
8
3
14
24
11
28
42
19
9
14
3
8
7
3
2
3
2
2
2
1
32
34
21
42
47
24
36
44
21
46
54
25
43
49
23
71
69
35
66
64
32
101
81
44
171
129
83
176
130
73
187
138
77
167
133
76
210
154
84
194
139
80
170
130
79
106
93
50
46
66
21
59
67
30
45
55
27
39
56
24
39
42
18
104
92
51
122
108
68
34
50
18
97
92
61
42
57
24
12
28
7
49
73
24
66
62
27
136
103
61
162
122
70
28
45
9
25
44
15
10
17
7
24
42
16
26
50
18
23
39
13
26
46
20
28
43
18
24
35
14
33
48
18
5
10
2
14
20
10
9
14
6
18
25
12
9
19
4
42
54
19
53
68
22
40
65
21
24
61
18
16
46
12
19
44
17
29
44
17
28
46
18
19
38
11
35
61
18
22
45
16
22
50
8
51
64
18
22
46
13
18
41
15
28
43
19
34
55
18
30
44
14
22
40
13
20
49
12
31
55
19
32
48
19
20
28
6
40
53
23
41
60
18
27
50
15
36
36
14
8
14
3
1
2
0
0
0
0
26
32
16
19
30
9
41
53
14
39
46
12
36
42
9
67
73
14
51
57
16
49
55
19
27
47
14
15
37
7
24
55
12
17
47
10
17
51
12
12
31
5
33
59
13
46
64
15
32
39
13
32
37
17
27
37
14
25
38
11
31
53
13
48
67
10
54
75
14
31
51
16
6
18
5
3
11
2
11
19
8
3
15
2
18
42
14
19
45
11
31
70
10
36
74
7
43
74
13
24
55
10
19
65
8
15
59
9
15
35
10
17
27
12
2
5
1
4
9
2
1
2
1
1
1
1
1
1
0
4
7
1
22
30
13
1
1
1
0
1
0
17
23
14
4
6
2
5
10
2
35
49
22
15
30
13
21
43
14
21
41
15
24
37
16
24
35
10
27
42
12
21
36
11
21
36
12
27
46
19
12
30
9
13
25
9
19
29
10
17
27
10
18
37
10
13
33
8
10
21
5
44
48
16
55
58
15
60
61
14
66
65
18
66
75
17
59
81
17
60
80
12
56
73
14
54
61
17
46
52
19
29
43
14
32
47
18
58
67
16
50
67
14
42
55
15
49
52
21
51
47
24
20
16
5
29
25
12
34
44
21
22
29
16
2
2
1
1
1
1
1
1
1
0
0
0
1
0
0
0
0
0
15
16
5
46
44
17
44
38
15
11
11
3
24
21
13
16
14
8
3
4
2
31
30
13
43
49
18
13
23
7
1
3
0
1
2
0
1
2
1
1
1
1
1
1
1
6
6
3
20
22
10
25
28
16
5
6
4
32
32
10
52
61
13
41
65
17
38
64
13
76
79
16
84
81
17
66
81
18
50
70
10
41
64
7
45
59
13
24
24
4
23
21
12
3
3
2
10
9
7
21
21
13
17
17
8
3
3
1
33
34
10
44
42
15
83
68
18
92
78
11
99
79
6
122
81
10
121
77
20
61
52
18
49
47
17
56
58
24
31
36
12
14
12
3
78
59
26
96
66
30
82
57
29
60
49
25
16
15
5
55
54
14
74
79
18
79
77
14
80
71
12
78
73
12
78
74
8
78
74
7
75
69
11
78
76
12
82
78
8
80
76
8
75
75
8
75
73
9
76
76
11
85
74
12
89
75
12
84
77
12
70
58
16
75
62
20
53
51
12
37
38
14
9
12
7
8
10
3
39
49
20
54
65
20
39
51
18
43
54
20
46
57
20
52
62
23
50
51
14
70
72
16
73
74
21
79
75
22
59
54
15
31
31
12
26
36
10
53
79
16
61
85
6
60
82
9
57
83
8
51
81
8
53
80
7
53
78
6
53
78
6
52
78
8
45
78
8
24
78
9
25
80
9
37
80
7
43
74
7
47
76
16
26
59
14
22
53
15
17
53
11
40
73
13
43
67
18
22
39
11
32
53
14
45
52
25
12
15
9
3
5
2
0
1
1
0
3
1
1
5
2
2
3
2
1
4
1
10
15
5
17
20
7
13
15
6
5
6
3
3
3
2
1
2
1
3
5
2
25
32
14
32
38
26
57
51
50
56
50
52
51
41
48
47
36
41
56
49
50
54
51
45
48
42
40
39
35
30
28
28
19
41
49
24
27
39
19
35
35
23
47
47
31
35
40
21
21
30
14
44
45
30
66
60
48
75
66
52
65
60
46
81
68
42
29
28
12
46
41
33
75
57
50
72
62
45
59
66
28
88
77
44
83
77
46
93
80
50
87
74
46
156
116
69
94
74
33
183
143
82
160
129
68
175
140
83
201
141
78
130
96
54
159
120
66
173
135
78
26
36
11
19
27
12
71
79
45
63
70
39
29
31
15
95
87
48
107
95
59
16
34
10
25
41
17
49
66
27
35
49
17
54
77
25
22
35
7
59
61
31
81
78
41
20
39
14
15
27
11
5
8
4
24
43
19
16
33
13
17
35
14
11
31
8
26
37
19
3
6
2
26
38
17
18
25
13
20
27
15
2
5
2
18
27
7
32
63
16
25
51
15
32
48
20
18
39
14
13
37
9
23
58
14
24
52
14
52
64
28
17
31
6
23
58
18
22
47
13
5
15
3
27
53
16
17
39
12
19
50
13
23
45
16
18
30
11
34
53
17
32
51
13
42
64
23
18
35
10
17
30
8
19
30
15
19
32
12
32
53
20
15
38
10
19
50
13
34
51
15
29
40
14
18
22
13
11
24
6
39
59
21
25
44
9
37
74
13
39
76
7
42
77
7
38
81
9
30
68
12
20
53
10
32
74
15
28
60
13
23
69
12
12
67
6
21
71
13
18
62
9
22
74
7
38
70
12
19
33
10
18
26
11
25
34
14
16
27
8
14
35
8
37
68
7
34
69
11
15
33
11
2
4
0
1
2
0
21
32
16
3
8
2
1
3
1
6
18
5
25
59
16
11
54
8
7
53
8
9
58
9
12
66
7
13
67
5
13
64
11
12
57
10
18
57
10
21
43
13
8
16
8
4
6
4
7
7
3
40
43
21
33
49
21
17
33
15
7
14
6
29
38
12
37
50
16
31
45
17
23
34
14
4
9
3
3
8
4
1
3
2
1
3
2
2
3
3
1
5
2
2
4
3
2
3
1
2
3
1
1
3
2
1
2
2
6
13
5
5
13
5
0
0
0
0
0
0
0
3
0
2
6
1
3
5
1
4
7
1
21
26
12
46
60
20
45
69
20
54
69
13
62
74
12
56
60
18
51
56
26
37
47
18
26
38
12
51
60
19
53
65
19
60
69
26
60
57
26
22
18
8
6
7
1
24
21
12
38
48
23
23
30
14
36
34
21
3
3
1
8
9
4
3
4
0
1
2
0
1
2
1
35
37
18
35
35
15
5
4
1
2
3
1
2
4
2
3
4
3
4
4
3
3
4
3
4
7
2
17
27
13
20
28
12
26
34
11
40
45
18
17
22
5
16
25
6
32
41
21
69
67
31
29
29
12
24
24
15
50
48
19
66
74
17
45
75
11
40
76
9
38
76
9
29
71
9
23
57
11
8
28
6
9
22
6
22
28
16
11
17
5
35
47
18
22
41
9
16
32
10
39
43
11
46
52
14
44
49
14
69
71
17
69
69
15
83
78
9
81
78
7
81
80
7
82
80
5
80
73
15
26
23
5
61
51
27
26
23
11
55
47
28
9
7
1
61
49
23
47
41
18
40
37
17
50
51
25
41
46
18
68
70
22
62
71
23
55
62
14
76
73
12
81
77
10
83
77
6
82
76
6
79
75
8
80
75
10
83
74
10
77
74
8
80
76
7
93
78
15
82
76
6
86
79
7
86
78
6
84
78
5
85
77
12
79
74
9
75
72
12
33
33
6
11
12
2
57
57
25
46
48
20
18
21
6
2
3
0
2
3
2
11
18
7
49
68
19
61
77
19
49
56
14
33
42
15
42
45
18
10
9
2
3
4
1
18
37
15
23
54
10
35
74
11
33
78
13
35
77
10
26
79
7
15
73
6
17
66
8
18
60
8
18
64
9
15
63
9
16
60
12
19
55
9
23
70
10
29
75
10
25
50
11
22
46
18
19
44
14
6
27
4
31
71
14
23
76
11
27
76
11
26
70
12
35
52
21
36
41
19
15
18
9
17
19
11
13
15
10
5
9
4
21
28
13
56
61
32
54
56
30
54
53
29
47
50
27
44
51
30
31
41
21
37
48
22
46
55
29
65
71
37
67
65
44
84
72
56
89
76
59
117
87
71
114
80
68
106
87
72
60
56
40
74
63
50
97
76
67
90
75
66
85
74
56
90
80
66
52
49
36
38
34
23
72
66
50
83
81
58
66
59
42
66
58
44
92
71
48
105
77
55
115
88
59
67
67
34
89
76
45
163
113
73
141
107
64
121
95
48
177
131
79
96
83
39
69
73
36
98
80
43
215
160
95
136
107
62
177
135
84
69
62
20
142
117
72
114
89
47
109
94
56
140
109
61
166
131
80
28
40
15
27
39
19
36
49
22
26
37
18
11
14
3
100
87
49
99
85
51
16
36
12
18
39
14
29
40
15
32
54
21
42
64
24
6
13
2
29
39
14
72
79
38
19
39
15
22
39
16
9
22
6
32
43
21
20
36
12
35
54
20
21
38
14
12
22
9
8
15
5
17
25
14
9
20
6
15
28
11
19
28
12
29
38
20
28
53
18
16
37
12
7
15
4
22
45
15
20
51
14
26
62
16
29
56
16
33
59
20
17
54
15
19
57
16
25
53
17
11
24
6
25
43
17
34
56
24
29
54
16
17
33
7
19
24
15
22
34
12
25
43
15
31
54
19
30
52
21
6
17
3
9
20
6
31
48
21
30
52
17
18
38
12
8
16
7
23
73
9
22
68
10
18
56
7
17
70
12
17
74
7
25
72
7
21
76
6
26
79
6
31
78
6
34
79
10
37
64
13
40
72
10
33
79
9
11
62
5
12
64
7
16
66
6
16
55
9
22
71
12
17
59
9
18
68
8
17
59
11
14
33
12
27
39
17
36
53
21
22
48
15
31
69
10
28
75
11
6
25
3
9
11
5
1
5
0
14
33
12
12
26
11
15
31
14
12
35
9
64
75
21
35
55
13
11
48
11
9
53
10
21
56
11
27
66
12
15
68
11
9
64
9
20
74
6
35
71
15
11
30
8
11
23
11
5
5
0
66
66
33
10
21
7
14
23
13
15
23
13
37
49
17
31
46
16
20
40
12
32
49
22
14
19
9
2
3
2
1
3
2
1
2
1
10
19
10
3
11
4
1
3
2
18
28
14
15
36
11
16
38
11
10
31
7
14
41
11
20
40
17
6
13
4
17
28
7
16
41
14
14
39
13
6
17
4
32
52
18
34
59
22
41
56
22
10
18
3
9
11
2
42
46
15
35
41
16
39
46
23
59
53
29
23
19
10
9
9
5
25
25
16
32
35
19
32
35
21
52
60
38
51
58
23
51
55
27
32
40
21
45
46
26
38
33
17
49
42
27
34
40
21
53
56
27
48
48
28
40
40
28
21
23
10
25
32
20
8
11
6
20
26
15
24
28
17
4
4
2
3
4
2
2
3
2
14
18
10
31
38
18
45
52
20
42
55
16
69
71
21
51
61
17
57
69
20
53
61
19
67
67
19
48
48
15
6
5
1
40
50
21
31
51
12
33
52
13
42
57
16
48
58
20
27
43
19
26
33
19
16
22
10
29
33
21
4
5
2
21
28
13
33
48
13
36
67
15
39
68
11
67
76
12
69
79
11
71
83
11
73
85
6
67
85
10
62
72
10
58
66
11
42
54
7
63
62
15
83
70
20
64
58
17
48
43
17
43
40
17
42
41
19
6
7
2
6
6
2
31
31
10
60
72
29
30
45
14
52
60
25
46
51
16
33
38
17
31
33
15
69
64
19
79
74
10
86
77
5
84
76
7
75
75
7
75
71
7
80
70
7
80
75
6
81
79
6
80
78
7
80
79
8
76
80
13
75
78
10
75
76
7
74
74
11
74
74
8
75
74
11
75
75
23
73
66
24
38
31
9
13
11
3
17
24
15
24
33
20
1
1
1
11
17
6
60
68
23
51
58
17
34
31
11
11
8
3
18
18
11
2
2
1
6
12
5
12
28
12
15
35
15
3
17
2
10
26
8
8
24
5
8
38
8
11
49
11
5
28
4
3
12
3
0
2
0
4
12
5
2
10
2
2
7
2
12
34
13
10
37
8
15
45
15
9
25
7
26
55
18
23
59
17
23
61
13
13
54
11
14
52
10
14
44
11
15
31
10
35
44
22
45
49
32
49
52
38
37
37
30
50
44
37
65
57
45
81
74
54
83
71
54
95
75
58
61
62
36
52
62
31
67
71
45
70
75
40
73
77
44
67
70
44
79
72
49
109
90
64
123
95
66
103
79
58
41
29
15
89
68
44
98
82
50
104
86
50
116
92
69
103
83
66
109
88
65
74
72
49
57
53
34
44
40
25
63
62
36
72
72
40
99
76
49
106
73
50
135
91
60
155
103
65
114
85
51
95
84
47
116
95
58
153
105
59
118
86
43
193
139
82
230
170
96
147
109
58
117
93
62
129
101
61
171
124
66
174
136
76
168
132
79
96
80
40
170
138
89
82
70
25
198
162
102
103
87
46
76
76
38
23
42
11
46
63
26
63
60
33
47
46
27
11
20
7
61
75
34
20
36
11
9
24
8
10
25
10
9
23
5
27
62
19
9
37
8
1
4
1
20
26
8
60
63
34
8
19
6
14
40
12
31
54
21
38
44
20
21
34
13
24
46
17
4
10
2
25
44
16
18
29
11
15
32
11
21
42
17
19
35
15
13
23
11
11
22
11
12
27
11
20
37
16
19
45
11
24
65
12
19
52
12
22
49
18
23
52
17
17
48
14
12
33
11
8
25
6
32
70
19
23
46
10
10
21
8
16
27
10
13
23
5
44
55
23
43
43
18
1
2
1
25
36
16
22
37
12
32
53
19
3
9
2
5
13
4
23
34
18
27
46
14
14
30
6
7
10
7
30
69
10
31
66
9
35
77
12
18
75
9
44
83
10
64
82
10
53
80
11
28
62
10
28
61
9
30
75
8
37
65
7
46
82
9
25
77
7
14
56
7
13
51
9
14
53
8
15
63
7
13
67
7
14
65
7
15
72
6
17
65
9
13
47
10
14
53
11
15
63
8
20
72
7
21
75
4
13
75
6
11
46
8
8
11
6
6
9
1
69
76
29
23
29
7
5
14
4
11
29
8
69
76
27
24
30
5
6
18
6
5
17
6
11
20
8
12
24
6
15
36
12
6
26
6
16
47
10
15
44
10
6
22
5
4
13
3
16
19
11
40
44
25
2
3
1
3
5
3
3
5
2
1
3
1
2
4
1
25
30
18
22
28
9
23
30
15
31
36
19
7
11
2
1
6
1
17
37
10
21
50
14
14
34
11
26
54
19
26
55
14
46
60
14
38
64
18
31
66
17
28
55
11
29
52
18
42
70
21
35
70
18
34
64
18
27
52
24
26
44
15
11
22
5
1
3
1
1
2
2
1
2
1
0
2
1
2
3
1
25
22
10
25
24
5
58
60
23
49
53
19
53
52
31
51
53
30
56
59
27
47
45
23
49
41
18
47
45
23
41
45
28
45
43
27
49
44
31
47
39
26
47
45
32
36
32
22
31
25
16
56
53
24
56
58
23
40
51
26
31
33
15
60
54
29
63
54
25
55
53
25
62
57
28
42
36
27
31
28
18
57
53
28
55
55
27
30
38
12
50
57
22
43
50
19
49
52
18
49
46
18
74
66
17
71
67
17
64
56
24
39
39
21
15
21
8
9
11
5
33
30
10
64
57
23
16
17
5
29
32
17
27
35
19
40
51
22
29
45
17
14
27
8
37
62
18
24
55
12
26
55
14
30
48
9
32
51
12
42
63
12
55
79
13
44
74
17
41
57
20
50
66
18
37
58
17
23
26
5
69
70
15
73
79
14
62
70
18
75
83
18
68
74
14
57
58
18
39
40
16
77
66
26
73
69
22
54
57
16
59
55
18
66
64
23
40
38
13
47
45
14
80
76
19
83
78
10
79
75
10
76
77
11
74
77
5
77
75
8
73
69
14
77
77
11
80
79
6
80
76
13
71
61
15
62
61
16
53
56
12
63
65
12
69
65
13
68
63
14
54
59
14
59
69
21
50
48
16
24
20
8
2
2
1
14
16
10
1
1
1
1
1
1
40
36
24
21
19
6
5
5
1
2
1
0
1
1
1
5
6
4
2
3
2
7
14
7
3
7
3
6
10
5
1
4
1
1
2
1
1
1
1
1
2
2
2
2
2
2
2
1
2
9
2
9
26
9
0
3
1
0
2
0
0
1
1
8
16
8
6
17
7
12
28
12
17
42
15
26
48
18
14
33
10
19
32
15
5
11
4
2
7
3
4
9
3
1
4
2
1
1
0
13
12
5
72
68
54
49
47
37
56
48
40
86
75
60
90
82
59
100
83
67
113
88
75
77
72
57
68
70
52
74
71
58
59
59
41
64
65
45
78
75
53
78
70
47
74
64
42
80
67
44
90
72
47
133
93
56
168
116
67
131
101
56
128
98
52
136
99
64
105
84
62
103
78
53
107
91
65
81
67
45
57
48
32
81
72
42
85
78
43
138
99
55
197
139
82
187
125
67
188
131
72
107
83
51
103
76
50
128
89
53
161
121
74
110
83
45
192
127
70
232
169
91
135
102
52
151
114
76
71
63
32
57
58
25
154
122
69
191
150
88
73
64
29
82
76
50
67
67
29
187
147
89
127
105
65
77
73
43
16
42
11
31
56
19
52
47
30
42
44
27
22
30
16
95
88
63
31
34
18
23
39
18
20
41
17
21
47
19
14
40
12
6
24
7
2
4
1
19
31
13
19
33
14
8
16
6
10
35
9
9
33
8
4
10
4
8
20
6
23
44
18
12
25
8
28
45
20
7
19
6
22
46
16
16
34
12
12
23
10
18
30
16
6
13
5
15
36
11
24
56
15
14
45
6
17
57
9
12
38
9
6
18
5
22
51
15
17
53
11
11
28
7
1
10
1
22
50
13
44
64
23
26
40
20
39
54
20
32
46
17
47
51
23
39
40
17
1
1
0
24
37
13
23
43
13
27
54
12
16
28
11
4
5
2
21
31
14
54
67
23
21
32
7
26
44
19
40
58
20
13
19
4
46
66
21
21
57
9
24
62
8
44
65
13
46
62
13
39
53
10
31
48
9
69
86
14
64
87
10
52
86
8
30
81
7
16
57
9
9
29
7
15
41
11
18
63
9
15
67
6
10
70
5
13
66
8
15
61
12
15
55
11
11
57
9
16
69
10
17
75
5
19
76
3
15
72
7
18
57
11
10
26
6
9
26
3
76
77
22
38
44
12
22
24
11
1
2
1
76
77
33
24
22
3
68
57
28
10
7
2
1
2
1
1
1
0
1
2
1
1
2
2
1
1
1
1
2
1
1
2
1
3
4
3
4
5
3
19
35
16
14
38
14
11
29
10
36
49
19
15
20
6
30
37
18
31
43
20
56
59
21
45
53
18
55
67
21
56
68
21
19
39
13
40
66
20
30
59
16
12
40
13
19
48
16
17
34
12
25
26
11
20
28
12
17
35
11
25
54
16
25
48
14
30
53
19
8
30
5
4
15
1
1
3
1
0
2
0
0
1
0
1
1
1
1
1
1
17
18
5
52
54
21
54
56
26
67
66
21
65
74
18
57
71
18
54
58
20
13
12
2
21
23
7
37
41
19
4
5
2
3
2
1
4
4
2
8
9
5
4
5
2
8
10
4
32
33
23
36
35
23
45
45
20
60
68
30
65
69
21
54
49
17
48
48
19
42
44
18
47
44
16
57
56
22
49
51
16
45
45
20
19
16
10
23
19
15
11
7
2
10
8
3
7
7
2
14
12
5
33
34
21
14
17
7
27
26
11
61
66
21
51
61
19
28
30
7
43
40
19
63
59
25
43
44
18
64
60
24
82
69
24
52
47
21
67
60
30
39
43
22
17
27
8
20
33
14
27
37
19
23
34
12
5
12
2
5
11
3
2
3
1
6
10
5
7
14
3
6
13
1
3
8
1
18
28
7
18
32
9
18
31
11
17
20
6
57
68
15
67
79
14
52
68
13
52
74
13
61
77
12
52
64
15
50
58
13
81
74
19
51
52
13
70
73
22
77
70
22
80
69
19
77
64
23
71
68
17
60
69
15
48
59
14
51
63
11
51
72
15
58
76
14
57
71
13
43
59
18
40
57
13
43
61
11
41
58
16
39
44
12
49
61
19
45
58
16
43
47
15
33
42
17
37
49
17
39
59
15
59
75
18
47
58
20
20
23
7
21
28
12
17
21
12
11
12
7
13
13
7
11
9
6
1
1
1
1
0
1
0
0
0
1
1
1
0
2
1
1
2
1
1
2
1
1
2
2
1
1
2
1
2
1
1
1
1
2
2
2
1
2
2
2
2
2
2
2
2
4
20
5
14
46
15
11
35
11
14
34
14
3
5
3
5
7
4
0
0
0
5
9
5
4
13
4
10
17
7
4
4
1
8
6
4
6
8
3
9
12
6
4
4
3
3
4
2
4
4
1
75
61
45
108
85
69
97
78
64
83
72
58
89
77
62
86
77
57
80
74
61
66
64
51
75
75
57
97
89
62
84
76
64
86
82
65
65
58
36
152
110
69
143
109
71
117
85
52
143
101
59
157
104
63
207
140
73
228
161
81
208
144
81
202
136
73
219
149
83
184
125
74
152
94
57
163
110
64
135
98
58
66
52
35
91
76
52
79
67
41
167
119
67
210
144
75
192
125
72
181
120
68
79
60
33
115
75
48
154
104
63
183
139
80
127
94
56
194
134
76
193
144
82
55
52
23
133
102
66
95
83
45
70
75
32
169
144
92
149
124
79
80
67
41
140
114
81
88
78
35
195
159
94
158
132
84
57
54
26
13
34
9
23
46
18
9
17
5
16
22
12
38
36
18
143
119
79
111
95
66
10
30
8
8
26
9
2
8
2
13
22
11
19
29
16
1
2
0
64
59
42
64
63
40
19
33
13
37
65
18
28
46
15
3
8
2
12
24
11
7
16
5
18
29
15
7
16
3
28
49
22
25
44
21
14
27
12
37
50
21
1
8
1
1
4
1
14
32
9
20
50
13
14
48
9
20
55
13
14
35
11
12
26
8
27
55
20
20
43
12
40
49
27
1
4
1
22
33
14
21
31
14
18
32
8
52
73
24
28
55
14
9
18
5
9
11
4
11
23
7
28
50
14
26
43
14
21
32
12
4
7
4
2
3
2
35
42
14
49
60
22
14
22
6
23
40
17
34
58
17
29
44
17
40
54
15
55
80
18
52
79
12
59
76
14
81
77
16
81
81
14
60
76
11
79
82
8
73
79
6
55
79
4
39
81
6
18
68
4
16
53
9
19
49
14
18
44
14
12
39
6
16
65
10
17
60
13
13
40
6
25
63
17
11
41
9
11
38
8
17
65
10
18
71
8
19
49
11
14
39
7
26
69
14
22
69
7
66
77
14
47
54
12
58
62
22
28
32
6
76
70
24
45
38
6
114
94
34
42
32
8
28
23
11
1
2
1
1
1
1
1
1
1
1
1
1
2
2
1
1
1
1
1
1
1
6
8
3
36
46
16
31
51
13
30
47
13
32
53
20
25
36
14
34
41
20
33
45
19
49
56
23
56
64
23
63
70
20
75
74
21
56
59
24
35
46
17
24
36
12
24
37
18
10
19
7
4
8
3
0
1
1
1
1
1
1
2
1
1
3
1
1
4
1
2
4
2
2
3
1
3
4
1
21
25
10
17
24
12
19
23
15
29
33
22
39
43
25
45
52
25
35
41
16
35
45
23
44
57
18
47
64
17
52
63
25
37
37
19
6
5
2
2
2
2
3
3
2
4
5
3
43
38
24
50
44
26
29
28
17
26
26
15
21
25
17
17
23
14
26
29
16
42
41
16
53
64
23
57
63
20
31
30
13
36
38
17
31
40
17
42
46
18
45
52
19
44
47
19
18
19
10
2
1
1
1
1
1
1
1
1
0
1
0
3
3
1
51
43
29
29
29
15
14
18
9
11
12
5
32
39
18
43
48
20
73
61
29
58
48
20
79
73
23
65
62
21
74
66
26
60
52
18
43
39
17
59
54
26
25
24
11
3
3
2
21
21
12
12
18
8
10
12
5
11
12
5
4
5
1
2
6
1
30
35
14
28
33
8
1
5
1
3
11
2
7
13
1
23
29
15
41
48
25
29
39
18
43
53
13
69
76
11
52
76
11
50
79
18
53
79
14
39
57
10
58
84
18
70
82
17
34
39
9
50
59
21
72
71
19
85
72
18
74
64
17
63
61
18
55
57
17
20
39
13
15
43
11
16
37
11
18
38
10
24
48
16
19
43
12
24
49
20
16
40
10
20
43
14
21
39
15
24
54
17
26
52
17
31
53
18
27
50
20
23
44
18
22
46
13
36
59
14
40
58
21
21
36
13
33
53
19
25
44
16
23
34
16
27
33
20
10
15
6
24
28
20
1
2
1
1
2
2
1
2
2
1
2
1
1
1
1
1
1
0
1
1
1
0
1
0
0
2
2
2
2
2
2
2
3
1
2
2
1
2
2
1
1
2
1
2
1
0
3
1
1
3
1
2
4
1
1
3
1
2
3
2
11
12
9
8
11
7
24
27
20
60
58
43
77
67
55
78
67
56
32
33
23
27
29
20
6
7
4
16
19
10
44
47
30
58
55
31
63
55
38
38
33
23
9
8
4
24
21
14
34
31
23
3
2
1
3
2
1
8
6
3
98
71
42
94
65
38
91
73
46
61
45
23
163
101
57
189
129
76
151
97
58
166
114
67
129
85
49
182
118
68
199
135
76
187
122
71
204
129
70
229
156
78
231
162
84
209
139
76
222
155
79
197
146
82
99
64
40
201
141
85
140
105
63
107
74
43
214
147
79
225
159
81
224
165
88
124
96
46
148
109
61
137
108
62
181
146
87
94
73
39
98
79
50
100
86
52
34
45
21
85
70
52
72
62
42
80
77
40
120
94
56
131
100
60
159
124
87
127
102
69
40
42
10
141
119
73
169
129
82
92
69
40
4
13
3
16
31
12
17
24
10
27
32
19
37
51
19
108
95
64
26
28
7
17
35
14
4
13
3
0
1
0
19
28
15
1
3
1
4
4
3
48
47
34
25
36
18
22
41
14
37
64
20
27
44
16
3
7
2
5
15
4
15
24
12
21
42
17
23
46
13
41
59
20
17
30
12
10
21
8
42
56
24
14
22
11
5
10
5
2
3
1
13
33
7
29
65
10
26
57
14
6
18
4
19
36
14
21
43
17
27
43
15
20
33
14
5
14
2
39
49
18
17
22
6
25
50
14
31
62
18
26
42
17
23
27
12
6
12
2
31
49
20
20
38
9
29
48
17
3
5
1
18
22
14
24
28
15
42
46
21
17
20
5
19
29
13
25
40
16
29
45
13
32
48
19
22
28
7
56
65
16
70
84
11
73
83
7
80
81
9
76
83
8
74
82
8
75
76
6
66
73
11
44
69
12
28
63
11
19
52
10
18
52
12
14
38
11
11
24
9
8
25
5
23
60
14
25
66
12
30
69
12
23
68
11
17
51
12
24
52
19
29
64
12
34
77
7
25
52
10
23
42
15
27
67
16
26
69
9
44
68
10
55
72
10
64
75
6
66
75
11
78
71
13
86
70
15
123
93
27
89
63
20
72
57
26
37
35
11
14
10
2
29
24
15
21
15
5
27
25
9
42
38
16
38
39
11
61
66
25
67
69
23
73
80
17
74
78
22
44
63
24
62
72
23
39
34
10
38
40
21
27
29
14
11
13
4
20
24
6
32
35
13
25
28
12
27
30
18
23
26
8
22
27
12
17
25
12
28
38
24
7
12
6
5
7
4
1
2
1
2
3
1
3
6
2
31
45
22
34
51
19
41
43
21
44
48
25
22
29
13
4
6
4
2
3
2
7
10
3
20
27
15
6
8
3
6
11
4
24
38
15
23
34
13
35
41
20
32
30
16
6
6
2
3
3
1
2
3
1
10
11
8
26
27
16
44
43
22
57
54
30
55
54
32
30
37
21
48
50
25
48
51
29
48
48
27
37
42
16
31
35
18
3
4
1
24
31
16
48
57
20
63
64
15
67
74
19
71
69
21
22
19
7
14
12
8
2
2
2
8
8
7
33
29
17
53
43
22
45
39
22
38
36
21
40
43
26
33
34
14
29
27
9
23
21
7
58
47
22
65
55
25
72
67
19
84
68
24
88
67
26
66
48
19
60
46
17
67
53
25
50
44
26
50
40
18
65
52
23
25
22
9
57
46
22
38
32
14
69
60
23
55
65
20
58
68
16
62
77
18
36
66
14
38
67
22
45
64
21
49
63
27
20
30
14
19
28
10
41
47
19
55
59
13
34
61
14
32
57
7
52
86
9
41
88
11
43
89
14
56
71
18
47
48
18
44
53
19
53
54
21
54
48
19
51
49
17
35
44
14
25
43
15
8
26
6
16
36
14
9
21
8
12
21
11
10
23
8
13
25
12
7
17
5
12
22
11
22
36
19
12
25
8
20
40
14
22
48
16
22
42
14
17
31
13
17
39
15
15
35
12
22
43
13
48
59
24
37
57
19
42
58
14
70
74
21
73
68
25
75
60
29
19
19
7
29
34
25
31
34
25
2
4
2
1
3
2
1
3
2
1
2
1
0
2
1
0
0
1
15
16
13
17
18
15
12
13
9
2
2
2
1
1
1
1
1
1
1
1
1
2
1
1
2
4
2
15
21
13
17
27
14
29
36
26
22
25
12
45
46
30
23
27
12
26
32
19
41
42
30
61
61
50
26
24
20
44
43
34
47
49
34
29
27
19
56
54
42
79
71
55
93
71
57
111
79
60
103
73
48
104
76
48
110
82
56
108
79
57
52
32
23
8
6
4
4
2
1
138
98
58
165
107
59
145
91
57
121
86
48
219
155
87
233
166
91
206
139
75
229
163
90
219
154
83
217
151
84
210
146
78
223
154
81
223
153
78
232
162
80
230
162
81
230
162
82
228
164
81
215
160
88
148
103
60
228
164
83
192
148
84
111
78
44
216
151
77
229
168
85
193
146
78
162
129
71
137
109
59
104
91
46
152
126
67
96
78
43
86
72
43
74
74
39
49
63
29
23
24
13
33
37
20
52
57
23
137
111
69
178
137
91
80
59
32
112
89
60
50
41
16
175
141
94
161
122
74
152
112
72
15
25
12
19
33
16
15
19
12
29
39
16
44
66
25
72
76
41
18
24
8
2
4
1
1
1
1
4
8
4
12
21
8
10
16
10
1
1
1
9
16
9
15
25
13
29
45
22
25
45
16
17
30
11
12
23
12
10
22
10
3
7
2
24
45
15
43
57
21
19
28
10
9
18
7
24
46
20
30
49
23
26
33
16
14
25
7
14
28
11
9
20
7
28
57
16
17
38
8
22
33
18
29
51
20
18
32
10
47
65
22
23
43
15
22
37
15
44
54
18
22
22
8
18
41
15
11
30
6
33
42
18
36
39
18
18
27
11
24
40
19
8
21
6
18
37
13
2
4
1
38
40
16
36
37
18
12
14
6
6
7
3
2
5
1
15
24
11
36
42
17
15
21
7
41
46
20
42
48
15
70
81
14
73
84
10
67
72
14
74
77
14
74
78
13
71
73
15
23
34
8
6
16
3
0
2
0
0
1
0
15
28
11
14
35
11
7
28
5
14
49
14
11
50
7
18
55
12
16
44
10
19
48
17
24
56
16
38
71
15
38
72
13
36
81
6
26
74
13
22
59
16
17
48
12
34
60
19
12
27
7
32
51
16
61
75
13
68
78
10
65
76
11
68
79
11
77
80
13
63
61
14
57
56
15
59
62
18
59
61
24
65
56
21
78
62
21
70
65
21
71
66
24
63
60
21
57
56
19
39
38
13
56
61
17
79
78
25
69
71
18
86
83
24
89
72
31
26
22
12
2
2
1
12
10
6
3
3
2
1
1
1
0
1
0
3
2
1
11
7
4
4
4
2
8
7
5
9
9
4
7
10
4
9
9
3
33
32
21
20
24
16
13
16
10
29
33
13
49
51
22
44
40
23
7
6
2
3
3
3
2
4
3
2
5
4
3
5
3
6
6
4
6
5
3
9
7
5
35
31
21
20
18
10
53
51
23
61
62
28
65
62
22
72
69
19
63
68
30
27
30
17
20
22
13
47
51
31
32
29
16
40
33
22
29
28
14
39
36
15
55
53
28
52
45
23
9
7
4
1
1
1
6
6
4
37
39
14
82
82
24
78
74
17
74
77
17
75
75
18
68
60
24
26
22
10
32
28
16
33
32
21
31
28
17
25
20
7
20
18
7
44
39
18
69
62
24
85
74
25
107
77
35
101
71
42
42
34
17
57
47
15
92
74
17
101
75
13
92
66
12
120
85
45
83
64
10
99
72
29
81
66
17
91
70
16
91
71
20
76
65
14
100
77
22
92
78
27
59
56
15
59
71
17
77
79
13
58
63
13
59
76
19
50
61
18
42
53
20
14
24
6
22
31
16
24
38
19
25
38
17
20
35
11
29
51
12
34
64
13
49
78
15
50
71
15
53
63
18
44
46
14
32
44
17
28
45
14
35
44
14
32
41
15
23
36
15
11
24
8
8
22
6
13
24
12
4
10
3
6
9
5
4
7
3
9
13
8
6
12
6
3
5
2
9
14
8
12
27
10
15
35
12
16
36
14
13
30
11
16
29
13
18
29
16
17
32
15
14
28
12
36
42
16
71
58
26
126
86
47
180
123
71
158
101
53
148
94
54
188
118
74
137
81
48
117
74
44
96
65
40
15
10
4
5
6
3
10
9
5
1
1
1
0
1
1
2
1
0
4
2
1
2
2
1
10
11
7
5
5
4
0
0
0
32
32
23
58
54
41
70
63
48
60
56
45
45
46
39
21
25
15
45
42
34
67
57
43
102
77
49
97
72
44
75
66
46
74
58
44
79
54
49
62
39
41
64
51
42
64
63
42
64
58
41
68
54
44
74
54
46
130
88
64
185
126
75
219
149
82
223
155
83
228
162
90
222
156
90
133
84
53
43
27
18
35
22
12
169
121
67
220
150
74
177
105
58
172
116
69
232
165
90
233
165
86
233
163
84
232
163
84
233
162
84
232
161
83
232
161
83
233
160
81
231
160
82
210
145
77
207
144
79
185
124
72
178
122
69
191
137
80
157
103
58
232
165
85
195
148
85
107
74
40
189
131
76
213
157
89
142
107
55
178
136
79
94
83
49
43
46
18
122
100
64
69
59
37
40
39
21
62
58
34
23
27
14
4
4
2
45
47
28
55
62
30
84
82
48
141
114
74
64
50
26
124
99
68
32
38
11
106
95
57
74
68
40
107
85
57
12
27
7
13
26
10
16
21
13
11
17
8
4
22
2
19
59
17
3
11
2
2
2
1
1
2
1
0
2
1
1
1
1
0
0
0
0
0
0
7
15
6
13
26
10
18
34
12
21
39
15
13
25
9
12
21
9
20
30
17
15
24
11
28
45
12
53
65
23
41
48
25
4
7
1
14
31
11
25
42
19
18
29
11
21
48
16
20
46
16
15
28
11
27
49
19
4
13
2
6
20
4
21
45
18
24
42
18
29
45
15
36
46
16
35
32
14
27
40
19
1
4
0
11
20
10
5
11
3
28
50
17
15
33
9
5
12
4
5
15
4
21
35
17
8
16
6
2
3
0
46
48
22
5
5
2
16
17
9
15
16
9
32
33
19
17
24
13
15
23
12
28
31
12
49
53
21
32
33
13
64
62
18
82
78
17
74
65
19
50
45
19
51
47
16
37
39
14
4
6
2
1
2
1
1
1
0
1
1
0
10
23
8
23
56
10
30
66
10
13
49
9
27
54
11
45
63
17
4
14
2
10
23
9
15
43
9
28
70
14
15
55
8
21
56
13
6
28
4
1
7
0
1
4
1
7
15
4
2
2
1
30
26
15
48
47
15
67
65
19
69
65
17
64
61
13
73
73
19
50
58
10
66
73
18
70
77
18
70
77
18
76
66
20
53
42
18
56
52
18
44
39
18
22
19
9
35
31
18
25
24
13
35
43
18
38
52
17
47
65
21
45
49
16
75
59
24
72
64
25
52
48
12
53
50
16
54
51
18
44
42
13
45
42
19
28
25
8
54
48
22
27
28
15
26
25
14
59
54
25
50
60
23
52
61
25
47
47
20
47
46
19
41
45
18
59
60
22
54
51
19
34
32
19
64
55
27
38
32
11
38
32
12
51
43
18
40
36
17
47
42
19
31
26
16
14
9
7
21
17
13
4
3
1
18
17
6
27
29
14
39
38
15
63
60
21
70
67
23
64
65
29
11
11
3
21
23
13
24
23
14
20
19
11
3
4
2
3
4
2
17
18
7
36
34
18
19
24
15
7
12
5
4
5
3
39
36
11
75
72
22
50
50
16
43
47
18
61
59
15
79
69
15
66
57
17
70
60
21
47
41
11
7
7
2
11
13
7
34
35
21
84
61
24
95
73
20
67
61
16
84
61
23
114
83
43
62
54
18
89
70
16
96
72
13
94
71
7
89
68
8
90
67
14
76
64
8
84
65
12
82
71
6
85
75
11
83
75
10
82
76
9
84
76
8
83
77
15
77
74
14
79
79
12
85
80
11
78
72
14
68
66
20
24
21
4
32
38
21
3
4
1
6
8
4
4
8
2
11
18
6
17
33
11
38
65
17
37
73
16
22
47
10
22
28
6
17
24
6
18
31
11
11
26
7
23
43
16
22
36
13
10
17
5
2
5
2
1
2
1
3
5
3
2
3
2
0
0
0
4
8
3
18
30
17
3
4
3
2
2
1
0
0
0
2
3
2
5
16
4
20
44
17
11
30
9
2
8
2
19
30
17
12
22
11
2
5
1
9
8
3
104
65
35
130
82
52
170
108
68
180
114
65
178
115
67
170
110
64
214
139
79
226
148
86
203
128
81
161
103
68
92
61
40
72
40
21
102
74
51
29
25
16
33
26
17
89
65
39
132
92
59
113
75
46
92
59
28
55
36
17
12
7
3
36
30
22
58
43
37
49
30
21
84
54
40
81
51
35
52
38
19
103
71
53
153
99
69
171
98
60
196
124
75
160
101
64
147
90
61
113
68
58
81
44
48
71
45
42
65
56
40
65
59
42
62
48
38
78
56
39
213
154
93
234
163
89
235
164
88
233
164
87
232
164
86
234
166
89
201
130
77
180
118
69
151
94
51
210
145
78
228
159
79
217
140
66
229
158
85
232
161
83
233
163
84
234
162
84
234
162
85
234
162
84
233
162
83
233
162
83
233
162
83
232
161
83
225
155
81
219
151
82
183
122
66
182
125
70
181
128
76
153
99
57
226
157
81
200
152
87
121
88
50
203
143
82
224
164
93
178
129
73
151
113
65
66
59
41
29
29
17
62
49
32
64
51
38
21
22
10
96
77
60
53
42
31
13
12
7
23
23
15
12
15
5
27
41
16
50
59
26
13
18
4
61
61
34
18
34
12
21
39
13
34
40
17
63
60
35
11
25
7
4
12
2
7
14
6
8
16
7
7
17
5
13
31
10
2
4
1
8
13
8
4
5
3
4
5
3
4
6
3
10
14
8
9
14
7
15
24
12
24
37
21
35
52
23
7
16
3
6
14
5
9
17
6
22
33
19
5
12
1
51
61
22
47
53
20
20
30
14
2
4
1
27
41
19
36
50
13
50
67
22
13
31
10
8
17
6
12
20
9
4
10
3
1
2
0
19
35
15
21
40
16
16
27
11
32
42
16
43
46
19
34
30
15
33
46
20
1
3
1
13
23
11
5
11
4
17
38
12
11
28
7
12
19
11
6
12
5
7
14
5
1
2
0
18
22
14
21
22
10
9
11
5
2
3
2
1
1
1
27
28
15
13
20
6
1
2
1
21
24
11
12
15
4
19
25
15
8
11
2
36
34
12
39
37
14
25
22
8
32
30
16
26
28
15
14
20
11
6
12
3
25
37
18
16
28
13
11
17
9
25
37
9
44
64
16
21
36
11
17
16
3
62
62
23
13
22
6
22
26
16
6
14
5
5
18
4
1
5
1
4
6
3
3
5
4
1
2
1
1
1
1
4
4
3
4
2
1
45
35
20
52
45
18
52
49
22
54
51
24
18
13
3
50
48
21
59
58
18
68
65
16
65
64
15
56
60
16
57
55
19
42
39
16
51
50
20
41
38
17
40
35
20
31
28
17
6
5
2
3
3
1
21
24
12
13
19
7
2
3
1
28
22
10
64
59
20
71
70
18
63
69
19
59
67
20
66
72
22
50
54
19
57
59
24
70
64
23
52
44
13
57
50
19
58
55
23
34
40
14
12
17
3
35
32
18
21
22
8
20
25
9
24
28
10
19
22
7
13
13
4
67
59
23
71
62
21
71
69
27
79
66
26
46
41
13
80
74
23
57
46
18
30
24
19
0
0
1
4
3
3
4
3
3
1
1
0
4
4
1
7
5
1
13
15
5
36
44
29
13
15
7
35
31
18
16
13
5
14
23
12
17
27
15
21
23
15
19
22
13
7
15
5
17
28
12
21
34
18
1
4
1
30
34
11
60
61
19
30
31
9
36
39
24
31
36
15
64
65
15
70
69
10
78
70
17
77
62
20
54
51
22
16
19
10
9
9
2
83
70
24
67
60
18
76
66
23
32
27
7
38
43
15
41
51
16
63
56
18
73
54
16
72
58
13
63
57
14
61
53
14
74
62
13
73
62
8
82
73
11
84
75
10
84
78
11
83
79
12
76
74
15
68
62
11
85
76
9
81
78
8
82
75
11
82
72
10
88
75
14
73
60
17
39
36
11
12
10
4
8
7
4
10
10
6
1
1
1
11
18
10
19
37
12
27
48
12
27
41
14
14
22
9
17
26
12
12
25
8
21
32
16
23
37
18
3
6
1
4
7
3
9
17
8
1
1
1
2
4
2
1
2
1
0
0
0
0
1
0
1
2
1
3
3
3
0
0
0
0
0
0
0
0
0
5
9
5
21
37
18
5
15
5
10
19
9
16
29
15
9
17
9
0
1
0
7
2
1
112
69
41
128
85
54
172
117
73
194
131
75
151
90
44
120
74
33
205
139
74
231
163
86
224
155
83
154
95
44
158
103
56
167
106
59
82
49
22
43
29
16
38
26
13
110
73
40
123
71
32
198
128
76
171
103
59
161
98
54
110
69
35
82
51
23
108
65
34
130
75
39
173
107
60
168
107
59
112
72
34
152
106
60
180
123
73
227
158
88
230
160
85
230
159
85
229
162
93
136
94
64
82
52
50
87
54
53
75
47
41
75
51
41
70
44
39
95
60
40
227
161
95
233
160
84
233
162
86
232
164
86
233
164
86
234
166
88
211
136
83
211
135
79
185
114
70
215
148
81
230
162
84
227
154
75
232
159
82
232
161
82
233
161
84
233
161
84
234
162
84
234
162
83
233
162
83
234
162
84
233
162
83
233
161
83
232
160
83
232
161
81
232
160
80
232
161
80
224
161
91
138
94
59
205
146
88
174
128
77
109
76
44
201
145
86
230
169
86
188
139
72
161
127
71
64
55
32
63
55
32
166
129
83
89
69
48
33
30
15
46
41
28
24
22
13
7
8
3
5
6
4
29
28
21
44
46
31
74
68
46
33
39
19
21
34
13
21
30
17
28
33
19
58
53
39
33
42
20
23
44
18
4
14
2
12
21
12
12
21
12
16
18
9
24
29
17
7
11
6
2
2
2
0
1
0
1
1
1
12
12
7
21
21
14
7
13
4
27
37
20
18
24
8
47
55
19
29
34
17
14
22
11
9
16
7
15
29
14
9
24
7
33
54
19
4
11
2
20
36
18
1
5
1
16
32
12
23
46
15
8
15
2
2
4
1
14
32
10
1
5
1
12
24
12
0
3
0
3
8
3
1
4
1
5
13
4
7
11
3
4
5
1
23
40
13
29
59
13
23
40
15
18
31
17
3
8
2
24
32
15
32
47
21
12
22
8
3
5
2
15
26
12
8
16
6
1
1
1
4
9
3
31
38
20
18
21
10
1
2
1
0
2
1
21
40
18
2
3
2
30
29
18
10
9
3
40
37
14
62
51
17
46
37
16
4
3
2
1
2
1
1
2
1
16
18
13
13
19
8
9
14
6
20
27
12
11
18
7
5
8
4
12
9
2
63
55
25
22
22
8
22
18
7
46
46
24
10
13
6
28
26
14
6
6
3
2
2
2
26
24
15
14
13
8
1
1
1
2
3
2
22
19
10
14
12
7
5
4
3
50
39
16
80
67
24
49
42
15
51
49
22
14
10
3
54
48
22
48
42
17
56
46
21
42
33
13
39
34
19
39
34
16
59
48
22
38
31
10
7
7
2
2
2
1
1
1
1
1
1
1
0
0
0
0
0
0
0
0
0
32
26
17
30
22
12
54
41
21
27
23
7
31
28
11
51
45
19
48
45
21
30
29
12
47
46
19
50
52
17
51
50
16
27
26
7
6
6
3
1
1
1
1
1
1
19
14
8
16
12
7
12
14
7
43
52
20
60
69
23
41
47
15
55
50
20
21
17
5
46
44
21
50
44
22
67
67
24
66
66
21
49
38
20
47
29
19
8
4
2
3
4
2
2
2
1
1
1
1
1
1
1
3
1
1
7
7
4
18
21
14
29
24
17
56
44
26
43
34
19
47
41
27
33
33
18
39
50
20
23
39
16
18
39
13
26
48
19
25
42
19
16
24
11
32
48
21
18
37
13
13
22
9
46
44
24
3
5
1
48
56
17
57
67
16
50
61
18
48
46
19
28
30
12
19
25
11
29
33
16
62
66
21
42
41
13
50
45
20
15
13
3
20
30
14
12
24
10
28
29
15
35
36
16
49
54
23
32
35
14
40
38
17
50
44
17
63
59
28
58
50
13
86
69
20
72
64
15
59
60
17
49
52
16
66
55
16
84
70
14
79
71
11
55
51
9
75
65
15
60
58
15
61
65
17
50
63
19
53
59
27
23
25
12
6
6
2
3
3
2
7
11
5
27
47
18
21
33
14
7
11
3
19
32
15
4
11
3
6
8
5
14
20
11
8
12
6
3
4
1
6
13
5
8
16
6
3
5
2
1
1
1
1
1
1
1
1
1
0
0
0
1
3
1
5
13
5
0
0
0
0
0
1
6
8
5
8
18
7
16
33
15
4
10
4
7
11
5
22
28
16
30
30
22
1
1
1
4
3
1
87
68
42
90
62
32
116
79
44
192
128
72
199
127
75
142
89
44
224
159
85
231
163
84
232
162
84
217
141
79
213
138
81
218
143
81
115
68
34
85
59
34
71
46
21
164
102
56
183
119
69
226
158
90
227
156
82
228
157
83
198
132
74
169
98
56
175
101
58
212
137
79
228
160
88
223
153
87
168
99
52
216
150
85
231
159
88
234
162
85
233
162
84
232
160
83
231
160
85
179
119
72
125
84
59
79
49
41
119
83
65
76
50
40
74
48
39
116
77
49
229
162
90
232
160
83
232
160
84
233
162
85
233
163
86
234
166
89
188
122
74
174
109
70
182
120
71
224
159
88
233
165
88
233
163
85
232
161
84
232
160
83
232
160
83
232
160
83
232
160
83
232
160
85
232
160
83
232
159
83
232
160
82
232
161
82
233
161
82
232
161
82
233
162
82
234
163
82
226
162
90
156
105
60
232
168
92
186
134
76
173
119
65
231
164
84
229
163
77
207
153
82
131
103
61
121
89
58
110
77
43
210
159
94
115
84
59
109
80
56
52
39
22
33
38
20
20
22
11
28
24
17
2
2
1
1
1
1
0
1
0
7
9
4
73
64
49
15
19
9
30
34
19
81
69
52
22
26
7
33
49
16
41
51
20
16
21
9
1
3
1
14
19
8
16
20
9
1
1
1
1
1
1
1
1
1
6
7
5
8
8
6
2
1
1
1
4
0
31
50
21
40
57
26
32
38
16
5
6
3
9
16
8
3
6
2
5
13
4
8
19
8
3
4
2
5
10
4
12
21
11
23
32
18
28
40
19
21
35
14
5
14
4
5
17
4
20
44
17
7
17
6
20
36
16
1
5
0
8
19
9
6
15
4
17
33
13
4
10
3
12
20
10
4
18
2
21
47
15
8
21
6
3
8
3
6
12
5
37
40
26
10
16
4
21
32
16
4
5
3
2
4
2
1
2
1
1
1
1
17
27
12
16
23
11
11
17
10
7
12
7
0
2
1
6
12
5
6
9
5
14
20
10
10
11
5
41
41
18
76
63
20
57
42
14
7
6
3
1
1
1
0
1
1
1
2
1
44
41
14
35
29
7
39
35
19
35
31
17
3
3
1
51
37
16
87
58
20
79
64
24
33
27
9
28
27
16
20
14
4
77
63
31
20
15
5
22
19
9
48
40
21
12
8
4
23
20
8
27
24
11
55
43
17
47
38
17
8
6
1
52
41
14
78
66
23
41
35
11
37
35
15
41
36
21
47
41
18
60
51
22
43
34
19
10
8
3
16
12
7
2
2
1
4
3
2
3
3
2
0
2
1
1
1
1
1
0
0
1
0
0
0
0
0
0
0
1
0
0
0
18
14
7
22
14
7
48
40
26
39
33
18
17
13
5
34
25
13
36
29
12
15
14
6
1
2
1
6
11
5
8
15
5
21
32
17
1
2
1
1
1
1
1
1
1
1
1
1
10
8
1
63
60
24
71
70
23
77
70
19
61
57
23
29
24
12
11
10
7
20
20
8
26
27
17
27
30
10
26
28
11
59
52
30
47
28
18
18
12
7
7
6
3
1
2
1
1
1
1
12
7
5
18
14
11
15
13
10
18
15
8
33
26
17
36
32
20
13
14
9
1
0
0
5
6
1
31
41
15
25
52
18
22
48
18
17
34
12
19
34
14
14
20
10
18
25
13
7
13
6
2
3
1
27
26
15
1
1
0
15
29
12
16
31
8
39
50
18
36
37
15
9
12
3
26
29
17
16
25
10
33
54
20
20
37
15
16
26
14
4
6
3
17
21
14
2
3
2
1
1
0
1
1
0
30
28
16
8
8
3
8
8
3
25
26
7
67
63
22
47
46
17
28
26
6
24
33
14
23
35
16
6
9
2
45
39
14
53
45
13
53
52
17
54
53
17
53
49
14
36
41
18
16
23
8
4
12
3
9
16
4
23
25
15
5
5
2
4
5
2
16
33
8
24
45
16
4
9
4
3
4
3
9
15
8
23
27
17
1
1
0
2
2
2
6
6
3
27
25
17
14
17
11
3
5
2
13
15
7
6
6
3
1
1
1
1
1
1
0
0
0
0
0
1
0
0
1
0
0
0
0
0
0
5
8
5
10
18
9
9
18
8
2
3
2
2
2
2
16
16
11
26
24
18
1
1
1
34
27
20
92
59
32
107
67
38
161
107
65
183
116
67
205
139
85
193
129
73
211
148
82
230
163
84
229
160
81
220
150
81
203
135
73
229
158
82
190
120
66
164
108
63
107
68
34
192
129
70
210
142
80
228
160
89
230
161
84
231
162
85
233
163
87
229
157
87
230
154
89
216
140
81
231
162
85
231
160
83
226
149
80
233
159
81
233
160
79
233
161
80
233
161
81
233
160
81
232
160
82
232
161
85
202
137
81
148
94
56
211
153
99
127
76
46
164
110
76
192
132
79
232
161
85
232
160
83
232
159
83
231
159
77
228
158
73
231
161
81
205
134
76
220
147
82
234
167
91
233
167
90
209
139
78
231
159
88
232
160
88
231
160
84
230
158
81
230
159
81
221
153
83
202
139
80
223
153
84
221
151
84
230
158
84
233
160
84
233
161
87
234
163
84
233
163
83
233
163
86
226
161
92
193
131
72
229
163
84
197
136
76
210
141
73
228
155
72
230
163
80
183
134
73
91
73
43
117
90
53
174
133
85
196
155
93
84
60
34
127
92
65
59
49
27
40
44
16
13
13
5
35
29
25
3
2
1
38
34
30
26
22
18
30
25
19
103
80
62
13
9
3
7
9
3
19
19
6
37
45
23
33
43
17
43
41
17
12
11
4
1
5
1
15
34
15
5
8
3
22
24
13
2
3
2
1
1
1
1
1
1
25
25
16
8
8
3
5
10
3
60
63
25
58
63
24
21
22
7
1
2
1
7
12
5
2
5
2
1
1
1
4
9
4
4
10
4
13
26
12
4
10
3
11
19
9
9
19
7
8
16
6
10
22
8
14
27
12
4
12
3
1
3
1
20
39
14
4
12
3
1
1
1
1
2
1
2
4
3
1
1
1
0
1
0
11
24
10
22
39
19
2
6
2
2
4
2
14
22
13
1
2
1
1
1
1
2
3
2
11
15
8
0
2
1
11
18
10
1
1
0
1
1
1
0
1
0
0
1
1
3
5
3
1
1
1
6
9
6
4
5
3
7
11
5
1
1
1
1
2
1
18
15
3
53
56
24
37
42
16
17
18
5
10
15
5
25
30
7
83
78
15
86
75
15
63
62
22
28
30
6
55
53
15
81
67
19
92
67
12
89
73
13
63
53
15
40
35
20
13
8
1
53
46
23
43
42
19
43
40
15
71
41
24
47
24
14
24
19
6
63
54
23
84
67
20
76
61
18
63
54
14
77
71
17
76
73
20
68
66
21
41
38
14
43
39
19
40
33
16
61
48
27
38
26
14
2
1
1
0
0
0
1
1
1
1
2
1
1
2
1
1
1
1
3
4
4
0
0
1
0
1
1
1
1
1
2
2
1
2
1
1
2
3
1
20
17
10
52
44
20
59
59
22
50
48
18
55
49
13
64
61
22
22
22
10
2
3
1
25
26
18
22
25
16
17
23
12
9
15
6
1
2
1
1
1
1
10
9
4
42
39
22
64
60
25
22
22
6
46
48
19
24
28
10
3
2
2
0
1
0
1
1
0
3
4
2
1
2
0
27
29
15
62
60
29
37
35
18
17
15
8
2
2
2
1
1
1
1
0
1
1
0
0
1
1
1
13
16
9
26
25
15
20
15
7
35
34
22
14
14
9
1
1
1
1
1
1
3
4
2
10
22
7
15
30
11
9
20
8
5
9
3
3
4
2
1
1
0
1
1
1
0
0
0
5
5
4
0
0
0
9
24
8
19
35
18
2
3
1
3
4
2
2
4
4
7
10
3
16
24
10
23
41
18
10
20
8
8
14
6
0
1
0
5
5
3
1
1
1
1
0
0
0
0
0
16
15
6
36
39
21
2
2
0
40
47
23
31
37
10
13
16
4
17
21
10
20
27
10
22
30
15
11
13
8
39
37
16
21
22
6
55
61
22
49
51
19
26
22
6
39
35
19
41
39
24
1
1
0
2
3
2
15
20
4
47
48
17
48
48
14
36
61
20
13
26
5
2
2
2
1
1
1
1
1
1
1
1
1
0
0
0
0
0
0
13
12
6
22
21
11
2
2
2
0
0
0
1
1
1
1
1
1
1
1
1
1
2
1
1
1
0
1
1
0
9
8
4
2
2
1
1
1
1
1
1
1
2
2
2
2
3
2
0
1
1
0
0
1
1
1
0
1
1
1
6
6
5
19
12
4
127
83
54
156
101
67
190
136
82
172
114
64
224
157
89
212
148
82
200
136
74
231
161
82
230
158
79
229
157
79
228
157
80
229
158
81
224
152
84
222
154
90
131
80
43
190
123
74
220
143
85
233
162
87
231
162
85
231
163
85
232
163
84
234
163
83
235
161
83
234
160
83
233
161
80
233
161
79
233
159
79
232
159
78
232
159
79
232
159
82
232
159
83
233
160
83
234
160
83
233
160
84
233
160
84
233
161
85
234
163
85
233
164
90
217
149
83
232
162
88
226
152
82
225
151
80
232
160
81
232
159
79
233
160
78
233
161
80
229
152
77
224
147
71
228
155
79
217
149
79
220
148
83
174
105
62
213
142
78
230
159
80
227
152
71
197
124
62
165
101
55
163
106
63
176
114
67
153
92
54
206
138
77
214
143
77
160
102
62
205
143
82
225
157
84
205
144
84
174
121
78
164
103
62
189
119
67
190
117
64
173
106
57
165
99
52
192
126
70
195
130
76
112
72
41
116
76
51
138
97
67
151
115
75
79
58
32
92
68
46
61
49
30
38
37
19
31
25
19
62
47
40
62
47
39
49
44
31
43
38
23
66
57
42
97
80
55
21
35
11
25
45
21
20
24
10
25
33
17
12
23
7
46
49
24
19
16
8
5
12
5
12
25
11
34
37
18
39
44
23
9
15
7
1
3
1
4
5
3
25
29
16
22
24
13
12
14
9
35
41
20
24
33
10
38
40
18
2
5
1
16
23
11
14
23
11
3
8
3
3
9
2
7
17
7
19
40
15
9
19
5
18
27
14
14
23
10
12
30
10
14
31
11
10
22
6
19
31
14
1
2
0
21
37
19
2
6
2
1
2
1
4
10
5
10
17
10
1
2
1
1
1
1
1
1
1
5
12
5
1
4
2
8
12
8
0
1
0
0
1
1
1
1
1
1
1
1
2
3
1
0
1
1
4
7
5
0
0
0
0
0
0
0
0
0
0
0
0
0
1
0
1
1
1
21
28
18
1
1
0
1
1
1
5
7
3
3
4
2
1
3
0
39
50
16
51
54
15
56
50
19
45
47
18
42
52
18
76
72
18
83
74
13
84
81
19
69
69
20
76
69
20
79
64
17
94
71
16
94
75
15
84
71
20
78
67
24
79
65
16
71
68
19
67
75
22
77
75
24
71
55
17
71
55
18
55
45
22
34
28
12
50
40
15
66
54
18
57
48
12
36
33
5
19
18
5
25
22
7
8
8
2
26
24
16
13
11
5
68
45
26
46
30
17
21
15
10
6
4
3
25
21
14
0
1
0
1
2
1
1
1
1
1
1
1
1
1
1
12
11
6
29
28
12
24
25
15
25
27
14
41
51
18
37
40
15
63
59
21
60
64
23
52
52
17
66
64
15
52
54
15
31
33
18
1
1
0
12
11
5
21
19
12
15
18
9
24
30
18
2
3
2
2
2
2
18
17
10
8
6
2
34
30
16
5
4
1
5
5
2
8
10
6
1
1
1
1
1
1
1
1
1
1
1
1
0
0
0
9
9
4
52
49
28
49
44
25
21
18
12
21
19
13
1
0
1
0
0
0
1
1
1
7
9
7
1
2
1
1
2
1
0
0
1
9
9
4
3
4
2
1
1
1
7
9
6
4
6
4
4
6
2
11
17
9
3
6
3
2
3
2
8
9
6
2
1
1
0
1
0
1
1
1
1
1
1
1
1
1
2
5
2
12
21
11
1
1
1
22
23
16
1
1
1
1
1
1
16
20
10
19
26
15
7
9
5
2
2
1
1
1
1
23
22
13
16
20
7
25
29
14
8
10
4
2
6
1
31
44
21
4
5
1
22
24
14
6
7
3
20
18
9
36
30
18
62
48
30
14
12
5
2
3
1
37
36
21
3
3
0
43
43
18
35
33
16
26
22
9
27
22
9
8
7
3
5
7
3
28
31
12
52
61
27
90
76
23
121
84
32
48
53
17
24
27
13
2
2
1
2
2
2
1
2
1
0
1
1
0
0
0
0
0
0
6
6
3
11
11
6
2
2
1
6
5
4
0
1
1
2
2
2
18
15
7
29
23
13
5
4
1
2
1
1
24
21
15
20
19
11
27
28
19
5
5
2
18
19
14
3
4
2
1
1
1
4
2
1
52
42
34
26
21
16
9
8
6
29
18
7
117
82
48
123
82
52
193
136
78
184
120
67
208
141
79
231
162
87
215
142
74
228
159
85
230
161
82
230
159
81
230
160
80
229
158
81
225
153
84
225
158
84
149
92
49
202
137
78
225
150
85
233
161
88
233
163
85
233
161
84
233
162
85
234
163
84
234
164
84
234
162
84
234
163
83
233
162
82
233
160
81
233
160
80
232
159
79
233
159
79
233
159
80
233
160
81
233
160
81
234
159
81
233
159
80
236
160
80
236
162
81
235
164
84
218
147
82
200
130
82
148
81
50
217
145
79
233
159
79
233
159
79
235
160
78
234
160
78
228
151
70
231
155
76
226
154
78
230
156
80
235
162
84
229
157
83
228
154
74
228
154
70
226
152
74
198
129
70
211
139
77
218
148
76
222
147
71
215
140
70
223
150
74
217
146
73
175
116
63
173
117
68
181
116
68
176
117
71
135
86
50
179
118
73
196
127
69
212
145
83
191
133
77
167
115
74
196
135
85
211
147
89
155
105
64
147
90
65
157
100
69
181
129
79
103
71
39
98
73
45
82
61
38
47
37
22
46
35
26
48
38
30
39
29
21
78
64
46
86
70
49
34
34
17
59
61
27
19
33
8
25
46
23
52
50
25
40
47
22
6
15
5
43
52
24
17
21
10
5
6
5
2
2
1
34
33
16
10
13
4
6
11
5
2
3
2
2
4
2
25
37
15
24
33
14
5
8
4
8
19
8
7
20
7
8
15
7
4
6
4
8
14
7
10
17
9
12
25
11
17
33
14
16
29
11
16
36
16
5
8
3
16
21
14
3
6
2
15
43
13
16
42
13
29
36
23
3
6
2
5
12
5
12
24
11
13
24
13
1
3
1
7
12
6
5
11
5
2
4
2
1
1
1
1
1
1
8
17
7
2
4
2
0
2
1
1
1
1
1
1
2
1
1
1
1
1
1
0
1
1
2
3
2
7
12
7
0
0
0
0
0
1
0
0
0
0
0
1
0
0
0
1
1
1
1
2
1
0
1
1
0
1
0
8
11
6
0
0
0
11
19
9
23
39
18
27
46
19
20
28
13
28
30
16
4
5
1
13
9
2
46
34
8
49
37
13
9
6
1
5
3
0
8
4
1
38
21
9
35
21
4
28
20
5
27
20
7
60
46
14
73
63
20
53
52
17
33
30
12
52
46
13
70
64
22
14
12
3
0
1
0
1
0
1
10
7
4
21
18
11
2
1
1
1
2
1
10
9
5
35
30
18
20
18
8
6
6
3
33
23
12
16
10
3
7
6
2
8
7
3
31
26
15
1
0
0
1
0
0
1
1
1
1
1
1
1
1
1
31
30
12
72
71
20
34
34
8
29
31
13
60
69
22
59
60
18
58
52
19
31
33
13
42
44
17
56
57
15
58
61
19
27
27
11
34
32
10
44
42
17
69
60
27
37
32
12
6
5
2
3
3
1
2
3
2
18
13
7
38
28
19
30
23
13
8
7
4
1
1
0
1
1
1
1
2
1
1
1
1
1
1
1
1
1
1
1
1
1
2
2
1
2
1
1
8
7
4
15
13
9
9
8
4
0
0
0
5
4
3
4
3
3
0
0
0
0
0
0
0
0
0
0
0
0
0
0
1
0
0
0
0
0
1
0
0
0
0
1
0
3
5
2
3
3
2
0
0
0
1
1
1
7
7
4
11
9
5
1
2
1
2
2
2
2
1
2
2
2
2
1
1
1
0
0
0
1
1
0
16
21
12
0
0
0
0
1
0
17
20
11
4
6
2
26
33
22
4
4
2
35
28
20
4
3
1
24
35
16
23
34
15
38
45
23
17
20
7
4
8
2
2
4
2
3
4
2
3
3
2
18
18
11
5
6
2
3
2
1
1
1
0
3
2
1
35
32
19
0
1
0
10
9
6
23
23
14
21
21
12
8
7
4
1
1
1
11
13
6
56
52
27
33
30
10
123
77
39
146
84
43
33
20
5
11
11
4
8
5
1
14
12
6
22
20
9
10
11
5
22
22
15
7
5
3
28
25
14
42
38
22
26
23
16
19
16
10
19
15
9
21
21
13
33
31
15
44
40
23
28
26
18
19
16
10
5
3
2
28
24
18
28
22
15
26
23
16
3
3
2
2
2
1
1
1
1
8
6
3
37
30
22
46
41
33
7
7
2
36
22
11
143
95
60
149
87
52
189
113
62
195
120
71
192
123
74
227
158
87
214
142
82
218
149
85
230
161
86
231
160
84
230
158
79
230
157
79
211
135
75
230
153
84
185
112
64
215
143
79
233
162
84
233
161
83
232
161
83
232
163
85
233
163
85
233
164
85
234
164
85
233
164
85
233
161
81
234
155
73
234
154
70
235
153
69
235
154
70
233
151
66
233
150
64
234
152
64
235
154
70
235
152
69
234
154
71
237
158
77
237
161
80
236
163
84
205
138
81
134
69
52
207
136
78
236
159
77
236
156
71
236
156
71
237
155
69
237
157
72
236
158
74
236
158
74
237
158
74
235
156
72
236
158
76
235
160
79
235
159
76
234
160
75
233
158
77
222
150
79
227
155
76
233
160
75
234
160
77
234
160
77
234
162
78
234
162
78
231
159
80
226
156
81
203
133
72
211
142
78
203
140
81
175
119
76
151
94
58
190
124
69
193
128
69
189
129
76
189
130
80
208
147
92
165
108
65
162
101
65
193
132
90
206
151
94
130
89
58
113
77
52
143
104
78
19
11
5
33
25
17
51
40
33
80
64
54
112
84
65
135
101
79
55
46
36
56
52
33
15
18
5
2
4
1
3
2
1
5
8
3
13
19
6
43
53
22
25
38
19
1
1
1
8
8
3
22
26
13
17
25
11
2
2
2
2
2
2
2
2
2
10
12
4
15
16
8
7
11
6
1
2
1
1
2
1
3
5
3
1
1
1
1
2
1
1
2
2
1
2
1
5
5
1
57
55
26
39
50
19
18
28
16
8
15
7
0
2
0
19
45
17
8
28
6
6
10
6
7
11
6
7
15
7
6
12
5
1
2
1
3
6
2
8
14
8
1
1
1
1
1
1
0
0
0
1
1
1
7
15
8
1
3
1
1
1
1
1
1
1
1
1
1
0
0
0
0
0
0
0
0
0
0
0
0
0
1
1
0
0
0
0
0
0
2
6
3
3
7
4
0
1
0
1
0
1
1
1
1
0
0
0
0
0
0
0
0
1
1
0
1
2
4
2
14
13
5
29
24
12
1
3
1
2
4
1
1
1
1
1
2
1
11
4
1
52
38
27
2
2
1
6
3
2
32
24
16
2
1
1
5
4
1
55
42
20
29
24
8
63
53
21
50
40
15
20
19
9
42
39
22
48
44
19
57
59
22
11
16
2
8
8
3
1
1
1
30
24
12
39
33
16
5
5
3
1
2
1
15
13
5
58
53
22
50
47
19
14
13
9
7
7
5
3
3
2
16
14
9
20
18
11
29
26
15
13
11
5
8
9
2
20
22
5
30
29
14
33
32
20
28
30
9
64
68
14
58
69
19
59
73
21
41
54
12
60
59
16
62
59
21
37
45
17
50
58
20
59
65
17
62
63
18
51
47
13
73
72
17
66
75
22
73
76
26
54
51
24
28
26
15
44
40
24
18
16
7
13
9
6
21
16
11
4
3
2
0
1
0
1
1
0
1
1
1
1
1
1
1
1
1
1
1
1
1
1
1
1
1
1
17
13
10
9
6
5
1
1
1
4
3
2
14
12
7
0
0
0
2
1
1
2
1
1
0
0
0
0
0
0
0
0
0
1
1
1
0
0
0
0
0
0
0
0
0
0
0
0
0
0
0
0
0
0
1
0
0
1
1
1
1
1
1
2
2
0
35
32
21
19
21
11
12
13
7
2
2
2
2
2
3
0
0
1
0
0
0
8
14
6
11
17
8
0
0
0
19
21
14
23
32
14
32
44
21
12
17
8
13
12
7
43
35
21
8
6
1
56
60
22
50
63
20
24
37
15
7
11
4
3
5
2
3
3
1
16
16
12
2
2
1
23
20
12
42
33
23
6
5
3
1
1
0
33
25
19
21
17
9
3
2
3
20
16
12
23
21
14
12
12
6
0
0
0
4
3
1
12
7
5
11
8
3
28
15
7
122
72
47
141
82
48
75
55
25
69
54
26
86
61
41
44
28
16
60
47
34
26
19
11
33
24
18
44
30
23
50
41
28
62
52
33
53
44
37
57
46
35
51
42
30
69
61
42
50
46
33
57
50
39
61
49
39
68
51
39
40
34
25
53
44
33
34
27
20
20
13
7
32
21
13
29
25
17
10
4
3
31
18
11
76
50
31
107
77
52
101
72
43
80
57
34
162
110
69
158
95
54
224
144
77
222
143
73
189
116
66
188
117
66
185
114
70
155
91
57
183
114
72
196
125
72
225
150
76
232
158
84
232
155
86
206
127
70
221
151
87
231
154
78
235
158
81
233
161
85
231
159
86
224
154
88
225
158
90
228
161
89
233
163
84
235
157
72
236
152
67
237
154
71
237
152
69
236
151
68
237
150
63
236
148
62
236
146
58
239
148
58
218
133
59
226
138
64
235
144
60
234
145
61
236
149
63
236
151
66
203
127
66
203
124
72
239
158
73
238
155
65
236
150
63
237
148
61
238
149
61
235
146
58
236
146
60
236
146
59
238
146
60
237
147
62
235
147
62
234
150
66
236
153
66
235
149
62
238
158
70
237
156
69
238
158
71
236
157
70
237
159
73
237
160
73
237
160
74
236
157
73
234
154
70
233
155
70
235
154
70
234
154
70
208
133
68
213
143
81
212
138
74
224
144
76
223
146
74
208
147
81
156
102
55
189
129
75
167
111
67
110
63
39
103
58
37
176
128
83
140
93
59
150
99
62
164
118
80
42
27
13
13
14
5
48
45
31
58
45
30
138
103
81
153
115
95
33
24
17
28
23
16
3
3
2
1
0
0
1
1
0
29
40
19
34
47
21
26
33
15
8
13
6
2
2
1
27
27
18
15
15
6
21
22
12
32
28
19
2
1
1
2
2
2
3
1
1
8
6
4
1
2
1
1
1
1
1
5
1
18
29
16
11
21
9
19
33
17
2
3
1
1
2
1
38
38
20
57
60
27
19
25
6
3
9
2
4
12
3
20
34
16
12
26
10
8
16
7
4
6
4
9
17
8
15
24
13
3
6
4
0
0
1
0
0
0
0
1
1
1
1
1
5
8
6
2
3
2
7
16
8
9
19
8
1
1
1
0
0
0
1
2
1
2
5
3
0
0
0
0
0
0
0
1
0
0
0
0
0
0
0
0
0
0
0
0
0
0
1
0
1
1
1
0
0
0
1
1
1
1
2
1
1
1
1
1
1
1
1
1
1
2
1
1
13
11
8
24
17
11
28
18
10
1
1
1
8
6
4
12
10
6
1
2
1
32
24
14
26
18
11
1
2
1
2
2
2
5
3
2
1
2
1
8
5
1
76
62
25
42
41
12
59
68
25
34
37
8
10
10
4
21
19
9
59
50
15
74
77
18
58
71
20
52
53
19
7
6
2
29
24
7
55
49
22
6
6
3
1
3
2
28
26
11
50
51
21
50
57
27
18
20
9
4
6
2
4
6
2
15
16
6
13
9
5
37
28
13
52
47
20
70
72
17
68
76
19
50
55
14
18
18
3
32
39
15
48
61
17
42
52
13
46
61
17
49
69
19
58
70
15
49
55
17
31
48
18
27
35
10
50
53
18
60
60
16
77
71
19
79
75
17
62
69
20
53
55
17
57
56
26
12
10
3
31
24
11
40
33
23
19
17
8
45
39
27
12
12
8
2
2
1
1
1
1
1
1
1
1
1
1
1
1
1
2
2
2
1
1
1
1
1
1
16
12
8
2
1
1
0
1
0
1
1
1
1
1
1
1
1
1
1
1
1
1
1
0
1
1
1
12
16
9
1
1
1
1
1
1
0
0
1
0
0
0
1
1
1
1
1
1
1
1
1
0
0
0
1
1
1
1
1
1
1
1
1
2
3
1
27
31
20
15
20
8
8
10
3
27
32
17
11
13
7
1
2
1
0
0
0
7
9
4
26
23
14
15
10
5
20
20
14
5
10
2
21
33
14
22
28
16
5
6
3
15
18
8
9
11
3
55
60
23
35
52
13
19
30
13
8
13
5
24
32
17
15
18
8
21
28
16
19
25
15
41
32
24
21
17
13
2
2
2
0
0
0
10
5
4
5
7
4
5
6
4
17
16
7
30
30
16
68
54
33
89
63
41
91
63
42
114
79
55
76
56
36
67
51
31
124
71
45
192
109
76
92
60
34
118
80
51
146
88
60
136
88
60
150
95
62
126
85
56
101
68
36
100
67
37
75
50
27
65
44
24
34
19
11
53
32
22
69
47
33
40
29
18
28
25
14
44
43
32
58
51
37
61
46
27
48
42
27
62
49
38
54
40
32
73
55
41
120
82
59
81
53
36
88
64
49
93
62
46
123
79
56
133
82
51
146
95
55
101
66
37
158
96
54
188
113
64
203
122
63
218
130
66
206
126
65
225
144
69
214
130
65
215
136
73
186
113
61
193
121
68
212
135
76
199
119
68
211
131
75
218
136
76
224
148
82
227
150
77
207
129
70
202
128
70
187
117
73
123
66
41
132
76
48
146
85
50
223
153
80
240
159
70
218
136
62
204
126
68
204
123
66
217
132
66
237
147
66
236
147
64
235
146
63
226
141
67
213
130
66
208
126
67
233
145
67
236
144
64
238
145
62
238
150
70
171
103
57
218
138
72
240
153
67
241
153
67
238
150
65
239
147
62
238
149
63
237
146
62
237
144
59
238
144
59
227
137
63
221
132
58
236
142
59
230
137
60
238
143
59
239
146
60
238
150
65
225
138
61
240
152
63
240
153
63
237
150
61
237
149
61
238
149
61
236
147
61
237
150
63
234
144
61
236
142
61
237
144
61
228
137
61
232
146
65
234
147
63
234
150
72
212
136
70
226
153
81
221
148
81
226
157
89
175
114
69
140
87
57
124
84
57
182
130
85
146
87
55
183
119
75
175
116
74
121
86
60
29
23
11
67
54
38
85
66
48
121
90
69
171
123
93
29
22
11
76
64
52
14
8
4
42
39
29
18
14
7
23
25
13
13
22
7
14
28
9
16
22
12
2
3
2
3
6
3
16
24
14
10
18
6
33
35
20
5
6
2
3
5
2
27
34
17
13
18
7
12
19
10
3
8
3
16
27
12
28
41
20
12
20
8
19
30
16
4
8
4
1
1
1
30
34
16
30
39
15
11
17
9
0
1
0
1
3
1
3
10
3
11
26
9
2
3
2
1
4
1
10
20
10
2
5
2
4
8
4
0
1
1
1
0
0
1
1
1
1
1
1
1
2
1
0
1
1
1
3
1
5
10
5
1
1
0
1
1
0
3
5
3
1
1
0
0
0
0
0
0
0
1
2
1
0
0
0
2
2
2
0
0
0
0
0
0
0
0
0
0
0
1
1
1
1
1
1
1
5
11
5
0
1
1
1
1
1
1
1
1
4
4
2
14
12
8
2
2
1
1
1
1
1
1
1
1
2
1
1
2
2
1
2
1
2
3
2
1
2
1
9
8
7
1
1
2
1
1
1
1
2
2
16
12
4
63
55
19
58
61
20
42
50
21
24
25
6
42
35
19
27
23
13
49
38
12
62
52
18
42
39
13
68
63
23
50
41
17
58
46
16
66
63
22
24
25
8
25
23
6
43
43
11
51
59
19
51
60
19
50
59
24
20
32
10
37
47
22
49
54
23
31
29
11
45
36
17
68
63
20
74
79
9
70
78
7
70
77
9
49
53
13
35
44
13
29
46
18
18
24
8
38
54
17
34
47
11
46
53
15
46
46
18
25
33
14
2
4
1
42
53
19
46
66
18
39
49
14
43
49
16
41
62
24
45
58
22
43
55
17
59
61
23
60
50
24
13
10
4
61
52
25
40
34
16
1
2
1
1
1
1
1
1
1
1
1
1
1
1
1
1
1
1
1
1
2
1
1
1
1
1
1
8
6
4
2
1
1
1
1
1
1
1
1
8
8
6
1
0
0
1
1
1
5
3
2
5
4
2
20
24
14
19
22
15
14
16
9
26
29
19
24
25
16
31
25
18
58
46
35
46
40
32
13
13
8
1
2
1
2
2
2
2
3
3
1
4
3
2
4
2
13
17
10
17
18
8
47
50
30
3
3
2
2
2
2
3
3
1
12
11
5
43
33
20
45
35
19
37
36
21
10
12
6
3
3
3
6
7
4
4
6
3
20
23
14
30
35
19
46
50
19
43
60
21
8
19
4
20
26
13
14
19
9
18
21
12
6
8
4
13
12
8
29
25
19
1
0
0
0
0
0
0
0
1
3
6
2
34
35
26
46
39
29
37
31
17
40
42
22
96
76
47
146
98
70
105
73
51
80
56
36
72
53
34
85
66
46
91
61
42
139
85
60
101
70
45
119
80
47
168
108
66
127
74
39
160
93
59
158
88
54
189
107
62
156
86
49
114
68
42
123
75
52
108
60
43
131
69
46
172
98
63
124
79
50
110
78
53
92
72
53
107
76
57
154
95
64
92
68
45
59
45
32
48
33
26
87
60
42
133
83
60
102
59
42
74
48
33
35
23
16
64
44
32
113
72
45
157
93
50
192
116
68
210
131
70
227
146
74
219
131
71
202
115
61
198
120
65
195
127
68
189
116
60
213
134
67
212
136
70
194
123
73
197
125
73
221
141
72
233
154
82
202
130
73
183
115
68
196
126
77
169
104
61
164
104
61
156
98
62
142
88
61
178
117
73
178
119
72
206
136
72
222
142
69
209
127
66
218
131
71
225
133
64
225
135
65
222
133
63
226
135
63
218
128
62
178
103
57
183
107
65
171
99
58
211
125
62
232
136
62
236
138
56
207
127
63
166
101
55
239
152
71
239
147
67
225
135
71
220
133
69
238
145
64
237
142
60
238
142
61
234
134
56
237
137
57
193
111
57
201
119
58
222
130
61
194
111
53
237
141
58
237
142
61
208
125
62
213
127
64
238
144
62
238
144
62
237
140
58
232
138
58
230
139
63
227
135
62
230
142
66
224
136
65
236
142
71
231
133
64
220
132
66
231
139
68
219
133
65
219
140
74
217
141
77
227
151
80
221
145
79
203
128
71
162
97
56
186
120
74
157
98
58
203
135
80
187
115
68
218
147
82
165
110
70
119
83
58
75
57
41
125
90
69
133
98
76
138
101
78
146
107
79
43
37
20
78
69
56
34
29
20
28
30
18
53
47
33
5
8
2
12
23
7
34
52
22
14
25
9
2
5
1
2
4
2
6
12
5
28
35
25
6
6
4
20
20
15
38
40
25
9
13
4
1
2
1
1
2
1
1
4
2
18
28
15
15
26
13
18
27
11
23
32
16
3
3
2
0
1
0
3
6
2
14
23
12
4
9
4
0
1
0
10
14
8
0
2
0
14
33
12
1
1
1
0
1
1
1
3
1
0
1
1
1
2
1
0
0
0
0
0
0
0
0
0
0
1
1
1
1
1
0
0
0
0
0
0
0
0
0
0
0
0
0
1
1
0
1
1
0
0
1
0
0
0
0
0
0
0
1
0
0
1
1
5
10
6
0
1
0
0
0
0
0
0
0
1
0
1
0
0
1
1
1
1
1
1
2
1
1
1
2
2
1
1
1
1
2
2
1
1
2
1
1
1
1
1
1
1
14
11
7
3
3
2
1
1
1
1
1
0
0
1
1
2
2
0
39
33
14
44
34
14
13
11
6
3
3
1
22
23
12
36
39
18
50
58
20
37
43
16
52
48
24
45
38
17
20
17
8
43
38
18
48
42
16
72
66
22
63
65
18
68
65
21
84
78
16
73
83
18
56
62
20
41
41
11
52
63
15
59
80
19
56
74
13
42
62
17
29
48
16
15
25
7
49
58
21
60
68
20
46
49
13
44
53
12
69
83
11
70
84
5
62
83
8
56
80
17
34
50
12
26
43
14
6
11
3
26
45
12
29
45
15
36
42
19
44
40
20
8
8
2
23
34
18
20
30
11
22
34
12
6
10
2
17
21
9
21
31
11
41
45
24
37
41
18
39
43
15
20
17
6
29
25
17
64
53
30
42
32
18
3
3
1
1
2
2
1
2
2
2
2
1
28
26
21
1
1
1
1
1
1
1
1
1
2
1
1
76
54
37
73
54
42
42
28
22
36
22
15
14
8
4
55
43
34
52
40
31
62
41
34
79
60
51
58
55
38
45
47
34
40
42
32
41
39
26
99
73
53
123
80
59
123
82
65
128
84
65
58
41
28
22
24
13
5
8
3
2
5
3
1
4
3
0
4
1
17
26
14
36
43
28
31
40
20
21
30
15
16
19
9
36
40
23
27
33
17
51
44
35
73
55
46
64
56
37
47
52
26
13
19
8
26
35
17
5
7
1
4
5
2
19
29
14
12
24
8
9
21
5
33
42
22
23
26
14
7
9
3
27
29
19
2
4
2
5
5
2
26
23
16
0
1
0
1
2
0
6
7
1
25
34
12
55
61
29
83
69
43
85
72
43
58
61
22
137
93
58
170
104
64
165
103
66
150
101
69
91
69
47
106
75
50
177
105
57
203
129
64
160
107
60
156
101
60
197
122
66
235
152
76
230
136
66
227
133
62
238
145
73
197
116
67
138
77
49
196
113
70
205
123
71
199
122
67
235
152
77
214
126
70
156
90
63
85
52
38
83
46
27
182
108
72
115
72
46
96
61
43
75
47
35
113
70
50
137
84
60
125
71
58
88
47
35
40
17
9
93
55
38
137
81
57
186
111
70
189
104
63
151
87
49
151
83
43
215
129
70
228
145
73
202
120
63
217
142
77
220
143
73
227
148
69
218
140
71
202
127
69
225
151
85
230
157
82
233
160
84
233
160
81
234
159
83
219
139
76
192
120
77
174
109
74
155
89
58
159
96
71
119
70
58
126
79
66
138
84
64
144
83
59
131
74
58
150
88
64
180
110
67
186
113
66
213
134
72
218
134
70
211
124
64
213
128
72
202
117
71
195
111
61
214
126
59
231
135
56
227
129
52
151
91
48
220
141
74
234
140
60
235
139
69
199
114
71
167
89
50
235
141
67
236
136
58
233
135
63
231
131
59
237
134
60
172
97
53
194
118
61
194
111
55
215
127
66
235
136
57
228
126
61
169
90
46
230
136
67
237
137
63
233
134
60
237
137
59
234
133
56
231
132
59
223
123
56
222
125
61
187
103
55
222
128
66
227
127
63
211
124
69
209
123
65
212
136
79
163
97
62
179
106
61
191
115
67
222
134
71
215
127
64
199
117
64
215
126
63
219
134
69
227
146
77
208
130
83
224
145
73
192
129
82
122
85
58
46
41
27
102
75
57
131
96
76
127
96
77
122
92
69
76
63
39
94
77
54
73
61
45
38
38
25
57
58
29
30
45
20
15
19
7
66
55
33
33
23
15
3
3
2
18
18
12
16
22
15
11
14
9
25
21
18
37
29
24
22
22
18
12
12
10
1
1
1
1
3
2
2
3
2
3
9
3
25
42
17
31
49
23
9
16
6
33
30
19
19
17
11
5
8
4
10
17
9
3
6
2
1
1
1
1
2
0
2
7
2
5
13
5
6
9
5
1
3
1
0
0
0
0
0
0
0
0
1
1
1
0
1
1
1
1
0
1
1
1
1
0
0
1
0
0
0
1
1
1
0
0
0
0
0
0
1
1
1
3
4
2
6
7
4
0
0
0
0
0
0
2
1
1
0
0
0
0
0
0
0
0
0
1
0
0
0
0
0
1
1
0
2
3
2
1
1
1
1
0
1
2
1
0
20
21
12
8
7
4
28
23
16
2
2
0
29
24
15
2
2
1
18
15
10
5
4
3
1
1
1
39
35
23
2
2
0
30
25
5
88
74
23
67
56
18
8
9
3
36
41
16
31
41
16
21
29
13
19
32
10
25
37
13
34
38
19
45
44
19
50
47
21
36
36
15
72
68
17
80
78
16
78
80
15
56
63
12
57
59
14
54
58
17
53
71
22
41
56
19
41
64
20
27
49
12
42
62
19
28
43
8
27
33
12
35
46
19
34
46
17
28
42
14
39
48
19
43
56
16
48
69
11
66
85
11
54
83
12
47
82
15
49
64
14
25
38
15
3
6
2
9
18
6
29
45
20
36
53
15
71
73
25
38
41
10
40
53
23
5
10
3
10
12
8
1
2
1
11
14
5
47
52
23
50
53
21
27
33
16
18
22
10
29
28
16
44
42
19
68
53
29
54
39
25
28
22
13
2
2
2
1
1
2
24
17
12
43
34
27
0
0
0
1
1
1
0
0
0
1
0
0
96
67
49
114
74
50
109
67
41
188
119
71
143
91
58
123
82
59
62
41
27
109
65
50
186
114
84
182
110
71
143
90
63
91
67
53
112
82
65
145
103
70
177
124
87
126
86
61
190
129
94
130
97
64
47
71
24
53
70
21
40
49
21
25
30
17
10
16
6
26
36
21
17
21
10
29
43
19
35
52
28
21
27
13
52
47
34
66
60
45
93
73
55
141
103
85
114
88
66
70
65
35
6
8
2
28
34
18
24
25
14
29
29
15
12
17
10
12
16
10
4
5
3
38
47
18
24
31
9
36
37
17
27
38
17
26
41
19
22
31
12
42
48
20
35
49
18
42
56
21
53
63
25
73
76
28
77
75
38
85
73
39
86
72
39
67
60
23
161
103
65
205
132
76
190
119
68
156
101
56
125
86
55
118
70
42
200
115
56
243
165
75
203
133
67
217
143
75
235
158
80
201
128
69
200
125
65
241
153
73
201
125
64
176
108
63
174
105
67
180
109
71
150
94
58
139
92
55
198
133
73
186
116
64
179
107
65
161
101
69
170
102
63
190
107
61
162
96
60
158
88
58
119
64
40
134
81
52
192
118
77
152
80
53
160
85
59
133
72
53
147
80
54
175
99
65
181
100
64
176
98
64
211
126
73
209
121
70
212
120
65
231
143
67
206
123
60
136
84
42
197
126
68
220
141
73
194
125
76
189
120
75
202
130
75
161
97
55
206
133
75
221
143
73
197
125
73
167
104
60
209
136
78
217
136
74
228
144
72
215
130
66
165
97
56
179
106
67
175
100
68
200
121
78
184
111
75
179
113
79
157
90
67
148
87
72
146
81
64
149
80
64
158
89
66
145
79
61
132
71
58
145
81
58
199
121
70
226
131
62
188
107
58
151
89
49
217
122
60
221
121
62
193
110
64
141
83
55
201
121
67
235
136
66
234
132
61
200
112
65
201
117
63
227
129
61
144
82
46
175
110
63
148
88
52
199
115
63
191
106
56
193
109
61
201
117
64
233
132
60
232
129
58
234
130
60
234
129
57
234
131
59
232
128
58
232
127
59
229
130
66
147
86
49
228
135
73
233
134
68
217
127
69
201
114
64
205
125
70
194
114
65
213
118
64
195
112
62
158
90
53
192
119
75
200
120
74
207
124
66
213
135
77
214
133
74
192
115
73
223
141
85
190
124
82
102
69
46
42
37
24
84
64
46
112
82
62
141
104
88
138
97
76
100
73
54
129
96
76
136
99
83
138
97
82
76
57
40
30
25
16
7
12
3
49
50
29
2
3
2
1
2
1
1
1
1
12
10
8
29
28
24
36
33
29
38
33
30
48
39
43
7
11
5
1
5
1
1
5
3
1
4
2
16
23
13
31
36
19
24
25
11
10
12
5
2
2
1
4
4
2
2
3
2
11
18
10
2
5
2
0
1
0
22
29
19
18
26
14
1
1
0
0
1
1
0
0
1
1
1
0
0
1
0
0
1
0
1
1
1
6
7
4
2
2
1
2
2
1
1
1
1
6
12
6
5
11
5
0
1
1
0
0
0
0
1
1
12
12
10
0
0
0
0
0
0
0
1
1
30
26
18
21
12
5
1
1
1
0
0
0
0
0
0
0
0
0
1
1
1
8
11
7
1
1
0
7
10
6
29
22
12
29
21
13
14
9
5
2
1
2
4
3
1
39
31
18
28
23
14
15
13
7
10
9
4
32
37
18
34
41
13
62
70
30
43
42
10
84
75
13
73
69
19
32
31
9
37
63
20
29
65
14
15
32
11
5
12
4
23
38
20
21
31
13
33
36
21
45
48
21
41
43
13
76
77
19
66
70
13
75
78
12
58
74
17
50
60
22
31
36
9
35
56
17
12
22
8
9
20
7
16
34
12
22
41
12
44
67
16
37
44
11
54
65
18
13
26
5
26
44
17
35
45
16
54
62
22
36
44
13
46
54
16
43
58
14
42
62
11
59
76
14
45
57
17
17
25
14
3
4
1
27
39
13
53
68
16
61
80
12
39
53
13
33
48
18
4
7
3
1
3
2
3
4
2
15
18
10
17
24
9
41
50
23
30
41
18
31
39
17
32
32
15
56
59
24
60
55
27
36
28
19
11
7
2
3
3
3
3
3
2
30
25
17
2
1
0
0
0
0
0
0
0
0
0
0
10
9
6
35
26
18
111
75
53
175
111
69
226
142
74
234
158
82
218
151
83
165
112
67
196
135
90
149
92
55
213
140
78
156
104
61
72
60
41
52
49
27
71
66
39
101
78
53
132
92
63
143
104
75
67
68
34
41
65
23
50
66
28
39
48
26
52
59
38
58
63
42
45
50
30
40
44
30
31
46
23
37
57
27
53
54
32
78
68
46
35
31
15
126
87
58
172
115
83
101
76
48
61
59
30
29
34
15
31
31
13
45
43
21
48
48
22
25
32
13
24
29
15
11
14
7
31
37
17
52
56
27
64
58
35
47
59
25
38
67
22
50
74
27
58
70
26
53
64
20
56
65
27
58
63
22
65
70
22
55
68
20
47
65
20
51
62
21
80
70
30
188
134
86
209
142
83
205
123
66
228
146
72
218
143
79
213
137
70
234
164
86
228
155
80
219
139
71
232
154
82
225
145
80
158
101
68
168
114
74
211
138
72
207
134
66
183
120
65
185
124
72
145
101
70
95
72
51
91
71
49
156
115
76
173
125
76
196
135
73
164
112
64
167
113
68
189
118
68
166
99
66
159
89
61
176
101
66
176
108
65
180
103
60
184
109
60
170
100
64
141
84
58
168
101
64
194
117
71
175
98
61
207
121
74
217
131
72
194
115
70
192
112
61
223
133
61
221
133
69
184
114
67
185
118
74
183
119
75
187
116
77
180
104
63
221
141
81
211
131
74
199
127
76
224
144
79
215
132
82
158
98
65
183
121
82
159
96
69
192
117
65
195
112
52
214
133
68
201
116
57
194
112
69
161
88
62
152
90
69
141
81
58
155
92
70
187
112
76
209
125
73
204
116
68
206
117
68
209
123
73
201
113
68
212
129
74
181
105
60
195
115
71
141
85
57
177
107
64
184
101
59
164
91
56
172
108
68
166
107
59
220
133
71
229
128
62
232
132
64
194
116
69
199
117
65
227
129
64
150
96
60
168
107
63
165
105
65
175
106
60
215
125
65
184
105
57
230
133
67
230
129
59
229
128
57
231
129
59
233
129
60
232
130
63
223
121
61
231
130
69
222
126
71
134
81
47
230
132
72
228
129
72
170
98
56
222
132
75
230
130
71
224
126
70
212
117
68
224
127
71
177
104
66
204
123
76
215
130
77
219
135
76
218
136
78
219
140
83
204
130
83
228
146
86
189
126
83
137
98
70
72
58
41
105
84
70
95
75
59
130
98
86
108
80
63
131
95
75
123
88
63
145
104
79
170
110
87
111
80
66
49
35
31
19
21
12
31
32
16
1
1
0
0
0
0
0
1
0
35
28
26
59
48
45
7
6
4
30
26
29
66
50
58
21
24
15
14
22
10
1
5
3
1
5
3
3
5
3
15
16
7
34
34
19
14
15
6
25
24
15
23
20
14
32
23
18
10
12
7
5
9
5
0
1
0
8
11
7
3
4
3
1
0
1
0
0
0
2
3
1
4
6
4
0
1
0
0
0
0
1
1
0
6
7
4
4
4
2
23
21
14
1
1
1
1
1
1
1
1
0
1
0
1
0
0
0
2
2
1
7
8
5
13
11
6
1
1
0
0
0
0
14
7
3
53
38
25
2
0
0
0
0
0
0
0
0
0
0
0
0
0
0
0
0
1
0
1
0
2
1
2
12
10
4
42
34
13
43
36
20
2
1
1
6
4
1
61
49
26
51
44
19
37
40
14
46
53
18
52
65
21
47
58
16
46
61
19
30
42
14
43
47
11
38
47
14
43
52
21
17
33
8
27
57
17
14
31
12
6
16
4
17
30
15
18
32
16
2
4
1
35
42
15
51
63
18
53
58
18
36
35
10
42
41
15
39
42
17
20
21
10
15
18
8
6
12
4
2
4
2
3
4
3
1
1
1
7
14
4
30
49
15
41
54
15
56
69
19
15
31
9
24
37
16
13
18
6
23
31
14
11
21
8
36
46
18
45
66
20
29
44
12
48
64
15
47
66
21
27
30
9
45
42
18
67
62
24
55
63
18
56
81
21
17
31
7
33
45
24
13
16
9
0
1
0
18
22
11
1
1
1
11
20
10
30
43
20
24
39
15
28
43
15
40
44
24
40
41
22
16
16
8
32
28
18
30
29
20
2
3
1
2
3
1
8
8
4
1
1
1
1
1
0
6
6
4
0
1
0
5
5
4
9
6
5
42
27
17
146
87
61
157
87
58
211
142
89
169
122
67
182
125
76
212
142
88
190
124
69
216
136
79
196
128
83
90
65
45
123
90
58
166
124
79
156
116
75
124
92
65
102
79
56
81
70
44
58
64
36
51
55
31
60
61
40
64
62
42
59
60
40
48
54
35
8
13
5
49
58
28
50
68
29
80
72
46
101
81
58
42
41
25
67
62
37
120
92
66
86
71
44
52
60
27
42
58
25
49
53
24
48
48
21
60
58
23
42
52
23
21
27
12
12
15
6
20
22
13
65
61
41
80
64
48
75
71
45
64
70
35
66
70
40
75
62
35
123
83
60
112
71
50
128
73
50
95
64
43
78
65
36
60
61
26
75
69
38
96
78
43
150
99
61
153
93
55
197
116
69
230
149
79
222
138
75
225
146
79
233
156
81
220
136
71
202
120
67
170
107
64
127
82
52
102
70
47
121
83
58
204
134
71
207
139
74
121
84
55
140
98
59
142
96
60
131
91
67
111
78
53
155
112
68
165
117
68
172
117
69
199
139
84
210
145
82
205
131
74
207
130
78
187
108
66
233
153
82
197
120
59
200
120
63
221
140
69
198
123
70
150
88
59
169
111
70
213
137
75
213
132
71
206
126
65
195
124
75
147
89
58
150
96
59
197
121
74
164
95
59
202
130
78
177
107
62
218
137
78
220
137
74
219
134
74
191
117
66
175
109
67
157
98
61
192
115
71
211
125
79
156
91
52
180
114
68
174
102
58
192
112
68
200
117
71
181
103
61
192
111
65
211
123
72
199
114
70
140
76
53
144
79
58
171
93
69
176
86
58
204
109
68
219
118
65
232
134
70
233
136
68
224
128
68
208
123
72
193
119
70
179
102
62
144
91
58
189
122
76
147
84
50
157
94
61
122
81
50
207
123
65
214
121
67
203
114
61
208
119
63
157
94
61
190
107
59
229
129
65
146
92
53
189
118
70
155
88
46
220
131
68
207
112
57
220
124
65
234
131
61
231
129
60
229
125
56
231
124
58
233
127
59
231
129
63
216
119
65
223
128
74
216
124
70
155
93
56
230
133
75
196
115
68
171
104
65
225
125
68
226
123
68
222
122
72
188
108
69
204
112
69
171
100
62
222
131
81
218
126
79
220
129
81
223
133
81
223
136
86
207
122
84
214
129
89
199
125
94
143
92
68
64
52
39
109
81
65
114
81
61
140
101
81
150
107
87
117
92
67
122
96
69
132
99
76
177
123
100
123
89
68
66
54
42
43
41
30
49
45
32
55
47
40
47
43
35
40
41
30
44
40
29
57
54
43
48
45
37
81
64
67
59
44
52
10
10
7
8
10
6
42
35
30
43
35
29
20
16
12
1
2
1
2
2
1
8
7
3
38
31
20
9
7
4
33
26
18
41
33
18
34
31
14
2
2
1
12
17
10
0
0
0
1
2
1
1
2
1
1
2
1
2
3
3
6
11
6
1
2
0
0
0
1
5
5
4
1
1
0
3
3
2
4
4
3
13
13
10
2
1
1
0
0
0
0
0
0
1
1
0
1
1
1
7
6
3
0
1
0
1
1
1
1
0
0
35
26
17
3
1
0
0
0
0
0
0
0
0
0
1
2
2
1
2
3
2
10
14
9
7
8
6
46
50
18
59
61
18
64
64
27
7
7
1
25
25
10
58
56
21
65
64
22
50
56
20
37
59
20
35
59
21
21
34
11
26
47
17
13
28
9
11
22
10
19
31
16
20
27
13
18
31
13
26
48
19
6
18
4
10
18
9
8
15
6
16
30
14
2
9
2
19
28
13
25
40
16
25
31
13
5
6
3
1
2
1
7
6
4
2
3
1
0
2
1
0
2
0
2
3
2
1
2
1
9
10
7
16
18
12
9
17
2
42
56
19
47
59
17
9
14
5
8
14
4
31
40
21
10
17
6
27
40
18
56
59
23
36
54
19
21
30
12
43
58
23
40
58
18
41
42
16
42
48
21
44
51
17
47
62
15
52
76
16
10
21
3
23
28
13
25
27
15
2
2
1
25
30
16
1
1
1
7
15
6
21
31
17
6
13
2
27
39
18
10
14
3
36
35
24
20
22
12
41
46
27
8
9
3
15
15
12
9
9
6
13
14
9
19
20
15
6
7
4
12
12
8
3
3
2
4
5
2
18
23
10
28
33
17
66
58
29
86
72
35
107
84
48
65
60
31
142
99
68
179
114
71
224
151
87
235
158
86
241
168
92
231
163
89
230
158
85
227
162
87
169
123
72
98
68
43
143
98
70
187
122
87
146
93
69
90
61
50
72
56
46
78
58
48
81
68
55
61
60
44
21
31
17
66
65
36
63
64
36
45
46
26
77
79
44
37
46
21
77
75
49
104
82
63
77
64
46
47
52
25
58
62
26
34
35
17
53
59
28
41
44
23
17
18
7
16
18
11
8
10
4
21
18
12
53
45
33
77
54
42
68
48
39
92
69
58
69
56
44
96
77
57
105
70
51
156
91
67
149
80
56
94
61
41
111
76
54
71
54
32
86
74
48
107
80
45
135
86
51
188
119
75
192
115
66
226
146
83
181
99
63
165
96
61
184
114
63
202
128
74
189
114
71
180
114
77
153
101
70
110
74
54
142
98
70
188
123
72
135
89
51
147
105
68
184
126
74
155
99
62
127
76
54
158
101
69
216
137
73
208
136
73
177
117
71
124
78
45
136
89
52
133
86
53
155
103
71
140
82
56
195
123
68
209
140
81
213
139
82
211
132
65
217
134
68
174
100
61
119
73
48
115
76
44
142
84
53
165
104
71
94
65
38
106
76
55
53
48
26
107
84
51
125
88
58
168
113
70
183
111
66
218
134
75
202
121
66
190
118
68
182
115
64
204
124
73
152
93
51
168
106
73
194
119
78
145
90
52
194
120
66
197
111
63
204
111
67
213
117
73
180
101
58
215
127
74
212
119
68
223
126
68
213
123
70
223
128
67
221
125
69
191
108
68
166
92
64
211
118
73
228
129
68
231
132
69
196
108
64
149
89
55
187
116
67
160
100
61
100
69
42
142
93
59
111
72
43
184
116
71
118
77
43
177
109
62
184
115
73
160
102
65
129
76
42
159
101
63
197
125
72
199
125
67
111
72
41
176
118
74
161
103
61
203
115
64
211
120
68
230
132
64
232
130
60
231
129
60
229
125
57
221
118
61
226
122
63
232
128
64
209
121
69
154
90
54
189
109
69
171
97
58
208
118
74
142
82
51
214
127
80
226
124
71
215
116
71
208
115
75
135
82
53
204
122
85
203
116
80
211
119
84
198
115
85
192
115
84
199
118
85
196
116
79
177
106
78
195
115
80
199
118
82
164
104
80
97
77
61
144
103
90
143
98
82
169
123
107
174
121
106
126
93
70
153
110
88
125
88
73
160
106
88
107
74
59
59
52
41
70
64
54
63
61
46
61
57
47
24
23
18
28
31
21
50
49
35
73
70
54
89
78
62
104
81
72
93
74
75
61
51
47
25
22
14
42
35
29
58
47
48
55
46
45
32
28
22
24
23
17
0
1
1
2
2
1
18
15
9
34
24
17
44
32
20
36
29
13
2
1
1
24
18
13
1
0
0
4
10
3
14
20
12
0
0
1
0
0
0
1
1
1
0
0
0
1
1
1
13
15
11
2
2
3
13
11
7
7
6
3
0
1
1
0
0
0
0
0
0
1
1
0
2
2
2
24
30
22
0
2
0
0
0
1
0
0
1
0
0
0
24
17
11
19
13
8
0
1
1
0
0
0
0
0
0
6
8
5
1
1
1
1
1
1
1
1
1
38
55
17
34
50
16
41
53
22
12
21
7
10
16
7
20
30
11
19
29
10
26
37
15
16
34
8
35
54
19
47
63
21
18
37
9
20
35
14
3
8
3
3
8
3
5
10
5
6
15
4
16
33
14
17
27
15
2
4
2
1
4
1
4
9
4
10
17
9
2
3
2
3
5
4
0
1
1
0
2
1
1
1
1
1
1
1
0
0
0
0
0
0
1
1
1
13
12
8
1
1
0
1
2
1
13
15
5
22
28
13
24
42
16
34
48
18
16
20
4
44
53
24
19
30
14
4
8
2
16
26
11
52
58
24
21
27
8
25
30
13
50
49
21
60
69
23
30
49
17
22
34
12
23
39
12
41
65
19
40
66
14
47
61
17
48
49
13
48
41
18
14
12
3
35
36
20
2
3
2
12
17
9
3
5
2
4
7
3
28
38
21
35
49
27
38
44
24
26
28
17
17
21
12
5
5
4
16
16
12
16
16
11
9
15
7
29
40
22
38
45
30
42
47
31
51
54
36
39
46
28
55
64
38
42
53
32
35
41
21
54
55
33
93
79
50
149
113
75
151
113
77
119
87
65
108
72
52
117
74
49
150
101
62
167
108
66
171
106
67
185
123
78
178
119
80
182
125
90
162
112
79
183
120
74
217
147
91
171
118
84
92
72
55
74
60
41
115
87
68
80
70
47
45
51
32
54
60
33
84
76
49
26
25
13
30
34
18
34
32
21
93
78
57
52
50
33
39
41
27
31
40
18
53
67
30
33
49
25
36
48
24
40
41
27
3
3
1
1
1
1
1
1
1
4
3
1
65
58
38
70
61
42
21
12
5
74
46
33
69
46
32
48
40
23
90
63
42
135
88
62
101
69
47
78
55
34
82
57
37
88
62
43
100
73
52
75
56
26
119
89
53
183
116
68
165
103
55
214
135
72
204
114
62
220
143
79
214
147
77
217
155
83
180
110
58
223
145
75
226
143
66
200
129
67
159
104
60
156
105
67
127
86
58
114
75
49
101
68
47
112
82
62
131
90
67
109
70
44
195
128
80
132
85
58
111
77
52
166
119
81
164
114
76
150
103
63
139
96
61
117
75
47
212
146
85
198
131
74
167
99
60
191
108
66
213
126
71
185
107
67
115
74
46
78
68
40
96
74
44
106
79
53
85
69
45
44
30
18
26
30
16
87
81
45
73
65
33
117
84
55
151
93
66
161
101
68
163
101
72
128
89
60
115
78
52
160
105
76
100
75
47
149
102
73
183
110
73
150
93
60
174
112
73
206
121
72
195
106
63
202
119
77
178
120
80
173
111
67
208
133
77
197
116
64
166
99
61
208
119
67
201
114
71
147
80
56
156
86
60
215
120
72
231
132
68
234
136
71
199
116
70
120
82
54
178
109
72
126
77
48
111
73
45
172
100
64
128
76
43
175
101
62
129
88
61
155
102
60
203
124
71
98
64
41
182
110
64
210
125
67
190
115
71
214
134
84
165
103
64
185
119
80
134
89
63
147
90
59
197
115
66
230
130
62
233
129
60
233
128
60
234
129
61
207
113
61
209
114
66
229
128
72
210
124
74
101
69
46
136
88
59
170
108
69
128
87
58
176
106
66
223
126
74
221
121
73
172
98
67
200
120
87
121
79
55
195
122
89
210
124
90
196
116
83
201
123
93
200
123
93
204
126
94
203
124
90
188
113
85
196
117
86
196
116
86
182
112
85
104
73
55
183
119
101
182
123
103
172
115
96
185
124
106
156
108
85
187
124
101
157
105
85
187
121
97
127
88
78
19
17
12
36
35
26
51
46
31
53
44
35
64
61
49
60
61
49
98
83
69
96
75
56
104
88
72
100
82
72
89
74
67
91
76
71
54
50
43
38
37
32
40
41
31
29
29
21
8
8
5
3
3
3
1
1
1
2
1
1
14
12
8
4
3
1
1
2
1
8
9
6
2
2
0
31
24
18
1
1
0
8
10
4
19
23
14
0
1
0
0
0
0
1
1
1
1
0
1
6
7
4
12
13
9
1
1
0
8
12
7
1
2
0
6
2
1
8
3
2
4
3
2
9
7
6
8
7
5
10
14
8
0
2
0
1
0
1
2
3
2
0
1
1
4
2
1
37
35
17
24
25
13
1
1
1
0
1
1
0
1
0
1
1
1
1
1
1
1
1
1
19
32
11
27
38
15
28
33
13
26
34
16
12
23
8
30
44
20
15
27
11
17
32
13
15
31
12
15
27
9
27
41
15
12
22
6
22
33
16
18
31
15
13
21
10
1
1
1
1
1
1
14
21
12
3
8
2
10
18
10
3
7
3
0
1
1
1
1
1
1
1
1
0
0
1
1
1
1
1
1
1
1
1
1
1
1
1
1
1
1
1
1
1
1
1
1
13
26
10
2
6
2
1
1
1
16
27
12
12
24
7
21
39
17
17
31
12
38
41
15
50
57
23
7
10
4
3
5
2
17
27
14
38
44
18
40
46
18
12
18
7
44
51
22
47
65
21
11
26
4
24
41
18
24
44
18
39
61
14
61
75
18
64
74
17
69
66
16
26
20
4
34
30
14
36
34
16
1
2
1
6
8
4
18
19
10
2
4
1
7
10
5
24
30
17
40
41
24
28
24
17
42
33
30
23
20
17
36
33
27
44
46
31
30
48
20
45
59
31
49
55
37
59
64
37
61
67
37
60
65
32
60
65
32
57
64
41
60
65
42
60
62
37
69
62
35
98
81
47
87
73
40
133
103
65
157
111
68
195
137
84
191
135
87
171
117
80
136
94
62
130
89
56
153
108
75
111
75
48
78
58
43
81
60
48
92
64
48
98
70
51
104
80
57
111
81
59
160
115
91
117
91
69
60
54
38
110
87
64
103
80
57
33
29
19
13
9
8
3
2
1
28
26
18
20
20
14
21
23
15
33
40
24
29
43
20
9
21
6
17
24
14
23
23
15
6
10
3
6
14
7
1
1
1
53
47
28
58
50
35
29
24
15
2
1
1
24
11
4
71
53
33
89
65
40
127
87
58
116
77
45
110
72
41
156
105
73
85
59
35
56
40
23
68
49
31
61
55
24
76
62
26
126
89
53
108
76
36
187
124
70
196
124
73
229
140
74
227
140
63
246
175
79
231
154
71
202
130
62
215
133
65
172
109
59
165
107
60
160
100
57
152
95
57
192
125
77
154
101
64
139
93
59
148
103
71
119
79
55
182
118
75
147
94
61
180
123
68
206
143
75
221
149
73
236
159
76
216
142
79
182
116
78
205
134
86
185
115
73
167
113
79
134
83
56
170
104
69
173
104
69
128
81
52
58
50
29
77
66
41
47
47
27
54
50
32
2
2
1
16
21
10
58
66
32
69
71
33
68
67
31
54
52
26
92
81
49
114
86
55
98
80
49
92
75
52
81
64
43
63
59
35
119
88
56
131
90
63
101
66
40
125
85
56
201
122
79
199
125
77
190
112
69
147
98
60
178
113
68
227
144
82
188
112
68
124
77
49
148
90
60
154
93
63
191
104
65
192
106
66
221
122
67
228
127
64
228
128
68
171
104
68
65
47
24
159
98
65
140
94
68
70
55
32
151
101
67
152
99
62
193
114
69
151
99
59
194
120
66
193
113
64
127
82
55
173
103
65
183
111
67
175
110
66
220
120
63
210
121
76
126
84
58
108
78
57
148
95
59
225
135
75
235
137
67
232
129
59
234
130
62
235
128
64
204
111
62
159
90
57
211
119
70
223
131
83
112
75
52
118
82
58
152
101
70
57
35
11
191
113
72
210
120
75
207
111
72
182
110
79
188
114
83
154
99
70
181
111
85
182
110
85
149
95
69
190
115
88
196
119
92
190
113
84
186
112
82
190
115
85
198
119
89
197
115
87
171
108
85
114
80
62
178
121
102
140
100
78
187
126
104
173
115
93
195
129
102
195
127
96
163
110
85
182
121
97
133
93
80
55
48
39
59
56
44
38
37
26
58
48
45
27
22
19
6
8
4
90
74
64
119
93
78
75
59
45
122
93
84
114
87
78
79
68
58
60
55
46
44
44
36
62
62
49
65
66
55
52
52
45
33
31
26
30
31
22
16
17
10
7
10
5
28
36
21
4
7
3
1
1
1
0
0
0
1
1
1
0
0
0
1
1
0
15
26
15
1
2
1
0
0
0
9
9
7
18
13
8
37
25
17
1
1
1
1
0
0
12
9
4
33
23
15
45
31
22
29
20
15
23
20
15
3
3
0
20
21
14
1
1
0
1
2
1
1
0
0
21
24
16
34
34
21
24
19
9
39
34
16
6
6
2
4
9
4
13
21
13
0
1
1
1
0
0
1
1
0
23
22
9
21
33
12
29
40
15
41
55
24
14
24
7
19
37
14
21
36
15
6
17
5
16
32
13
15
31
13
12
22
8
4
10
2
2
3
1
4
7
1
19
27
13
4
4
1
2
3
2
10
12
9
5
10
5
1
3
2
1
1
2
1
2
2
1
1
1
0
1
0
0
0
0
1
1
1
0
0
0
0
0
0
0
0
0
1
1
1
1
1
1
1
1
1
1
1
1
12
30
12
3
11
3
1
1
1
20
38
16
9
25
5
1
5
2
3
5
1
42
46
19
40
44
20
1
1
1
0
0
0
3
3
3
23
32
12
33
48
20
1
1
0
25
41
18
27
53
17
32
50
19
15
23
11
24
40
14
53
72
21
71
72
18
50
54
16
58
54
19
37
32
10
46
40
17
36
34
13
21
19
10
3
3
1
37
39
20
37
37
17
29
27
14
19
19
7
51
46
31
56
52
37
58
53
41
72
65
52
67
57
46
59
55
37
36
56
18
47
67
28
54
61
32
72
67
37
86
73
42
86
75
41
73
69
35
107
85
56
125
95
62
137
100
65
197
138
83
182
129
82
141
106
63
216
155
85
239
161
84
238
161
86
191
126
70
187
123
77
149
93
55
179
121
77
179
122
82
141
99
69
109
79
61
65
52
39
66
55
37
82
68
43
135
99
69
142
104
79
88
75
50
67
65
43
52
46
32
96
74
51
89
71
46
27
24
16
33
26
22
0
0
0
5
4
2
13
12
9
1
1
0
39
31
23
45
33
22
5
6
3
11
11
7
12
11
8
3
8
5
7
12
6
2
2
0
38
34
23
22
14
10
39
25
22
1
0
0
2
2
1
41
29
16
123
80
49
156
99
62
134
84
48
180
116
71
202
132
84
121
80
51
53
37
20
54
43
28
60
52
24
75
61
32
74
55
28
114
80
47
144
94
56
143
85
52
196
110
66
180
98
58
205
126
61
233
151
68
202
133
68
207
137
74
187
121
66
229
153
80
235
157
76
236
158
78
241
161
79
238
160
80
212
142
82
154
107
71
115
80
55
193
126
83
150
92
62
175
111
73
139
87
56
176
111
71
180
116
64
184
117
75
136
88
65
109
74
52
134
95
68
103
77
48
120
87
57
140
92
56
109
78
44
63
45
24
72
66
37
51
48
27
43
36
24
1
1
0
2
3
1
2
3
2
31
34
16
51
45
27
33
38
18
42
53
28
62
70
30
64
67
28
61
66
36
19
21
8
32
34
21
63
57
34
141
101
69
83
66
42
89
75
47
109
83
52
170
114
81
134
94
57
179
122
78
63
50
19
191
128
79
217
134
79
178
111
66
74
50
19
148
102
70
159
99
66
172
98
60
198
113
68
212
119
71
192
106
69
167
94
63
112
76
55
72
56
30
110
81
53
151
102
62
80
64
32
112
86
50
128
83
47
163
100
65
144
94
61
163
106
65
134
89
58
132
88
57
137
94
63
206
130
78
147
94
59
209
129
81
198
114
70
56
43
31
125
86
59
146
91
50
231
136
70
237
138
66
232
131
61
236
131
63
215
121
65
140
82
49
182
111
71
204
122
78
221
127
81
118
80
57
81
64
43
133
92
61
79
62
33
135
91
58
207
128
82
192
114
77
199
121
92
190
120
92
136
87
59
156
101
72
184
119
94
113
78
52
165
114
86
185
115
91
183
114
90
182
114
88
190
116
87
205
130
93
187
121
89
143
101
74
117
92
69
145
108
83
94
81
54
117
92
68
130
92
71
173
113
88
140
100
76
173
120
101
175
114
91
136
99
81
166
117
95
111
87
67
19
18
8
51
40
36
19
17
11
13
16
6
55
51
40
52
44
37
80
64
56
123
89
78
123
88
74
96
77
62
48
42
31
48
43
37
64
52
56
44
36
39
25
22
22
45
38
37
22
22
16
15
15
10
4
5
2
28
34
21
5
7
3
1
2
1
0
0
0
3
4
3
1
2
1
1
1
1
17
10
5
24
14
4
12
7
4
31
21
16
45
28
21
27
15
10
15
11
7
32
24
12
45
32
20
12
8
5
7
6
4
4
4
2
11
9
5
13
13
8
12
12
4
1
1
1
7
10
7
1
1
2
5
6
2
54
43
22
53
43
19
37
36
16
22
25
16
1
1
0
17
20
15
1
2
0
0
0
0
13
11
4
64
56
27
31
36
18
10
16
6
18
32
9
59
65
24
39
47
18
15
26
11
5
13
5
4
9
4
4
11
4
16
30
13
21
36
16
35
46
19
38
46
19
46
44
24
50
45
26
15
18
10
1
2
0
3
6
3
4
5
3
1
1
1
1
1
1
0
1
1
1
1
1
1
1
1
1
1
1
1
1
1
1
1
1
1
1
1
1
1
1
1
1
1
1
1
0
1
1
1
0
2
0
0
2
0
1
3
1
11
20
6
21
31
15
7
12
4
25
30
16
53
58
24
47
44
20
2
2
1
1
0
0
0
1
1
1
3
1
11
21
10
1
2
1
21
29
15
20
29
13
5
8
2
15
18
7
17
28
6
39
58
23
45
53
21
21
22
7
50
52
17
74
71
20
80
72
14
67
62
15
54
48
15
46
42
13
45
46
19
69
63
24
63
60
21
54
57
26
69
68
22
71
68
30
80
70
37
85
77
48
97
76
51
105
79
56
55
64
25
46
65
20
38
54
19
50
54
24
57
59
28
65
67
31
91
78
46
122
86
52
150
108
68
164
115
67
184
132
78
142
102
62
117
84
43
207
137
75
228
145
74
237
153
73
240
161
78
238
162
82
194
134
73
219
152
88
185
125
77
114
82
59
57
47
35
44
33
21
94
73
52
82
68
40
102
85
52
70
64
33
57
58
33
45
48
31
15
17
7
44
41
26
53
46
30
33
26
20
1
1
1
20
16
9
76
55
31
81
60
34
41
41
26
22
18
10
49
35
22
14
15
10
11
10
6
14
13
9
2
5
3
3
4
2
2
3
2
1
2
1
1
1
0
2
1
0
0
1
0
24
17
9
91
59
39
196
121
75
185
111
70
112
72
42
108
70
38
160
105
68
84
60
33
54
42
24
35
31
18
46
46
18
40
39
15
66
50
26
109
75
44
84
64
33
77
51
22
157
96
58
151
80
49
231
143
74
242
157
70
208
129
63
229
149
79
219
137
72
228
146
76
243
160
74
217
142
68
213
142
72
225
148
71
235
155
76
181
124
77
99
72
48
202
140
91
148
96
69
113
74
50
79
54
33
66
47
27
95
69
43
165
112
74
95
66
45
92
72
50
55
54
27
58
58
31
45
47
20
53
56
25
50
59
30
22
30
12
27
33
16
9
13
4
75
61
42
3
2
1
2
3
2
3
5
3
31
34
17
57
50
29
18
24
13
25
42
18
51
65
28
47
45
22
10
13
5
29
30
18
61
62
33
60
58
23
125
98
59
107
89
60
69
72
37
87
82
40
129
104
65
111
83
44
170
115
69
133
92
59
193
115
70
180
110
72
120
83
55
78
56
26
174
110
77
145
93
63
140
87
57
186
114
72
205
116
71
176
100
72
126
79
58
119
76
52
102
77
53
53
44
18
141
99
70
131
89
51
108
82
42
131
91
52
191
119
78
185
111
64
119
75
39
142
95
64
102
68
43
145
92
61
197
117
71
153
97
61
212
127
74
179
106
69
22
17
7
120
84
61
177
109
65
229
137
75
221
128
73
237
138
71
216
124
67
147
87
52
212
133
89
216
130
82
174
109
70
208
133
98
117
81
58
26
28
10
100
76
51
86
71
42
177
108
68
209
125
80
218
132
90
196
117
86
202
131
106
139
90
64
102
74
47
146
102
74
88
67
40
106
85
61
161
106
81
174
110
87
187
119
96
175
107
81
197
132
98
165
112
84
119
89
68
149
112
95
183
129
110
126
94
73
143
103
83
164
107
92
155
104
80
121
94
69
155
115
93
139
100
78
118
86
64
181
126
102
92
73
53
42
38
21
84
68
52
75
72
49
82
81
53
61
58
38
65
56
43
86
70
56
139
104
88
112
89
71
87
70
51
125
103
86
70
53
41
87
63
60
74
58
54
58
44
38
73
64
51
27
27
20
38
31
30
8
5
3
32
40
25
1
1
0
1
1
1
0
0
1
7
7
5
4
5
3
1
0
0
48
29
10
87
62
27
54
40
22
21
17
8
46
32
22
33
21
13
37
34
16
72
59
25
67
51
28
34
28
15
40
32
18
29
23
13
4
3
0
38
37
16
36
34
16
5
4
0
24
24
16
1
2
1
33
25
15
75
54
29
52
44
19
4
4
1
3
4
2
6
9
4
22
26
15
1
2
0
2
2
1
24
25
13
75
61
20
33
43
17
12
18
6
26
38
17
26
38
17
5
9
2
12
17
6
26
35
14
8
16
6
4
10
3
34
47
21
40
48
17
44
56
19
47
63
22
37
47
21
11
14
4
21
32
15
21
34
13
39
39
14
26
25
9
0
1
0
1
1
1
0
1
0
1
1
1
1
1
1
1
1
1
1
1
1
1
1
1
1
1
1
1
1
1
1
1
1
1
1
0
17
21
14
1
2
1
1
2
1
16
21
13
8
13
5
5
9
3
21
30
15
12
17
8
20
22
12
13
14
6
2
1
1
3
3
1
3
4
2
1
2
1
1
2
1
11
17
9
30
36
20
21
30
15
11
15
7
16
21
8
43
57
23
27
43
13
30
40
19
51
55
29
53
54
21
57
53
11
80
75
14
65
66
12
70
65
16
60
55
15
48
49
18
60
53
13
62
58
12
48
55
17
66
73
16
94
79
25
121
82
40
106
87
54
117
88
61
94
69
43
77
69
34
76
71
32
70
66
36
98
74
45
80
71
32
57
62
24
62
58
27
71
61
29
98
82
45
113
90
53
118
91
62
96
79
51
120
92
55
208
136
76
214
134
73
194
121
70
172
113
66
162
108
66
91
59
32
106
73
47
78
60
41
69
57
39
77
57
42
115
83
70
140
98
79
83
63
47
103
79
65
111
86
68
112
84
59
125
97
71
83
72
53
68
58
42
106
84
64
96
75
60
4
5
2
36
22
17
154
101
78
159
101
71
51
40
27
9
7
3
43
31
26
6
5
4
1
2
1
1
2
1
1
2
2
3
2
3
2
2
2
2
3
2
4
4
3
37
31
25
27
18
14
76
51
39
125
77
54
183
104
63
189
106
65
158
94
61
177
116
74
165
92
52
115
70
38
43
38
20
30
31
14
55
56
19
33
34
10
63
48
26
83
59
29
97
71
42
85
62
36
110
70
44
137
82
57
202
114
70
217
136
79
208
136
80
219
144
80
205
135
83
179
109
66
232
155
84
231
158
80
222
149
73
227
146
71
232
148
78
170
115
73
88
62
40
202
137
88
191
118
74
202
131
83
161
104
68
107
74
51
141
102
73
122
92
61
63
50
32
81
67
51
40
42
25
10
14
3
50
53
26
56
56
25
37
44
22
25
33
17
4
6
2
4
5
2
49
42
30
2
2
1
1
2
1
3
4
1
24
35
18
10
18
7
2
3
1
17
26
15
39
48
22
94
72
45
4
2
2
4
4
3
16
20
7
61
70
31
63
69
24
113
96
65
36
42
16
91
83
44
93
79
46
121
87
57
143
100
71
114
78
47
199
123
75
144
98
63
149
107
71
60
53
20
163
116
75
130
92
55
168
113
72
176
110
65
208
124
73
222
143
84
116
79
48
176
111
74
107
71
43
72
66
35
74
59
31
96
81
49
69
67
32
94
80
47
117
83
54
151
100
63
107
73
41
188
124
80
114
87
61
130
97
67
126
90
56
102
76
44
194
125
76
119
82
57
59
49
34
107
78
56
178
108
69
195
111
67
232
135
76
233
137
75
167
96
54
221
136
83
221
130
83
216
124
82
204
121
78
185
113
77
132
85
54
36
38
18
66
63
37
129
98
64
136
91
57
124
85
55
209
133
98
170
109
77
181
113
90
175
113
92
83
65
45
81
73
48
107
86
65
111
84
66
157
106
88
152
99
80
162
106
89
188
120
99
192
128
102
192
134
110
126
89
68
147
103
84
176
118
96
143
98
74
152
113
86
129
93
78
128
99
80
113
94
72
170
122
101
160
114
93
119
90
71
164
115
94
97
76
58
98
88
70
76
61
43
94
81
58
79
77
47
68
60
39
101
86
64
56
59
25
100
82
56
123
95
77
129
98
82
127
96
80
148
105
84
110
72
60
36
23
20
62
49
50
48
42
38
15
14
10
34
27
28
49
42
43
48
42
40
54
42
38
2
4
1
9
12
5
30
22
12
28
22
12
17
16
6
73
62
32
42
30
11
20
11
4
30
26
17
8
6
3
29
30
17
96
73
37
118
84
46
72
51
28
31
25
12
43
37
22
32
29
14
43
39
21
55
43
14
57
41
14
59
44
22
45
32
14
36
26
15
30
22
5
82
66
26
57
50
21
3
3
2
9
8
4
52
42
23
68
61
28
30
31
13
2
3
1
28
34
10
67
68
22
59
68
19
8
12
3
34
39
24
8
13
3
29
30
20
23
24
11
39
44
23
25
35
19
24
32
16
23
34
12
42
52
20
36
47
17
27
38
15
33
42
18
52
53
27
24
36
14
28
42
16
72
68
31
57
53
27
2
2
0
1
0
0
1
1
1
1
1
1
1
1
1
0
0
1
1
0
1
1
1
1
1
1
1
1
1
1
1
1
1
1
2
1
2
3
1
27
31
20
33
41
20
3
5
1
22
30
16
6
8
6
1
2
1
0
0
0
21
21
15
7
8
5
3
4
2
31
38
20
22
26
14
2
3
1
1
6
1
22
34
18
38
42
20
20
29
14
8
15
6
1
2
1
21
31
16
16
25
10
28
34
17
27
28
11
50
55
21
46
55
17
61
69
20
45
51
16
47
47
6
64
64
19
42
45
12
76
69
17
72
67
17
37
36
9
61
61
15
79
74
15
91
75
26
80
74
41
111
91
64
100
77
51
84
71
37
68
71
25
66
60
24
67
57
25
52
53
20
62
56
28
110
84
57
106
83
54
145
110
74
155
117
75
110
88
57
77
73
41
116
88
60
130
86
61
109
70
49
84
56
38
56
43
33
48
36
24
66
52
33
99
76
51
161
112
79
171
116
77
181
120
81
178
120
83
115
75
49
151
109
68
155
105
71
166
119
88
124
95
68
82
65
41
61
49
35
12
7
3
9
8
2
11
9
5
4
5
4
47
29
20
122
83
64
50
30
15
17
18
11
7
7
3
31
25
19
3
3
3
6
5
4
2
2
2
0
0
1
1
1
1
1
3
1
2
3
2
7
4
2
52
39
29
57
38
31
139
93
74
144
86
55
226
144
74
233
136
59
172
92
48
194
129
73
192
126
76
148
97
57
30
33
15
24
30
12
41
45
16
29
31
12
46
50
25
39
50
18
71
64
33
54
47
21
92
69
40
140
87
56
180
105
61
210
130
79
185
120
69
232
152
81
177
108
63
173
106
71
179
111
69
174
106
55
237
155
77
238
145
65
230
142
66
216
137
76
96
63
39
164
110
70
174
114
70
148
94
52
147
99
58
137
87
55
164
111
76
117
84
53
73
56
39
68
59
44
45
45
27
35
35
18
59
57
28
63
56
26
52
51
27
22
26
13
11
13
6
21
24
14
23
24
16
1
1
0
1
2
1
2
3
2
4
5
2
2
3
1
0
1
0
1
1
0
24
36
17
79
64
37
26
29
16
3
3
1
8
12
4
37
51
24
38
55
17
86
81
41
62
68
30
74
72
32
97
81
44
99
78
46
82
69
51
54
49
26
125
95
63
118
85
58
106
80
53
73
61
38
131
87
61
163
101
64
189
119
77
123
83
53
162
107
76
205
135
82
127
90
65
186
117
76
124
83
52
67
57
24
100
77
54
56
51
29
94
78
46
127
92
61
59
49
24
75
63
39
101
79
54
143
100
69
87
63
40
102
75
47
119
85
50
70
66
36
174
118
78
102
66
42
69
58
43
112
81
56
177
106
69
197
120
75
234
137
80
199
118
72
221
139
85
231
135
79
203
125
81
165
102
70
195
114
76
165
107
73
153
110
78
40
43
21
38
39
16
141
107
73
86
76
46
120
80
55
172
108
78
92
75
36
138
98
69
152
104
83
34
37
11
56
68
24
74
73
34
126
97
79
135
97
75
135
98
73
165
110
89
172
113
87
159
108
87
151
109
87
99
77
54
124
94
73
163
117
97
149
110
84
57
58
19
126
103
76
112
89
66
58
64
27
89
84
46
131
110
79
109
84
63
106
81
65
72
63
39
70
76
40
69
72
33
77
71
45
95
84
56
86
70
49
61
59
26
50
53
18
114
95
71
108
87
66
133
99
79
142
102
80
142
99
75
118
82
57
124
78
63
91
65
58
30
27
17
65
59
42
43
38
28
12
12
8
51
52
46
18
21
11
35
39
23
47
41
27
56
38
24
40
32
19
62
50
26
61
47
24
32
19
9
43
31
23
13
9
4
10
9
5
39
32
19
70
49
27
21
13
5
8
9
4
19
16
9
49
38
21
76
63
34
66
53
25
86
64
26
71
53
21
19
11
2
37
25
12
42
30
14
77
63
21
79
64
17
64
53
29
8
5
1
52
39
24
53
39
21
51
48
19
40
41
12
2
2
1
24
26
8
45
46
14
69
71
18
39
42
18
25
28
15
27
31
15
36
37
17
45
48
20
23
26
9
32
37
23
15
22
8
35
43
20
46
49
20
50
48
22
21
22
7
25
29
14
50
49
27
37
44
21
15
24
8
28
38
19
25
32
14
35
41
21
2
4
1
0
0
0
1
1
0
1
3
1
2
3
2
1
1
1
2
2
1
1
2
1
1
1
1
1
1
1
1
1
1
1
1
1
5
15
4
26
45
20
5
12
4
2
3
2
0
0
0
0
0
0
1
1
0
43
43
23
20
21
11
24
28
18
32
39
21
23
28
15
18
25
13
18
28
13
33
46
21
33
39
18
10
17
5
10
16
6
9
11
3
29
36
18
14
21
7
23
25
12
34
35
13
49
49
19
59
59
18
62
60
18
54
52
17
76
68
16
73
73
15
61
65
18
77
77
17
75
78
17
65
62
21
50
48
15
61
68
17
65
70
27
40
46
18
121
92
63
111
78
44
74
66
25
88
82
37
121
91
48
134
91
56
106
76
33
86
82
33
67
66
33
70
72
37
75
71
37
70
76
36
82
81
49
51
54
21
77
63
36
44
34
19
38
29
17
54
36
23
105
65
45
155
102
68
154
106
66
199
138
76
241
165
91
231
156
83
209
139
79
224
150
89
201
135
77
203
138
79
145
96
63
57
37
23
15
14
5
2
2
1
2
2
1
12
7
4
16
11
4
34
31
17
25
26
16
44
39
24
73
59
43
26
14
5
6
5
4
14
6
4
57
39
29
1
0
0
3
3
2
2
2
2
0
0
1
0
0
0
3
3
2
5
6
3
5
4
1
36
28
20
35
22
15
76
51
39
91
59
38
181
109
64
221
126
69
160
92
57
113
75
44
92
61
34
75
53
33
29
33
19
15
21
10
35
43
22
30
34
13
34
41
16
28
35
12
19
27
13
31
34
11
92
76
40
66
62
27
119
87
44
190
131
82
175
116
63
237
150
72
216
133
78
200
130
87
209
135
87
183
110
65
224
136
75
207
115
64
227
137
73
196
122
80
108
77
58
180
118
82
206
131
85
173
104
62
182
116
72
137
91
54
157
112
71
83
70
39
62
55
35
68
58
37
91
69
49
45
45
26
30
34
13
35
44
21
18
23
9
6
7
2
3
3
1
10
9
3
3
3
2
2
3
2
13
15
9
1
3
1
2
4
2
20
26
12
19
26
15
8
12
5
20
29
15
57
52
28
30
36
18
5
6
1
34
35
16
30
33
12
41
51
25
39
50
21
44
56
23
32
39
17
33
42
14
42
58
21
26
40
14
47
53
23
137
108
71
115
89
55
79
72
34
104
82
55
155
105
65
202
136
88
121
83
49
101
73
45
186
128
88
158
111
77
131
101
74
115
78
52
86
65
41
64
66
28
39
40
18
82
78
50
61
59
32
99
81
54
47
51
30
33
37
16
94
73
47
150
112
77
85
70
45
96
81
51
114
88
55
51
55
23
145
108
71
139
97
67
64
55
41
76
67
43
98
69
37
214
131
76
231
128
73
210
126
82
234
138
83
220
112
71
202
125
87
123
86
58
169
107
70
159
104
71
75
61
31
61
68
34
50
54
17
106
92
38
61
65
23
127
91
71
97
73
53
54
66
16
103
88
57
110
84
64
17
31
6
50
73
23
49
66
17
114
94
66
91
82
48
85
75
45
140
101
73
137
96
67
163
115
92
129
92
68
71
62
39
85
74
54
110
89
67
75
70
44
34
58
11
70
74
34
72
74
36
52
74
22
55
78
20
110
103
59
115
97
68
104
77
60
74
76
37
42
63
13
43
55
18
42
43
26
70
70
35
68
59
35
29
47
13
38
58
14
63
70
31
89
81
55
152
115
99
155
119
99
184
136
117
126
91
66
130
90
74
115
84
75
82
72
51
72
65
39
30
27
19
83
67
65
55
53
38
59
54
33
53
44
30
6
3
2
5
3
1
16
14
8
43
35
24
23
14
6
28
21
16
38
28
20
56
40
24
15
10
5
19
24
11
22
26
13
21
22
13
34
37
20
38
37
17
100
86
56
46
44
17
24
18
4
18
10
2
33
25
8
36
32
14
23
22
13
13
14
3
52
53
17
44
39
10
69
55
24
8
5
1
39
31
16
24
21
7
52
52
23
46
44
16
39
34
13
45
41
15
66
61
23
55
55
14
15
17
8
30
34
19
17
20
8
8
10
5
55
50
22
67
60
27
41
42
20
24
28
15
24
26
15
47
50
24
31
32
10
47
48
26
20
24
8
34
38
20
32
39
18
22
26
12
7
11
4
27
34
16
18
29
11
18
23
12
5
6
4
1
1
1
1
2
1
1
2
1
14
11
6
14
11
6
1
2
1
6
13
6
15
21
10
28
25
13
4
4
1
17
27
14
26
38
17
6
10
3
0
0
1
1
1
1
4
5
3
12
15
8
36
41
21
4
5
1
6
9
3
16
23
11
14
21
10
13
19
9
2
4
1
4
8
2
19
28
15
20
33
14
28
38
19
15
20
8
37
45
21
27
36
20
31
37
20
47
50
20
54
53
19
55
46
12
66
58
20
62
55
16
65
64
22
39
47
13
30
39
12
52
53
15
81
71
18
61
59
19
33
37
14
48
63
20
52
56
19
41
44
19
131
97
67
117
81
42
77
75
27
76
79
32
96
88
40
108
87
44
97
85
28
74
86
25
49
59
22
76
77
40
106
88
57
58
62
26
111
97
58
116
95
53
170
127
83
180
125
78
213
147
84
216
145
77
214
137
78
190
118
64
177
116
59
242
160
75
244
162
75
236
158
77
217
147
80
208
135
75
222
143
72
214
141
79
154
104
68
120
90
57
59
58
31
69
54
36
107
76
52
131
92
70
133
94
71
41
35
19
31
31
20
59
45
28
143
94
67
155
99
71
38
22
11
12
7
3
47
34
24
10
8
5
15
15
12
19
20
11
18
25
12
1
2
1
3
3
1
34
35
23
24
28
15
43
45
29
42
36
25
85
66
52
85
63
44
109
75
57
109
72
49
83
62
39
50
48
25
69
56
36
43
37
23
16
19
12
4
6
2
38
44
20
31
36
14
48
51
21
44
50
21
14
20
6
52
51
20
111
83
42
91
72
42
153
103
65
179
110
72
167
115
68
226
151
87
199
126
72
228
139
77
224
129
62
223
131
59
234
142
73
190
104
64
191
114
73
159
94
66
66
42
31
105
67
52
160
100
76
155
99
71
142
89
61
107
75
51
125
83
59
86
66
40
50
48
31
42
42
20
75
66
37
52
55
25
51
58
25
39
49
20
36
40
21
31
35
18
12
15
6
38
38
22
28
31
16
10
14
5
26
31
19
21
24
14
37
42
21
36
46
25
7
14
4
35
44
22
16
23
12
21
25
12
33
39
20
25
24
9
39
41
18
47
46
16
62
53
28
12
19
6
28
41
20
4
8
2
6
14
3
33
52
21
25
38
12
50
60
23
57
64
25
66
76
33
60
67
27
130
94
67
116
79
51
183
126
94
168
121
93
119
80
53
181
115
78
153
100
68
179
124
88
67
66
37
46
61
28
42
51
22
42
45
25
34
51
21
18
28
9
49
57
33
20
30
13
28
39
20
79
64
39
100
79
47
57
59
31
87
75
49
80
65
40
107
89
62
59
65
25
65
61
30
28
27
15
104
78
53
121
84
55
209
125
82
207
126
77
177
109
69
226
134
84
213
126
88
181
110
82
95
64
38
138
103
69
153
115
86
79
72
38
61
69
33
50
59
24
66
73
25
48
56
20
69
53
31
45
38
21
41
57
19
47
53
23
48
48
28
8
23
4
40
65
18
53
72
16
52
69
22
52
61
25
117
96
66
162
112
85
152
105
78
105
83
58
81
74
48
64
64
34
79
73
42
64
71
36
42
61
22
30
58
10
63
79
31
102
93
63
65
70
28
53
80
20
74
93
37
76
74
45
104
86
66
65
72
33
43
63
21
36
51
16
45
57
25
49
63
21
30
37
12
36
59
16
48
66
16
118
100
78
116
96
74
134
105
85
125
97
69
171
126
99
129
99
71
82
75
40
89
74
55
102
83
54
84
70
43
80
61
47
99
77
70
61
59
36
68
76
36
45
44
22
30
25
11
24
19
13
26
20
13
55
35
23
39
22
16
32
21
15
22
17
12
33
24
15
29
27
13
35
42
23
19
24
9
40
38
13
97
80
39
105
91
49
48
57
25
35
45
17
27
30
18
10
10
6
2
2
1
16
17
12
7
8
4
13
12
4
41
44
16
41
41
15
60
52
30
30
27
13
38
32
16
37
32
13
44
40
17
44
40
17
49
52
19
45
44
17
36
36
13
40
43
11
14
16
6
30
34
17
39
42
24
16
17
8
23
21
7
41
41
19
34
37
16
29
32
16
25
29
15
56
57
24
69
68
26
50
51
18
31
31
11
14
19
9
18
23
11
12
16
8
4
6
2
39
45
21
36
51
21
28
44
15
3
5
1
4
6
4
2
2
1
1
3
1
5
10
4
5
8
4
1
2
1
0
2
1
5
5
1
48
41
24
52
45
30
35
33
21
13
16
9
8
12
4
10
13
5
10
13
8
1
2
1
5
12
3
57
64
27
30
34
13
21
29
15
5
8
3
2
3
1
2
2
0
2
2
1
2
2
1
12
21
8
13
23
9
6
13
4
22
32
18
30
43
18
12
17
5
15
19
8
35
47
19
39
47
17
38
34
15
26
27
9
38
39
17
34
40
18
20
31
15
11
20
8
20
22
7
44
43
20
33
35
16
38
39
19
40
46
16
43
44
17
32
38
13
89
75
37
105
76
33
62
57
18
53
57
19
65
73
22
80
74
30
82
78
25
48
72
19
26
44
10
44
59
20
90
79
45
35
45
13
64
61
31
112
91
59
142
107
70
195
136
78
203
137
70
206
138
77
216
142
87
207
143
88
182
122
70
238
153
80
226
153
85
188
123
68
175
113
67
232
155
79
242
162
74
241
160
77
241
157
77
230
146
83
141
89
59
124
86
62
168
118
84
118
88
63
99
70
47
30
26
16
13
12
8
59
38
24
156
99
67
202
130
84
77
46
23
25
20
15
65
56
51
17
14
11
20
17
14
52
47
33
29
30
15
2
3
2
1
1
1
16
16
11
50
47
36
76
69
48
74
69
48
74
71
47
76
66
41
89
72
52
56
52
36
102
75
55
76
59
39
139
105
74
72
60
36
24
35
20
2
4
0
23
34
14
36
53
22
27
38
15
12
23
7
21
29
16
50
55
24
67
65
27
50
46
19
97
65
35
160
106
73
132
94
65
148
96
61
197
125
68
235
146
69
237
133
57
238
132
58
231
137
70
207
118
66
177
108
67
121
85
66
82
60
47
131
91
68
170
117
83
150
107
75
131
94
63
113
83
56
112
77
56
90
66
45
24
22
13
11
14
4
45
51
25
30
33
12
38
41
15
70
72
29
49
49
23
19
22
8
5
6
2
6
6
3
8
10
3
30
34
19
16
19
6
32
34
22
18
20
9
14
18
7
9
8
2
58
64
24
38
47
16
30
34
18
46
48
21
78
64
32
82
68
30
80
75
35
65
58
26
13
26
7
38
55
26
27
35
21
12
20
8
16
27
11
18
25
13
12
16
4
62
62
31
61
70
27
49
57
19
96
66
42
105
81
52
118
91
61
97
71
46
102
78
50
171
117
86
179
123
86
195
126
81
60
62
32
36
55
19
25
44
13
36
42
24
26
41
17
61
60
43
55
60
30
10
18
4
22
31
17
38
40
21
77
69
45
37
42
18
94
78
52
91
64
40
114
78
51
50
68
29
36
46
20
19
33
15
55
55
26
118
86
54
165
112
79
139
105
65
147
107
73
188
118
84
169
115
89
136
90
65
102
71
45
121
93
55
136
107
73
80
75
40
72
65
39
67
69
38
40
55
16
41
55
18
38
40
17
18
21
7
37
47
22
36
40
18
60
51
31
17
25
7
36
46
14
49
52
16
30
40
15
27
38
12
81
76
41
148
101
79
146
96
77
88
76
51
48
53
25
44
61
23
39
53
16
60
72
29
25
41
12
29
44
13
20
39
9
52
63
33
20
35
6
29
59
15
47
76
23
70
69
46
101
87
69
55
63
23
40
53
17
23
38
12
36
60
20
40
63
16
42
56
18
26
54
10
49
66
22
88
79
59
120
96
76
154
110
97
138
98
76
144
108
85
128
98
76
68
69
32
68
62
41
70
57
38
78
67
41
75
57
39
61
49
37
80
73
57
61
70
28
64
53
21
49
36
17
52
38
29
33
22
16
34
21
15
33
21
17
13
7
4
3
2
2
6
4
2
39
37
20
34
33
16
49
45
25
73
61
30
110
82
40
44
40
18
12
15
5
3
5
3
16
14
8
13
9
5
1
2
2
1
4
2
9
15
7
11
17
10
19
30
10
28
44
16
32
39
19
28
31
15
7
6
1
46
37
14
68
56
24
54
49
17
59
64
19
60
62
20
61
61
17
41
44
19
15
16
6
34
35
21
21
24
15
9
9
4
20
21
7
40
42
17
23
26
11
9
12
4
17
21
10
14
16
5
16
16
2
61
56
24
61
52
23
22
19
11
24
22
12
32
31
17
3
4
1
6
7
2
36
44
18
33
42
13
10
14
6
6
8
4
7
12
6
18
26
13
6
13
4
16
23
14
1
1
1
1
1
1
6
9
5
18
27
16
2
2
1
23
23
12
19
25
15
13
18
7
8
11
3
7
11
5
9
12
6
17
17
6
63
60
24
28
25
6
36
38
23
14
20
9
10
25
8
5
10
3
8
13
7
4
8
3
9
14
7
10
18
7
22
29
18
13
16
7
35
50
14
27
36
12
9
14
4
26
41
16
32
46
20
18
23
10
26
36
18
19
27
13
20
22
14
26
28
20
17
19
9
32
33
17
14
16
6
15
18
9
21
23
9
36
36
14
37
38
19
25
35
13
50
69
23
70
65
24
60
52
25
46
49
16
61
69
18
60
60
18
88
77
34
38
58
17
82
76
49
101
85
59
96
81
48
109
91
60
97
81
48
143
108
74
191
135
89
195
135
80
221
149
81
221
145
89
193
116
77
178
115
71
128
90
51
161
114
71
106
74
39
134
100
63
142
103
64
146
102
57
142
99
54
176
113
64
238
152
80
232
145
82
188
122
84
137
97
68
126
94
63
76
62
35
142
108
79
16
10
4
1
1
1
37
27
20
81
57
42
163
112
75
79
53
34
37
32
26
49
42
36
19
16
13
52
45
42
47
41
35
45
39
33
8
6
4
38
36
32
37
33
30
57
52
44
61
53
41
93
72
57
117
85
69
66
60
43
88
73
63
102
76
68
117
81
65
60
48
28
93
73
49
52
55
30
40
49
25
65
53
39
3
3
2
11
18
5
33
43
25
23
34
15
23
35
16
15
18
6
12
18
4
47
49
22
105
80
50
127
90
58
131
93
63
184
123
78
209
136
79
210
141
74
203
127
65
197
120
65
217
143
75
232
154
81
220
144
85
169
114
79
86
63
45
85
70
50
120
86
62
120
83
61
110
76
51
86
66
44
89
66
45
88
65
39
33
29
16
6
7
2
29
33
16
36
42
21
52
58
26
69
73
25
54
54
20
41
45
24
8
9
3
7
8
4
27
31
15
32
35
15
30
33
18
22
24
10
23
26
13
31
34
23
29
23
12
78
70
37
45
58
21
30
41
21
23
33
11
34
29
9
73
72
30
49
65
23
41
54
19
18
30
10
42
56
24
15
22
7
11
23
6
26
39
19
7
11
3
5
5
2
45
43
23
63
64
21
63
73
25
72
63
36
100
87
60
122
105
78
56
51
29
74
65
38
121
91
64
161
122
87
163
114
79
43
45
18
63
69
36
39
55
22
24
31
16
57
64
35
46
54
27
36
50
24
17
19
7
107
85
68
25
18
6
92
77
57
30
35
13
55
58
29
98
74
45
154
109
80
35
40
15
59
60
40
20
41
17
19
38
11
49
51
22
98
83
52
69
63
34
51
55
26
96
85
50
95
83
45
96
83
47
62
58
26
101
98
64
82
83
48
45
53
23
52
57
29
33
48
16
28
50
12
45
68
19
32
41
13
49
49
29
16
22
8
37
45
24
41
44
24
66
64
31
41
50
23
19
28
5
42
55
25
35
46
20
44
56
20
99
82
49
134
95
75
68
63
40
35
55
17
34
67
20
25
37
13
46
58
27
25
52
15
47
69
16
37
57
17
13
25
7
3
7
2
2
14
1
30
57
18
26
29
14
68
67
45
21
36
8
20
31
10
23
33
18
26
35
17
33
47
14
41
60
19
32
63
17
57
71
30
57
65
30
76
87
40
122
99
74
114
90
70
70
73
40
99
87
58
68
65
34
68
56
42
64
54
34
70
65
30
68
65
35
76
71
38
73
74
39
53
63
20
35
32
8
20
11
6
20
9
5
26
15
10
29
21
11
18
17
6
44
48
35
27
34
19
54
41
25
41
32
19
40
39
22
20
19
7
83
63
35
58
42
23
23
25
13
39
42
17
43
44
23
48
48
27
47
47
25
29
35
16
8
15
5
4
7
2
7
10
6
9
18
5
17
30
10
13
22
8
24
28
13
26
30
13
34
40
17
32
36
13
67
66
21
51
54
15
45
44
14
41
41
15
3
4
1
3
3
1
13
16
9
24
26
15
24
25
14
23
25
12
30
35
14
32
39
20
14
19
8
16
17
8
33
33
18
10
11
4
45
44
15
52
51
21
23
25
8
46
42
22
19
22
7
45
50
23
34
37
17
42
50
24
44
55
16
37
44
16
8
10
3
1
2
1
30
44
19
17
26
10
7
9
6
13
16
12
1
2
1
1
1
1
6
7
5
1
1
0
10
13
7
15
22
13
8
13
5
6
10
4
7
11
5
8
9
3
49
42
22
32
35
17
5
6
2
2
2
1
17
21
8
14
20
7
2
4
1
6
9
6
1
2
1
5
7
3
14
18
11
18
23
15
15
19
10
20
30
11
39
50
26
16
25
10
25
36
15
33
45
19
24
28
12
8
10
4
7
9
4
15
17
11
4
6
3
11
10
8
2
2
1
3
4
1
16
20
11
8
11
4
4
7
2
21
26
13
16
24
8
42
61
23
73
68
29
63
52
27
33
44
13
52
67
19
58
67
24
67
72
21
28
53
12
32
50
15
63
62
31
58
63
28
68
70
32
83
72
35
163
113
74
166
109
70
167
102
65
199
121
77
216
140
93
192
126
84
151
106
65
106
88
49
124
93
60
132
98
64
106
82
53
109
89
59
67
59
28
148
102
73
194
116
83
223
136
91
187
121
76
117
82
49
136
102
67
190
132
93
164
119
80
141
102
67
21
17
8
0
0
0
58
49
41
98
72
60
111
78
64
72
58
42
45
44
29
72
64
54
63
54
45
76
64
53
62
54
43
71
60
52
42
35
31
53
47
41
54
46
40
51
41
33
101
83
68
75
61
42
147
108
86
62
52
38
92
75
65
93
70
63
92
76
60
72
60
36
181
124
91
73
61
33
42
53
25
40
33
21
11
14
7
28
32
17
10
14
6
4
10
2
4
7
2
2
3
1
2
5
1
32
41
16
44
43
15
145
97
66
132
88
65
84
61
39
148
102
70
212
137
79
216
136
73
227
146
85
230
147
73
221
142
74
181
114
70
142
97
71
107
78
58
129
91
65
138
93
66
86
63
44
52
47
29
45
40
19
92
76
41
73
61
28
38
40
18
43
52
25
29
34
16
40
45
24
38
45
17
70
71
27
47
46
18
13
17
6
17
15
6
29
28
17
13
15
7
8
9
5
12
14
6
21
23
15
9
10
5
20
22
15
11
7
2
62
54
33
32
48
19
9
19
5
24
35
19
6
8
1
32
38
17
38
49
24
47
52
23
61
50
28
42
47
23
31
42
21
23
38
16
37
56
24
34
40
20
34
38
20
23
27
12
48
55
23
52
69
22
43
46
17
82
78
47
63
70
33
29
33
16
53
54
31
91
72
49
90
77
41
79
73
41
27
39
18
15
33
6
22
42
16
4
10
3
24
33
15
25
27
14
35
44
25
37
39
19
92
70
47
90
70
51
29
35
15
29
42
19
24
39
15
51
58
23
137
103
74
38
31
16
7
14
5
15
39
12
25
47
13
74
68
43
68
66
39
143
105
79
112
91
68
123
103
78
140
117
92
56
60
28
63
71
39
37
53
18
86
80
56
13
21
6
24
37
15
28
42
18
11
24
4
32
61
18
32
52
20
23
30
14
5
8
2
30
38
21
15
23
6
67
70
30
34
45
14
25
37
11
32
44
17
7
9
2
31
41
13
71
73
28
95
78
49
77
77
46
38
77
16
33
77
14
14
31
4
28
56
17
21
56
16
33
49
17
47
72
21
40
63
18
22
31
11
5
20
2
29
58
19
5
12
2
41
56
21
30
47
14
20
34
11
35
53
25
22
24
7
16
20
7
46
52
29
26
49
11
70
70
20
92
82
33
53
72
15
76
79
46
91
78
60
59
73
31
85
80
46
68
64
39
18
19
9
42
45
27
39
46
18
41
48
16
54
61
27
41
57
17
61
67
21
53
47
14
9
8
4
9
7
3
12
9
3
34
35
17
65
57
31
119
99
72
29
37
15
71
60
29
45
38
24
18
15
7
18
15
5
75
61
33
45
42
20
20
21
11
21
22
6
9
10
1
29
35
17
43
46
26
14
20
6
22
33
16
34
46
27
29
39
13
10
15
3
8
12
5
2
2
1
12
14
5
28
34
16
28
38
15
8
13
2
38
38
18
36
41
16
36
39
20
10
12
6
27
25
10
26
26
12
20
24
13
11
16
6
21
23
11
34
35
17
52
46
21
29
27
10
15
18
9
12
14
6
36
35
20
30
32
15
47
55
23
41
40
18
66
60
25
65
60
25
46
47
18
36
43
16
38
47
26
15
22
4
56
63
23
58
59
23
59
52
28
24
23
12
30
43
22
14
21
11
18
25
12
19
26
14
6
10
4
0
1
0
6
8
4
1
1
0
1
2
1
9
11
4
8
9
2
9
13
6
8
13
6
14
15
5
69
65
25
46
56
17
2
4
1
1
2
0
38
36
12
50
48
24
8
11
6
2
3
1
11
16
10
7
11
6
1
1
1
3
5
2
21
27
15
24
27
14
12
20
8
15
25
12
13
22
8
36
36
13
45
40
18
18
18
13
3
3
2
7
8
5
19
27
16
7
12
6
8
11
7
5
8
4
24
30
18
21
29
15
24
35
15
28
39
15
39
49
20
43
47
25
37
35
21
19
18
10
9
14
4
57
60
31
26
34
11
53
69
28
29
52
16
36
53
19
7
18
4
27
47
20
20
35
6
108
85
49
169
116
76
106
75
38
193
132
84
198
124
82
201
131
88
145
97
64
106
89
52
116
93
49
182
129
80
136
103
65
174
126
73
195
136
81
112
87
59
134
89
62
128
87
60
162
102
71
140
99
66
122
91
59
84
72
37
119
92
61
93
71
37
74
63
31
28
25
18
20
19
16
47
40
34
124
92
77
142
98
76
69
63
38
55
57
29
94
76
59
102
76
61
106
79
61
92
69
55
52
39
31
76
65
56
72
65
51
71
64
46
79
70
52
95
78
60
59
49
32
128
96
78
77
57
40
160
109
83
162
107
83
145
100
76
86
70
45
109
83
54
46
50
20
52
63
33
7
8
2
10
12
6
44
46
24
47
44
25
18
23
14
19
24
15
2
2
1
16
20
9
21
28
13
44
45
23
137
93
66
171
115
83
68
46
27
195
129
86
214
134
84
209
123
76
208
128
82
243
159
77
244
155
68
222
147
80
102
75
47
76
66
44
159
118
88
128
98
75
59
48
29
32
37
20
30
25
9
83
73
39
77
70
32
50
48
21
20
26
9
28
34
18
8
10
3
35
38
20
97
80
38
77
65
28
40
42
18
59
39
18
27
19
9
2
2
1
9
12
6
5
7
3
1
1
1
1
2
1
1
2
1
5
5
2
41
43
19
30
50
19
7
18
3
25
33
18
29
27
11
57
54
25
28
29
12
49
52
28
67
52
33
17
20
7
35
50
25
18
34
12
48
67
28
34
48
16
43
51
18
60
65
26
31
52
15
46
69
22
42
44
20
69
62
44
64
59
29
50
43
25
41
35
21
158
117
93
103
84
46
58
55
23
12
17
8
5
16
3
27
46
21
1
8
1
20
40
18
1
5
1
16
24
9
81
69
48
107
82
59
102
74
45
39
40
16
41
57
24
45
58
27
31
48
11
162
126
95
44
35
21
9
19
9
15
27
10
34
43
21
61
57
35
39
47
19
104
82
52
91
78
51
96
89
57
104
92
59
60
69
34
51
61
28
36
48
14
62
70
26
21
32
11
22
37
16
35
53
24
22
39
11
35
62
19
33
46
18
67
56
35
34
41
20
6
10
3
9
21
3
37
58
22
25
44
13
25
39
15
25
26
12
39
36
21
21
34
9
54
74
23
90
82
41
60
61
27
35
71
15
40
75
20
42
53
21
47
69
19
29
45
16
34
49
21
32
49
12
49
66
16
50
63
19
40
58
14
34
61
16
19
26
12
22
37
15
19
35
10
42
48
20
22
26
7
97
82
46
20
14
2
41
48
20
50
70
17
76
83
26
64
75
28
75
83
39
56
69
31
66
78
35
44
73
23
63
65
30
79
71
39
33
40
16
36
50
29
29
37
13
37
45
20
40
48
25
68
71
33
57
63
23
41
40
13
15
19
9
31
29
20
14
13
5
30
34
19
49
58
27
59
71
31
17
23
3
82
74
36
6
5
1
2
3
2
51
49
26
38
33
17
22
30
17
9
11
7
1
1
0
35
36
24
27
39
17
22
30
10
32
33
19
32
35
22
30
33
20
48
57
26
53
64
23
30
42
18
35
44
24
11
15
7
2
5
1
35
47
22
37
34
13
49
39
23
17
16
3
49
47
20
23
26
13
37
36
18
16
16
5
2
2
1
2
3
1
35
35
19
42
40
17
26
22
8
28
24
15
8
9
4
21
27
14
70
61
30
75
66
23
60
67
16
42
40
13
62
58
26
62
62
23
49
55
19
42
53
18
18
26
8
33
42
20
9
16
4
47
42
21
43
37
18
22
23
12
24
28
17
3
5
2
15
24
10
31
34
16
28
34
18
3
4
2
10
12
7
2
4
1
8
11
3
37
41
21
63
54
25
55
49
26
47
49
25
31
30
11
47
46
16
63
74
23
23
28
13
36
35
23
42
38
14
59
55
29
22
28
18
0
0
0
1
1
0
2
2
1
2
2
1
3
7
3
5
7
3
32
34
19
14
17
5
2
3
2
2
2
1
20
20
9
24
21
11
3
3
1
2
2
1
1
1
0
8
12
5
16
22
14
0
1
1
1
2
1
8
12
5
32
38
21
2
5
1
1
3
2
23
29
15
23
28
15
23
25
18
23
29
17
8
10
5
33
35
17
19
21
9
39
53
22
28
43
15
4
8
2
18
26
14
17
36
12
41
65
23
73
67
28
140
108
65
171
127
78
212
138
82
207
139
86
172
113
66
148
108
73
96
85
50
97
78
42
139
99
63
126
96
61
191
123
80
178
113
71
82
64
36
69
55
29
113
82
54
116
87
55
74
63
30
65
65
27
77
69
34
103
80
56
76
68
37
59
59
30
46
42
31
39
38
29
45
43
31
65
59
44
68
59
41
93
75
51
90
73
51
92
70
58
102
77
67
82
63
53
82
64
56
75
58
50
81
64
54
91
73
58
93
75
58
91
73
55
101
78
63
99
75
61
94
76
61
102
74
54
182
118
88
132
87
65
112
82
61
66
58
36
48
61
24
54
73
27
58
73
30
53
53
27
46
50
29
15
20
9
45
39
24
37
30
22
23
26
18
11
13
7
9
12
5
25
28
18
41
35
17
140
97
71
160
106
78
103
72
52
177
117
86
184
117
80
230
143
84
225
130
69
235
142
73
231
137
72
212
129
76
165
114
83
70
56
34
120
95
67
71
59
35
63
51
31
49
49
27
39
38
16
58
55
20
56
54
22
50
48
17
55
52
24
34
40
17
42
43
19
33
32
15
73
65
33
44
42
16
21
17
6
82
50
27
41
29
11
31
33
16
15
23
8
19
24
12
14
18
11
14
20
11
0
2
1
1
2
1
18
22
13
21
38
16
28
46
16
28
41
14
58
52
26
56
53
25
33
36
21
62
67
33
55
53
26
24
25
7
31
50
23
11
24
7
31
49
17
53
71
26
80
78
25
51
63
17
46
77
23
29
66
12
24
51
15
20
34
14
72
60
26
58
49
25
49
45
30
77
67
45
64
61
28
69
60
32
5
4
1
3
4
3
29
34
17
26
36
21
18
42
17
27
31
21
18
25
11
76
67
48
72
62
38
64
56
32
92
76
56
25
37
12
40
51
21
35
63
17
78
80
41
15
22
5
14
26
12
26
33
20
24
29
15
2
3
1
34
39
20
49
57
25
46
60
27
90
78
55
79
77
48
44
60
22
36
53
25
26
42
16
45
65
23
6
16
4
7
12
5
37
50
24
35
63
19
26
50
15
35
52
19
66
54
32
75
66
43
23
30
13
25
47
13
33
60
16
20
41
15
18
35
13
26
20
8
50
45
24
38
45
15
72
71
25
95
83
31
101
80
31
73
78
29
28
57
12
29
44
11
37
52
17
9
13
4
4
6
3
20
36
14
35
59
16
38
56
17
33
59
12
30
54
16
6
15
3
20
42
14
14
36
12
21
42
17
4
13
2
70
77
38
39
34
7
94
79
35
57
68
17
64
67
19
28
45
14
16
36
8
18
33
12
30
45
17
29
48
15
54
50
29
79
72
46
31
49
19
63
59
20
73
68
23
47
63
19
47
52
27
71
69
46
38
39
14
61
57
30
53
50
28
43
40
25
46
38
23
40
31
16
45
58
28
45
64
27
39
47
20
88
77
39
30
23
11
3
6
1
38
40
24
1
1
1
11
18
10
4
9
4
5
5
3
7
8
3
44
45
24
48
48
24
41
42
25
26
28
17
26
30
18
32
41
17
43
57
22
35
52
24
26
42
18
23
31
12
37
46
19
50
60
16
82
72
29
37
28
13
59
53
25
44
40
14
6
6
5
7
9
4
2
3
1
1
1
1
6
7
4
6
7
3
24
22
9
31
27
13
10
11
6
11
12
8
9
12
5
41
40
16
29
34
7
58
71
19
57
57
18
26
26
6
49
52
20
48
48
22
42
51
20
34
48
18
19
32
13
5
8
3
32
29
17
5
8
3
19
25
14
15
21
10
19
28
14
29
47
22
61
62
25
33
45
18
8
10
6
23
27
16
37
32
20
53
46
29
36
31
14
43
31
11
49
44
17
36
39
18
36
39
20
36
37
15
56
63
23
3
8
1
4
4
1
26
33
14
21
28
12
1
1
1
4
8
4
11
18
8
30
31
15
32
30
17
21
23
12
3
5
1
23
30
13
18
25
8
1
2
1
1
1
1
1
1
1
2
2
1
4
5
2
1
1
1
5
6
3
8
9
6
5
8
4
14
17
12
1
2
1
2
3
1
14
20
8
4
6
2
2
2
3
7
12
6
20
27
15
10
14
6
11
15
10
12
15
9
11
13
5
20
26
15
25
35
17
10
19
7
18
26
14
3
6
2
17
32
11
19
37
13
59
56
25
84
77
35
97
72
35
178
117
82
115
77
48
115
86
59
130
93
66
48
42
18
77
67
38
89
77
42
100
77
42
152
95
69
101
70
44
55
52
25
42
45
18
114
87
58
104
78
49
61
56
24
36
49
13
68
68
29
77
71
33
51
59
21
48
50
23
103
83
67
57
54
37
63
59
39
132
98
75
133
96
77
164
114
90
141
94
70
173
116
90
138
92
71
149
98
81
108
76
61
66
53
43
75
62
50
92
75
59
124
98
79
110
85
65
106
81
65
123
90
71
119
94
75
132
91
63
199
134
95
131
97
74
140
107
85
82
67
49
94
83
65
36
51
16
72
74
42
82
75
42
55
58
26
17
20
9
18
19
12
4
4
2
3
3
2
5
5
2
27
28
18
15
17
8
49
35
19
142
102
80
146
100
78
127
85
62
170
113
84
201
132
88
206
135
74
234
149
84
218
131
69
180
115
69
140
95
60
113
83
56
71
64
39
67
74
38
66
66
36
61
53
31
62
60
33
43
37
12
80
63
25
55
49
17
39
38
14
93
69
41
27
24
7
47
45
24
52
42
23
64
58
26
47
56
25
27
30
11
76
58
33
50
52
22
44
53
17
33
46
19
29
40
17
3
4
1
3
2
1
31
27
20
2
3
1
2
6
1
14
24
8
33
53
27
33
38
14
83
69
36
56
49
19
18
20
10
41
46
24
49
45
24
23
26
8
46
64
29
18
22
5
56
56
30
27
35
10
76
72
30
47
67
21
28
49
17
24
57
17
15
40
9
49
49
19
67
55
25
15
21
10
47
41
31
81
68
53
81
62
27
84
66
26
7
10
1
4
5
1
43
51
24
14
28
8
19
47
16
10
14
5
31
41
21
58
60
36
57
64
30
41
50
21
56
57
26
31
40
18
31
38
19
30
62
18
52
67
26
7
14
2
9
19
8
11
14
8
8
11
4
19
18
12
19
27
13
37
48
21
72
71
36
123
88
60
94
84
51
42
56
21
9
27
5
33
50
23
29
47
19
11
16
8
16
17
12
49
59
24
53
71
19
25
47
13
27
56
18
38
42
21
78
66
43
45
47
25
25
42
14
34
54
19
27
38
12
47
52
19
54
46
25
56
61
27
85
70
32
79
59
25
54
67
28
54
61
26
36
61
15
32
61
13
70
72
30
32
34
10
23
28
15
5
10
2
27
46
17
30
45
15
17
28
7
30
65
19
22
48
14
1
7
1
16
34
12
13
31
10
14
31
11
8
21
6
37
62
19
76
76
28
66
56
14
77
71
23
60
59
29
19
29
9
35
53
17
80
73
33
84
70
32
103
92
52
86
79
48
80
75
46
49
64
15
94
81
25
56
55
18
40
43
16
79
77
51
27
32
12
36
33
10
71
54
25
28
22
7
15
12
4
30
24
12
37
29
16
61
70
30
54
67
27
41
57
23
36
44
19
24
21
9
23
25
15
22
25
12
25
26
14
4
7
1
23
22
10
61
55
33
7
8
3
1
2
1
2
2
1
41
44
24
3
4
1
1
3
2
16
25
13
12
21
7
30
35
11
54
63
22
57
63
26
29
41
14
34
52
16
54
58
19
63
61
26
18
21
6
23
34
16
7
13
6
24
22
11
17
19
10
2
1
0
23
17
11
2
3
1
9
10
5
4
3
2
2
3
2
7
8
6
2
2
1
8
11
6
14
21
11
40
52
19
31
37
13
21
32
16
24
34
16
4
7
1
29
39
13
27
39
15
25
33
16
26
31
16
33
35
18
31
32
17
18
24
12
21
26
13
6
12
3
20
31
12
48
50
24
32
46
19
17
22
10
13
15
5
44
44
29
18
14
4
31
30
21
41
29
12
68
55
20
35
32
13
13
15
8
50
54
23
47
54
18
8
15
4
39
52
25
18
25
13
9
17
7
1
2
1
9
16
7
3
5
1
11
14
7
17
14
6
24
26
11
24
28
16
16
17
5
33
34
19
9
11
5
18
24
13
21
23
14
20
23
13
26
31
14
18
25
13
20
24
15
8
8
3
33
30
18
17
15
7
1
1
0
9
12
6
28
34
17
28
29
17
22
18
10
23
24
16
22
28
15
12
15
7
12
14
8
12
14
7
6
6
3
14
18
10
3
5
2
4
8
3
28
38
19
21
32
14
32
53
20
38
60
25
57
59
26
81
78
39
156
108
70
170
107
72
144
102
71
156
111
80
108
87
64
35
38
18
16
33
7
67
71
39
105
80
49
119
75
44
81
70
38
32
43
14
35
43
20
58
58
24
113
92
53
56
54
18
36
48
21
17
30
6
23
35
10
39
53
15
62
66
23
101
78
52
78
69
43
68
62
35
93
71
49
100
71
52
152
99
77
169
111
86
187
122
90
184
121
91
160
106
85
118
79
60
110
80
66
98
67
53
110
81
66
67
54
37
95
71
56
97
70
59
67
54
41
116
87
70
117
79
61
129
85
66
123
88
65
87
68
45
68
55
33
108
89
67
42
44
17
94
80
56
95
81
56
49
56
27
37
34
20
12
11
4
2
3
3
3
3
2
32
36
22
14
17
6
35
42
23
50
40
21
126
91
65
109
83
61
149
103
79
129
89
67
111
78
63
105
75
57
159
106
70
215
137
84
155
101
65
118
86
56
123
92
68
81
61
45
52
55
29
91
82
43
103
76
42
81
66
31
39
36
8
76
65
23
42
44
15
31
35
11
61
54
27
21
24
7
25
28
13
27
31
15
33
38
14
30
41
16
30
38
14
79
64
27
71
64
23
64
63
22
34
44
17
41
58
22
17
27
7
2
2
1
33
29
18
23
23
13
4
6
2
41
52
26
29
49
19
16
27
6
43
41
16
51
53
22
25
27
12
32
39
21
34
39
22
40
37
11
75
77
28
54
52
25
63
62
27
63
68
29
61
59
27
46
67
18
29
48
14
20
44
16
19
46
10
68
62
26
18
16
4
51
58
34
72
62
44
116
94
60
96
81
26
97
92
26
40
56
20
3
4
1
18
27
15
8
26
7
19
50
14
4
13
4
25
37
20
33
44
12
57
75
25
39
52
21
29
46
11
25
40
19
11
24
9
19
46
15
71
63
29
50
42
19
6
13
6
20
27
12
57
54
34
52
49
32
21
29
13
36
46
24
57
62
35
79
71
30
57
59
26
4
10
1
14
21
10
46
54
20
44
50
22
5
8
2
18
19
14
44
65
24
31
46
10
38
59
14
46
70
16
29
39
17
15
17
5
50
50
30
18
33
10
36
56
22
25
45
17
14
29
9
8
13
5
53
52
16
82
68
27
27
38
8
39
72
26
27
39
14
45
67
21
26
53
12
34
43
12
42
56
21
59
55
22
54
60
23
35
54
18
23
34
12
25
39
13
49
76
22
27
46
13
2
9
2
19
34
16
10
32
8
6
24
5
11
22
4
42
60
15
81
81
22
79
69
25
56
49
9
42
43
16
27
40
12
74
77
27
95
86
34
81
75
25
86
79
31
82
80
38
56
63
25
68
80
22
68
69
18
76
87
32
78
84
34
45
57
17
49
68
25
40
46
15
62
47
18
54
55
27
14
21
9
18
16
11
3
3
1
42
58
21
26
36
11
42
54
24
25
29
10
52
51
20
67
70
29
44
51
23
37
49
20
75
82
35
80
83
42
26
30
9
3
4
1
1
2
2
1
2
1
16
19
11
2
4
1
3
4
2
26
33
14
71
76
32
78
79
36
69
69
31
41
48
18
22
43
12
24
45
13
26
34
13
24
32
8
8
18
7
3
6
2
5
7
5
28
23
12
5
4
1
1
1
1
24
17
9
3
4
2
1
1
1
1
1
1
1
1
1
3
4
2
1
2
1
14
23
12
10
18
8
6
9
3
8
11
5
2
7
2
11
18
10
2
5
2
18
30
12
7
18
5
20
28
17
12
20
10
29
34
19
8
9
3
1
3
1
24
27
18
19
28
12
39
55
29
19
24
8
24
30
14
22
32
16
18
24
13
19
25
14
26
23
15
21
18
9
25
25
12
36
37
17
8
11
4
8
11
6
8
13
5
19
30
14
21
30
17
38
65
24
21
32
13
36
40
23
7
12
3
24
38
19
12
18
8
9
11
5
12
13
8
12
18
9
20
28
15
28
28
10
29
27
12
22
26
15
16
22
13
14
16
9
14
16
10
7
11
6
18
26
15
27
39
22
5
11
2
20
18
8
41
41
23
10
10
4
16
19
11
26
29
15
10
11
5
5
3
2
18
18
14
3
4
2
18
21
14
11
13
6
22
24
17
3
4
1
13
15
9
14
16
9
15
18
10
5
9
2
23
30
17
23
36
16
27
40
18
38
45
20
55
56
26
167
114
84
152
90
59
145
95
63
113
79
51
69
58
36
9
25
7
31
32
15
88
73
46
52
50
24
75
56
29
52
51
24
27
33
14
36
39
20
43
49
20
70
74
22
38
47
14
31
42
20
41
54
24
23
33
13
43
48
19
58
67
19
79
68
34
80
60
43
106
83
66
84
65
50
123
90
75
160
101
81
132
85
66
157
103
86
155
100
84
156
100
84
179
112
87
131
86
68
93
65
53
84
59
49
83
64
51
106
80
67
98
74
63
63
54
40
127
99
81
108
81
63
122
86
62
201
132
91
159
109
77
139
100
70
144
111
89
79
63
45
118
88
68
92
72
51
41
48
22
15
17
6
5
7
4
3
4
4
3
3
4
3
4
1
22
29
19
22
33
16
25
35
12
111
83
61
82
63
44
142
98
74
115
81
59
146
98
76
169
110
83
141
87
59
197
117
81
125
79
52
97
78
50
67
64
35
56
55
28
38
46
22
74
71
31
90
65
35
82
64
23
38
42
14
61
56
24
33
40
13
18
25
6
36
41
19
23
33
13
24
39
11
28
38
16
45
52
20
59
61
24
25
31
12
53
54
21
26
26
7
25
25
10
20
25
9
50
69
25
26
50
11
3
6
2
8
9
4
18
21
10
21
25
12
35
48
22
27
43
15
24
33
12
64
55
36
53
53
24
39
44
25
44
43
23
18
22
8
56
52
22
60
56
19
28
31
11
60
62
27
56
64
25
46
46
24
29
44
14
28
53
19
21
37
17
16
36
9
35
39
18
8
12
2
46
55
26
62
56
37
97
83
57
65
66
15
88
87
18
28
57
13
2
4
2
17
23
15
9
24
6
22
50
14
12
24
10
25
39
19
27
34
9
55
78
25
24
39
12
23
36
15
64
68
37
7
26
5
18
48
14
69
47
19
94
69
33
1
2
0
22
36
18
24
34
15
38
45
24
26
41
18
50
62
27
31
37
13
51
55
20
70
68
27
1
2
1
5
8
3
61
60
28
50
54
24
10
17
6
9
24
7
33
60
22
23
34
13
41
58
17
51
70
16
41
46
23
15
14
4
2
4
0
21
33
16
14
25
9
29
51
18
9
22
6
27
36
14
65
62
16
83
78
22
89
87
35
45
73
20
5
18
3
28
38
17
45
63
21
46
64
24
31
57
13
87
82
32
57
66
24
88
80
45
56
62
30
47
68
21
58
74
24
21
32
10
12
21
8
18
30
14
16
35
6
59
62
24
90
79
45
95
87
39
62
67
13
77
67
22
85
71
19
54
59
16
32
50
14
53
56
22
18
22
4
42
54
19
38
57
17
47
68
26
30
42
9
81
83
24
80
82
22
64
79
14
72
87
29
35
49
20
24
37
13
49
45
24
31
27
8
35
44
21
32
42
23
2
1
0
2
3
1
26
43
17
12
22
6
52
53
21
60
58
31
44
56
22
38
48
17
25
34
16
30
31
12
87
86
46
26
38
10
11
23
9
0
5
2
1
3
1
1
3
2
1
2
1
23
22
10
51
58
31
27
38
15
19
25
5
24
30
15
34
40
22
28
43
17
27
56
11
32
57
16
8
21
6
4
11
3
18
33
15
22
27
8
39
46
20
6
6
4
23
21
15
0
1
1
12
10
7
3
3
1
0
1
1
11
15
8
7
5
3
16
14
8
4
4
2
3
5
2
8
15
7
5
9
4
1
1
1
1
1
1
1
2
0
6
11
6
25
30
17
30
36
22
4
10
3
5
8
5
10
13
6
27
33
18
14
21
12
24
36
20
22
30
14
56
56
30
61
59
30
40
48
26
21
28
13
8
13
3
31
25
15
15
16
8
2
2
1
16
20
12
10
15
7
21
28
17
4
5
2
6
9
4
20
26
14
30
36
23
43
68
22
38
60
23
35
46
17
5
8
2
6
12
5
2
3
1
12
10
3
32
31
14
23
24
10
46
46
20
50
54
21
41
47
21
24
34
17
14
22
9
3
3
2
8
11
7
5
6
4
4
7
3
20
34
17
15
33
13
2
4
1
21
26
13
7
10
3
23
24
19
7
8
5
3
3
2
17
15
9
10
8
4
2
5
1
31
42
22
31
35
20
7
8
4
3
3
0
3
3
1
2
3
1
5
6
2
11
13
6
18
22
12
15
21
8
5
9
3
23
32
16
44
52
29
165
112
81
170
105
69
101
71
34
82
69
37
49
55
32
15
31
14
68
52
35
94
69
47
22
31
15
16
16
5
58
50
37
32
34
16
53
53
25
9
10
2
34
39
16
26
30
14
35
30
20
44
45
22
32
42
19
30
39
21
46
60
25
56
60
29
50
46
27
77
67
45
79
71
45
96
73
51
155
108
88
129
86
65
155
105
85
164
106
89
171
109
89
153
99
77
113
80
64
50
39
29
102
78
69
58
49
35
43
45
22
72
66
45
64
61
38
68
61
38
64
60
37
53
40
21
129
88
58
84
66
35
44
54
19
84
79
51
75
59
42
105
81
65
60
54
37
30
37
17
5
8
2
3
4
1
2
2
3
2
3
3
2
2
2
7
9
5
9
16
4
61
66
33
89
70
48
97
76
56
119
86
60
75
56
33
145
100
78
133
85
63
121
82
62
166
110
80
122
85
59
93
75
47
57
59
33
36
38
18
57
56
31
54
63
29
25
26
7
56
56
25
36
50
21
18
21
6
44
54
23
19
25
8
27
29
19
8
12
3
39
49
21
35
44
17
60
59
23
73
71
26
47
48
17
36
41
17
15
24
10
7
12
5
5
7
2
24
35
10
31
61
19
15
33
9
6
10
2
28
36
15
42
49
23
32
44
21
21
40
8
20
30
7
108
81
62
100
75
51
33
35
13
59
52
24
10
14
3
8
9
4
20
17
6
89
79
64
41
44
19
40
49
20
22
27
13
4
13
3
26
53
19
10
26
6
22
44
18
2
6
1
6
10
3
29
39
19
50
49
31
85
76
53
51
49
10
75
84
17
33
76
19
7
20
4
3
5
3
5
20
3
23
50
15
1
6
0
27
33
15
29
31
12
34
63
16
30
51
14
31
35
14
38
39
19
9
19
3
68
64
26
75
55
28
20
16
6
1
3
1
9
16
8
17
21
7
37
40
22
25
33
18
47
47
23
84
73
41
47
52
20
49
63
20
4
17
2
3
5
1
33
45
23
67
70
32
28
35
11
24
49
16
20
41
13
2
5
2
23
45
13
46
76
21
58
59
26
60
53
24
3
5
1
27
45
20
7
27
3
24
46
18
26
23
6
83
70
31
69
72
23
58
68
23
38
57
14
25
67
11
21
46
10
10
16
6
33
52
18
93
91
68
38
64
25
25
58
13
51
48
24
95
84
47
30
52
12
44
70
26
36
58
23
8
20
4
14
23
10
49
45
15
119
105
54
89
76
38
14
11
1
34
55
20
31
60
13
48
66
20
47
64
14
19
33
10
29
40
17
28
41
17
27
35
18
34
34
14
63
60
22
55
55
14
79
64
22
70
72
16
72
84
18
36
63
15
40
66
20
38
53
23
37
43
13
65
65
23
64
68
23
36
40
19
28
29
15
43
37
24
16
16
8
40
50
17
39
46
16
46
54
22
45
47
19
49
60
27
54
58
31
41
45
23
58
60
33
30
35
15
11
19
5
2
6
3
1
6
3
21
25
8
39
42
25
42
41
24
65
61
36
33
37
21
1
3
1
0
1
1
1
2
1
2
2
1
3
13
1
36
65
17
24
46
11
12
23
9
7
15
5
36
48
17
44
54
23
20
27
11
1
2
1
6
12
5
15
28
14
1
1
0
1
2
1
1
1
1
28
38
17
7
5
2
1
2
1
1
2
1
2
2
2
3
5
2
4
8
4
1
1
1
1
1
1
5
9
5
1
2
0
21
18
8
68
60
38
2
2
1
14
21
12
41
42
18
58
60
25
1
2
1
4
8
3
31
35
18
39
40
18
13
20
7
18
27
12
37
49
23
33
47
20
6
10
2
16
22
13
2
4
2
4
3
2
25
21
15
5
5
2
1
1
0
18
29
12
22
36
15
7
11
5
24
50
16
25
63
16
17
40
11
6
11
2
28
33
19
14
17
8
42
42
23
39
42
17
33
39
18
15
18
5
20
23
8
32
35
18
34
37
17
39
45
19
14
24
8
10
21
5
6
11
3
4
8
3
6
17
4
31
51
18
21
32
10
2
4
2
15
20
12
12
17
10
4
5
3
1
2
1
8
8
2
28
30
17
24
36
16
23
35
15
25
26
17
17
18
10
27
27
17
6
6
3
5
6
3
13
17
6
33
38
23
10
12
5
11
12
7
14
15
10
8
15
5
40
47
24
157
108
75
187
120
83
77
57
25
37
47
17
30
47
21
33
45
25
21
23
8
44
50
27
34
44
21
39
45
24
55
48
30
33
36
18
39
42
14
49
51
24
7
9
3
12
16
9
30
31
20
49
44
20
39
43
23
25
35
18
38
53
23
29
39
21
31
35
22
44
51
27
57
66
22
82
80
39
126
91
67
155
101
80
167
107
86
159
99
83
166
105
85
105
72
52
102
76
60
92
65
56
126
86
79
84
64
51
60
54
33
112
86
67
98
76
55
162
118
94
112
87
62
79
65
43
105
87
63
100
88
60
47
52
26
65
68
45
108
80
60
139
100
78
83
71
46
32
28
13
14
15
8
38
43
24
4
5
2
0
1
1
9
6
4
20
17
12
6
6
1
91
74
49
72
58
37
73
66
49
117
83
66
99
75
57
154
94
68
143
92
67
156
107
82
126
88
65
83
59
39
109
87
56
61
61
35
10
10
2
101
80
54
62
62
33
38
51
20
48
67
21
34
56
18
44
49
20
54
60
21
33
31
15
30
29
20
7
7
3
36
31
16
38
34
17
48
39
19
66
58
24
66
57
17
52
41
16
28
31
17
37
41
24
36
40
25
42
46
21
42
65
19
36
61
19
25
31
16
31
42
19
27
36
16
20
30
11
26
51
12
45
62
18
141
108
77
91
65
34
17
23
8
31
34
17
17
22
10
40
37
18
24
24
8
41
41
23
65
59
27
53
54
21
21
24
10
18
26
14
21
44
15
9
28
6
19
42
16
0
2
0
1
2
1
5
8
4
36
39
20
98
80
52
54
50
20
37
64
13
29
78
18
13
31
9
5
10
2
18
29
12
22
43
16
1
2
1
5
6
3
43
40
21
31
55
9
31
54
11
65
65
31
15
14
4
25
23
9
87
67
31
46
33
13
1
2
1
27
30
23
2
6
1
52
47
26
34
36
14
11
11
4
63
54
37
66
62
34
63
63
39
36
56
20
21
42
11
3
4
2
11
16
6
40
43
20
35
47
20
39
67
19
24
41
13
5
12
4
26
47
14
39
67
12
100
87
30
102
89
27
33
39
13
16
43
7
30
77
14
16
40
7
62
57
21
78
75
23
40
55
16
22
33
10
25
47
16
22
62
13
33
64
16
35
44
17
35
62
17
49
56
34
69
75
58
18
47
8
84
81
37
44
64
18
44
72
21
95
93
35
52
66
22
35
42
17
92
79
37
102
94
39
49
63
16
23
36
12
38
51
18
49
70
17
36
65
10
38
62
10
58
74
20
28
36
13
40
37
17
60
60
23
43
49
15
28
28
12
55
50
21
96
70
26
62
56
16
47
69
12
61
80
19
37
59
19
28
47
17
13
18
5
40
44
14
61
72
25
38
55
18
57
54
26
26
25
13
4
3
1
31
39
18
50
57
24
25
41
8
17
36
11
19
31
17
12
26
12
5
8
3
61
66
34
43
51
19
37
47
20
18
31
6
53
63
29
44
54
26
44
51
29
18
21
7
55
56
32
19
17
5
3
6
2
1
2
1
4
5
2
6
9
5
16
24
10
12
22
4
49
76
16
47
66
15
43
49
26
24
30
8
59
72
24
55
78
24
37
57
21
0
2
1
4
9
2
21
37
15
1
2
1
0
2
2
0
2
1
25
41
15
0
3
0
1
2
1
1
2
1
1
2
1
1
2
1
0
1
2
1
2
1
6
12
6
0
1
1
0
0
1
1
1
0
45
43
29
16
23
10
14
25
12
54
52
26
100
88
46
16
17
5
1
1
1
1
1
1
2
4
2
6
8
5
9
12
7
11
19
6
30
50
21
14
26
11
6
7
2
3
3
2
13
16
10
15
19
9
14
20
10
15
19
10
32
46
19
24
39
14
13
19
12
20
33
17
36
60
21
29
44
18
16
17
6
35
38
20
33
38
20
3
3
0
4
8
2
25
35
17
23
30
16
33
36
17
40
41
20
42
38
16
41
48
22
27
37
16
29
43
15
31
40
18
20
30
17
27
36
18
21
30
12
28
38
21
3
5
2
1
2
1
20
22
15
4
4
2
9
10
6
29
30
15
29
42
17
17
30
11
22
36
16
2
3
1
2
2
1
10
11
6
7
9
5
17
20
12
21
23
14
14
16
7
32
30
19
29
25
15
14
15
9
15
23
11
51
61
30
76
67
32
109
77
38
60
52
25
31
39
23
32
42
23
54
58
26
16
19
6
58
53
30
11
14
3
34
38
25
29
34
22
19
29
14
34
45
19
45
48
22
37
39
17
24
29
14
27
32
18
30
35
21
18
23
11
9
10
6
46
45
19
14
19
6
29
39
20
25
33
16
43
51
23
51
59
18
108
87
53
109
82
54
133
95
70
146
100
79
161
110
89
133
92
69
122
85
69
130
89
78
116
77
64
109
80
70
70
57
39
146
109
86
102
76
53
173
127
99
90
74
48
130
98
70
170
122
93
106
88
63
64
65
39
97
89
63
123
92
63
142
98
72
115
89
64
60
50
33
1
1
1
40
58
27
11
19
8
0
0
1
6
5
3
17
14
11
1
0
0
76
55
41
140
94
72
103
74
55
108
78
55
119
86
61
162
101
73
121
76
54
146
95
68
123
85
57
92
71
52
130
100
74
62
62
40
22
22
9
94
70
41
47
45
18
16
30
8
23
52
21
33
59
21
30
48
13
45
56
22
21
19
8
11
13
8
1
1
1
22
23
14
32
30
16
46
43
24
44
43
20
57
55
23
53
50
21
22
27
11
31
36
16
36
37
18
30
33
16
33
53
18
26
53
16
30
41
23
9
14
6
22
26
10
34
38
21
25
44
16
45
68
19
56
47
15
79
61
24
14
18
5
38
37
22
4
3
1
64
59
26
57
54
20
32
37
12
68
54
26
85
68
36
21
25
8
29
42
20
35
63
19
27
50
17
5
16
4
1
2
1
1
1
1
1
1
1
36
40
18
68
72
36
43
49
22
8
31
4
28
69
21
9
29
5
26
39
19
22
33
11
15
24
14
1
1
1
10
12
5
37
44
22
50
62
17
50
68
14
36
47
16
1
2
1
26
28
16
65
56
30
60
53
28
21
26
18
2
3
1
22
33
17
36
44
18
58
63
30
49
54
30
45
42
24
56
52
32
19
22
6
26
45
16
23
54
17
1
7
1
1
2
2
21
23
13
15
26
7
32
55
19
8
16
4
23
32
18
29
48
16
30
52
10
71
74
17
75
85
20
52
59
20
30
56
14
33
71
11
57
64
24
68
64
25
37
42
15
28
30
17
42
44
26
33
55
17
13
54
8
20
59
11
32
49
13
38
69
16
20
39
9
18
27
13
28
54
15
85
84
32
47
74
19
62
77
19
117
109
42
49
71
14
92
102
58
100
104
68
39
61
12
34
55
19
40
44
22
15
22
4
40
56
21
35
61
14
34
52
16
48
72
21
26
50
11
23
23
9
36
47
14
30
59
12
25
38
10
69
49
20
89
69
22
50
60
16
20
41
7
33
54
18
43
61
17
56
75
20
29
37
11
35
32
21
23
25
4
67
67
25
60
58
25
84
64
37
121
91
54
37
35
13
33
35
14
55
67
22
45
58
23
30
43
23
18
37
18
28
48
18
64
76
35
82
86
44
66
76
21
73
83
25
20
30
5
3
7
1
6
9
3
7
12
3
42
58
26
1
3
0
22
29
18
27
26
15
26
25
16
2
6
1
44
60
23
19
29
8
48
72
21
58
80
22
27
39
7
66
83
27
42
56
18
29
48
18
21
38
14
1
2
1
1
3
1
27
38
17
16
17
13
1
2
1
1
1
1
27
36
15
0
1
0
1
1
1
1
1
1
1
1
1
0
1
1
1
1
1
1
1
1
0
1
1
1
1
1
0
0
0
1
1
1
1
2
0
12
17
9
6
11
4
36
32
17
56
43
24
24
23
11
1
2
1
3
4
3
3
4
2
1
1
0
0
2
1
2
2
1
6
13
4
14
23
14
20
26
9
33
34
15
9
9
3
21
22
14
4
7
2
2
3
1
12
22
9
7
16
5
21
33
16
14
19
11
30
49
24
11
24
7
1
2
1
4
7
2
33
47
19
27
35
15
0
1
0
1
2
1
14
17
8
30
32
17
28
26
13
37
31
20
25
31
13
28
38
16
11
16
3
25
28
15
2
3
1
8
16
4
30
41
22
31
38
18
21
25
15
2
3
1
12
15
7
21
27
16
16
19
9
39
39
22
32
47
21
18
29
11
17
27
13
7
9
4
27
27
13
21
22
10
5
6
2
12
13
7
18
19
10
26
30
19
18
19
8
44
41
20
51
46
22
14
17
7
62
62
47
38
44
12
96
69
24
60
48
16
42
45
22
36
40
19
60
57
31
47
47
22
73
63
27
45
45
21
18
19
8
16
18
7
43
44
19
48
49
20
33
37
17
35
43
17
40
52
25
21
28
9
40
47
24
20
25
7
5
6
4
52
47
27
23
25
11
33
43
20
44
54
25
50
54
25
53
58
28
72
57
42
93
71
53
110
80
57
119
87
68
103
73
55
102
75
60
115
83
73
110
78
70
104
71
58
112
77
62
52
47
34
84
68
48
83
63
42
149
106
82
103
80
53
150
108
82
156
114
88
129
108
81
62
64
35
99
90
59
83
69
42
125
93
65
150
110
82
63
51
32
12
11
6
43
61
26
1
4
0
0
1
0
19
10
5
36
26
18
4
3
1
87
70
45
102
72
47
143
103
79
152
102
76
121
80
56
100
71
56
82
57
44
145
87
66
178
113
85
106
79
58
132
99
81
50
49
34
33
40
16
86
78
35
51
65
16
34
63
19
18
49
18
21
52
20
26
63
18
43
66
28
68
60
42
78
70
46
15
11
5
29
29
15
22
22
8
37
36
23
30
30
14
34
35
16
26
29
13
14
16
6
43
45
25
37
35
17
21
21
13
15
31
10
19
42
13
13
18
10
10
13
6
21
31
17
2
5
1
4
20
2
31
62
22
25
27
7
73
61
23
37
45
17
4
5
0
2
2
1
58
58
22
36
43
11
37
50
15
19
19
6
52
46
27
56
55
32
24
34
16
22
50
14
18
39
12
1
2
1
36
39
16
35
37
16
2
4
1
31
40
20
33
53
22
15
27
8
20
38
14
22
56
15
14
38
9
16
26
12
5
11
3
10
17
9
2
3
2
38
39
16
63
59
23
53
56
20
45
67
17
15
26
8
3
3
1
49
46
19
73
66
31
56
52
22
16
20
9
6
7
4
17
26
13
26
39
18
31
41
19
31
39
21
48
46
27
83
65
41
39
38
27
4
8
1
16
34
13
12
27
8
2
2
1
14
17
8
27
43
17
25
41
16
1
2
1
1
2
1
4
8
0
67
65
22
92
84
22
52
77
10
71
75
24
58
79
20
53
83
17
50
78
19
37
68
19
21
35
12
2
5
2
5
7
1
47
62
23
15
54
6
24
65
16
4
18
2
36
68
17
24
50
12
6
15
2
73
76
34
103
97
37
42
72
19
22
49
10
33
69
16
63
76
25
36
49
17
75
95
69
40
51
32
24
34
15
62
65
27
68
72
32
40
55
19
32
54
14
42
50
14
70
79
19
50
80
15
50
65
19
29
43
8
41
77
15
42
58
10
106
77
34
118
88
31
53
52
17
8
17
4
30
44
19
15
27
8
22
36
9
24
40
19
12
15
5
35
42
19
42
63
20
42
68
20
98
80
37
115
95
42
36
44
14
35
47
19
46
72
24
33
62
25
19
36
17
32
37
13
99
90
51
78
72
37
33
35
14
32
48
13
55
70
19
42
70
22
32
60
11
37
52
20
37
48
23
42
59
22
11
20
4
23
32
18
4
6
2
2
3
1
14
28
5
41
61
19
1
4
0
38
61
14
51
73
17
43
61
16
56
80
23
12
21
6
7
13
5
8
12
7
19
31
14
1
3
2
21
35
15
1
2
1
16
20
13
3
4
2
3
5
3
1
2
1
0
2
1
1
1
1
1
2
1
6
6
3
1
1
0
1
0
1
1
1
1
1
1
1
0
0
0
1
0
0
1
1
1
15
17
8
30
28
17
3
3
2
17
25
9
31
44
22
1
3
1
7
7
4
22
21
14
2
2
2
8
11
7
9
13
6
6
9
3
7
14
5
28
40
15
44
50
22
34
35
21
31
36
18
28
34
20
53
44
24
32
38
18
13
23
10
22
35
18
5
11
3
15
25
10
18
26
12
2
3
1
28
30
22
30
40
15
31
38
14
4
7
2
14
22
11
10
17
8
8
12
5
19
22
13
19
20
11
27
32
14
26
35
13
29
34
14
40
37
19
21
20
9
10
12
5
17
18
10
18
21
9
18
22
10
3
4
1
32
37
23
3
4
1
35
31
19
34
29
16
12
14
5
15
20
10
24
19
12
20
17
8
38
39
21
44
47
26
38
37
22
45
45
21
36
37
21
24
26
15
38
38
22
37
40
19
70
64
28
43
50
27
25
29
14
43
52
20
90
72
21
60
56
16
21
28
9
22
25
12
7
8
2
47
52
30
44
49
19
45
49
19
68
58
27
64
48
17
80
63
24
56
48
20
23
27
13
31
39
16
51
51
27
50
44
22
51
54
19
49
57
21
25
35
15
26
39
14
16
24
9
24
31
11
42
53
19
49
60
22
27
43
13
48
52
28
82
66
41
163
112
82
128
85
65
170
110
85
91
65
45
70
56
40
91
74
57
108
81
63
114
85
66
48
47
34
95
79
59
100
84
60
128
98
72
102
79
50
170
117
86
200
136
103
114
84
59
40
47
19
85
79
55
56
48
36
106
79
64
125
90
70
62
48
29
2
2
0
35
48
26
0
1
0
0
0
0
39
28
18
19
11
5
2
5
1
49
46
27
74
61
41
74
57
42
80
60
43
108
85
62
71
61
38
106
90
63
166
114
80
167
115
78
95
79
50
108
94
68
60
66
39
40
60
25
53
68
21
36
56
15
22
46
16
22
53
20
24
49
22
17
45
13
20
51
18
22
28
13
46
43
25
86
77
48
19
18
8
13
14
7
16
17
7
26
24
15
26
28
16
32
37
19
15
18
6
21
26
14
20
22
13
3
3
2
4
6
3
5
10
3
14
17
9
48
51
28
28
37
17
24
29
16
3
7
1
19
44
13
22
40
14
50
67
21
31
45
15
3
5
2
1
2
0
50
51
19
32
33
16
29
40
15
38
29
15
71
56
33
42
40
19
1
3
0
16
34
11
23
38
14
49
52
21
71
66
23
35
32
10
32
35
24
55
49
23
44
62
23
28
45
18
10
22
7
13
34
10
27
56
22
5
8
1
1
4
1
13
23
12
32
24
10
86
73
39
77
70
28
21
32
6
35
63
19
3
10
1
39
35
11
58
56
22
65
62
26
56
60
24
12
18
5
12
13
9
7
9
5
15
18
7
35
38
23
16
18
8
32
24
12
82
57
37
4
2
1
2
2
3
2
3
1
14
21
11
2
2
2
2
6
1
26
53
16
11
24
6
1
3
1
16
29
11
19
31
14
58
59
20
78
83
19
58
83
8
152
115
54
76
80
23
59
75
16
51
73
19
27
53
13
28
40
15
40
50
27
41
49
15
47
58
20
20
54
11
24
62
14
1
12
0
34
65
19
23
53
14
4
13
3
27
42
14
56
84
21
37
64
19
19
42
8
64
81
25
68
70
22
38
51
18
53
78
39
43
61
37
26
45
19
18
31
10
40
56
21
59
63
15
106
93
38
87
75
28
86
76
23
86
95
23
67
81
18
150
134
85
96
97
44
59
57
14
101
69
21
123
92
35
50
50
16
27
37
16
59
61
30
76
68
32
47
39
19
3
4
1
11
26
9
30
45
16
39
67
22
35
69
14
34
44
12
82
95
44
61
79
30
43
61
24
36
66
23
13
31
7
36
42
16
94
78
38
57
45
22
39
47
21
41
45
18
41
50
16
46
56
18
18
31
7
31
53
12
35
60
16
29
49
15
50
72
22
41
53
20
47
49
18
41
38
15
42
44
20
31
52
14
30
56
14
11
22
7
35
56
16
32
50
11
74
88
22
109
100
45
88
77
38
61
54
26
42
32
8
8
15
5
1
4
0
33
53
20
0
2
0
23
35
17
2
6
2
0
2
1
0
2
1
9
16
8
7
15
6
0
1
1
1
1
0
1
1
1
1
1
1
1
1
2
1
1
1
1
1
1
10
15
9
1
2
1
1
4
1
29
27
20
11
9
5
31
37
18
16
25
9
2
2
1
1
1
0
13
14
8
11
13
7
11
18
9
11
15
8
28
37
17
40
63
22
19
33
13
3
6
2
4
4
2
8
12
4
11
11
3
89
71
39
44
52
19
17
31
12
10
18
9
16
25
11
27
41
18
23
34
15
1
1
0
15
16
8
47
45
19
73
59
31
23
24
13
10
8
2
77
62
32
12
12
2
24
29
17
28
33
18
47
49
21
46
48
21
43
39
20
51
40
21
45
42
21
29
31
14
32
31
16
22
25
13
23
28
14
10
11
7
1
1
1
11
15
6
49
45
25
28
21
10
17
16
8
8
8
4
39
32
17
32
29
13
46
45
24
27
29
14
12
12
5
33
35
16
35
39
24
17
18
10
41
42
25
43
43
20
85
70
26
60
48
20
65
59
38
62
56
21
94
71
24
62
58
18
38
49
15
35
42
20
37
39
15
37
39
13
68
65
21
58
61
19
35
29
6
81
69
27
54
55
19
51
54
22
40
45
17
57
55
20
32
32
14
19
17
7
27
29
10
41
51
23
26
42
19
30
43
16
22
31
12
46
59
27
29
45
13
29
45
15
19
34
8
81
66
40
164
111
85
163
107
85
155
99
75
160
95
67
165
109
87
124
89
74
106
79
63
104
80
63
93
75
57
81
63
48
113
86
64
37
37
20
59
53
36
95
76
53
163
112
84
172
118
92
168
120
101
59
55
35
82
80
55
71
61
45
63
52
39
104
85
70
86
66
44
9
7
2
30
41
27
0
0
0
2
1
1
20
16
11
1
1
1
4
2
1
97
72
56
122
85
65
128
86
68
155
108
89
98
78
56
51
49
33
74
68
45
155
107
82
170
111
79
143
110
85
94
77
53
64
60
38
13
16
6
49
47
28
21
28
9
15
33
10
17
53
18
25
51
21
17
41
12
31
47
18
50
52
26
14
18
10
28
23
12
79
64
43
10
10
4
12
12
5
26
26
14
12
15
7
30
32
17
48
52
27
9
12
3
25
27
15
3
3
2
9
16
9
12
26
10
21
28
15
51
60
28
23
38
11
2
3
1
4
5
1
5
12
3
7
17
3
55
77
24
38
41
20
7
7
2
1
2
1
28
28
12
39
35
20
15
20
5
39
28
10
65
50
22
52
53
26
8
11
2
6
11
2
32
49
18
40
58
17
50
66
23
20
28
9
46
48
26
82
61
28
59
67
20
41
51
20
7
20
4
26
43
22
20
36
14
29
35
18
4
5
2
19
22
13
56
45
27
34
26
11
43
56
23
25
40
16
31
51
15
25
28
10
57
55
25
16
16
3
51
48
21
58
59
26
15
19
8
3
4
1
4
5
3
38
35
19
22
24
10
8
8
2
21
14
5
61
52
29
23
28
14
2
2
1
1
1
1
2
3
1
9
14
7
27
38
14
36
54
15
30
50
21
32
51
21
24
40
16
20
33
15
19
35
9
38
67
14
50
81
12
51
65
18
32
59
16
44
69
20
35
66
12
35
64
18
32
43
19
12
22
5
38
49
19
26
36
12
25
57
16
24
57
15
19
36
5
40
65
22
20
46
17
6
16
4
24
50
16
40
72
19
18
36
6
20
47
12
22
45
8
45
67
20
45
66
14
43
70
16
27
54
16
18
48
9
36
60
14
60
73
25
91
85
30
74
80
24
57
73
24
62
65
28
81
82
23
41
62
17
72
64
38
164
136
81
109
79
30
110
80
23
90
82
29
42
55
21
23
39
18
5
10
4
20
24
6
58
64
29
48
56
23
17
36
11
22
44
18
33
67
18
44
80
17
64
84
32
90
101
51
24
39
10
14
30
9
31
55
19
65
74
33
99
86
37
77
68
26
31
42
20
42
55
22
26
32
16
33
46
12
46
61
18
22
33
12
30
44
24
28
45
15
44
56
14
63
77
20
30
36
5
49
52
21
34
36
10
12
20
1
57
78
21
31
60
11
18
42
10
20
35
11
22
38
11
47
66
15
72
83
27
51
60
19
55
47
18
124
100
49
4
9
4
4
10
3
33
55
20
0
4
0
26
38
19
2
6
1
1
2
1
1
2
1
1
1
0
1
1
1
0
1
1
0
1
1
1
1
1
0
0
0
1
1
1
1
1
0
0
1
1
1
2
1
1
1
1
1
1
1
3
4
3
2
4
1
43
50
27
18
24
13
14
17
10
11
11
8
2
3
1
2
3
1
7
13
6
0
0
0
1
2
1
21
40
11
40
68
26
3
9
2
5
6
2
31
34
21
8
11
6
13
15
5
14
21
8
3
9
2
30
44
24
14
18
9
18
25
12
17
28
14
16
18
13
25
31
17
31
36
15
52
45
25
17
18
9
3
3
0
71
65
27
24
29
12
3
4
1
3
5
2
18
23
11
29
31
16
42
42
17
39
42
16
34
37
16
22
27
15
15
16
8
2
2
1
8
10
5
3
4
2
1
2
1
31
35
17
27
30
14
1
2
0
13
14
9
13
15
7
25
26
13
26
27
15
30
25
12
24
25
15
28
34
17
25
33
9
33
39
18
35
37
20
19
19
10
8
9
2
32
25
8
58
48
25
25
24
11
59
56
27
61
52
20
54
56
23
39
42
22
27
30
11
51
56
22
33
37
12
63
58
22
74
70
17
56
56
15
44
50
23
48
51
29
36
34
15
65
58
21
76
71
19
50
49
18
22
23
13
19
24
12
30
42
22
27
41
19
8
17
5
16
23
10
12
19
5
18
29
10
27
43
15
66
63
34
137
93
71
172
103
79
164
106
85
175
107
81
147
98
75
140
93
74
127
85
69
130
96
80
119
84
68
127
90
74
43
32
22
105
84
69
46
42
28
84
65
53
81
64
47
136
99
77
103
75
57
127
94
77
47
50
26
63
60
39
98
79
62
91
72
56
71
56
41
71
62
41
7
14
5
11
20
9
1
1
0
1
1
1
1
1
1
1
2
2
2
2
1
66
54
40
107
78
47
120
81
50
170
107
85
73
57
41
64
53
40
75
58
44
130
86
70
145
92
69
104
90
65
64
65
38
85
78
55
34
43
19
77
76
46
28
36
16
18
40
13
13
48
12
26
55
22
29
67
26
51
52
22
42
38
16
8
12
4
1
1
1
18
14
6
23
28
15
20
29
12
26
35
17
36
45
26
10
12
5
22
26
14
11
14
4
49
48
24
8
7
3
2
9
2
19
42
15
9
17
5
24
38
19
25
43
16
46
39
31
46
50
31
15
19
5
16
28
4
57
78
20
42
35
16
44
37
18
28
22
12
60
41
21
41
32
12
51
48
19
86
62
28
72
54
23
65
63
21
63
60
24
47
54
16
53
73
25
51
57
18
62
76
19
56
63
28
10
11
2
56
38
19
63
54
24
49
43
17
36
50
24
10
30
6
2
7
2
18
24
14
27
25
15
56
41
25
26
22
13
3
7
2
31
48
18
10
25
9
37
45
19
39
40
20
14
23
10
15
20
5
69
70
28
54
53
18
2
2
1
1
2
2
2
2
1
22
22
10
54
54
35
19
17
6
74
50
32
81
58
28
75
65
25
55
46
20
52
46
24
45
45
30
8
13
5
37
51
19
42
51
21
25
39
15
13
23
8
3
7
1
16
26
12
23
45
11
58
81
16
54
82
11
74
83
32
62
73
31
52
77
21
43
69
13
38
50
14
34
37
22
51
65
29
52
69
23
21
26
8
26
50
20
24
47
16
42
65
19
38
62
16
18
39
13
4
14
2
22
42
15
42
70
21
31
49
18
25
53
13
22
43
9
57
71
22
61
71
19
27
40
7
15
36
14
17
44
14
51
76
28
64
85
29
18
54
9
23
59
11
27
50
12
8
13
1
21
32
6
54
62
24
89
80
34
67
55
25
81
70
38
103
84
35
77
74
30
24
33
9
18
35
14
14
26
11
23
25
6
92
88
43
98
94
49
87
87
46
40
54
22
32
66
16
35
71
15
27
62
9
45
66
22
39
58
24
25
42
17
10
26
10
17
22
3
66
60
18
77
82
27
45
55
19
44
61
22
42
52
17
72
80
30
58
60
21
46
48
22
63
72
35
53
60
23
71
73
20
58
64
10
63
65
20
55
51
16
54
48
13
60
66
13
62
77
20
23
50
13
17
46
11
4
20
2
24
46
14
24
41
11
74
86
23
63
76
27
5
14
3
16
29
12
12
21
10
18
28
14
28
50
20
4
15
1
24
39
19
8
22
6
8
18
7
0
2
1
1
1
1
1
2
1
1
2
1
7
9
6
4
4
2
1
1
1
6
5
3
1
1
1
1
1
1
1
1
1
3
3
2
23
19
13
20
18
11
1
2
1
10
12
7
8
10
6
16
20
13
8
9
6
32
29
14
12
15
5
8
14
6
0
3
1
1
3
1
1
4
1
28
48
17
46
65
29
41
35
20
50
38
22
5
4
2
1
1
1
17
23
9
1
2
1
18
38
13
17
29
10
4
13
3
19
33
17
0
0
0
2
4
2
4
4
1
68
51
30
41
30
17
9
9
5
49
54
31
8
16
2
21
24
17
6
8
3
36
40
21
26
26
11
36
40
19
39
34
11
59
50
21
24
26
8
8
7
3
7
8
2
29
32
18
15
18
13
1
1
0
53
54
25
9
12
2
1
1
1
20
21
14
11
14
6
15
17
8
3
3
1
3
5
1
22
33
12
38
60
24
35
51
19
34
31
14
51
42
22
33
31
16
38
38
20
42
41
21
34
32
15
26
30
19
38
45
24
31
32
16
47
48
23
47
44
20
33
37
13
34
46
13
52
59
25
67
56
21
81
69
17
65
61
19
36
41
19
40
42
22
56
53
27
53
48
14
82
77
17
66
61
17
38
41
16
44
54
26
8
14
4
9
16
7
20
30
13
29
41
19
32
45
17
31
44
18
29
46
18
52
52
20
127
89
66
181
112
90
134
85
68
167
106
83
153
99
76
122
86
68
105
76
59
105
81
66
110
80
65
101
72
58
16
13
5
88
75
60
57
52
34
97
78
60
67
57
37
86
73
51
70
58
44
119
92
80
55
57
38
33
35
23
66
58
47
85
70
61
70
58
48
43
39
25
15
23
12
6
11
4
1
1
1
1
1
1
1
1
1
12
12
8
2
3
0
27
31
16
99
85
46
101
79
40
176
113
85
113
84
62
60
58
33
66
60
36
109
85
68
94
70
50
117
92
66
90
71
53
73
67
53
72
69
37
102
86
61
31
24
16
15
26
13
6
31
6
17
43
18
18
52
19
60
63
20
66
56
22
25
28
8
1
2
1
0
1
1
2
3
1
1
1
1
9
5
2
58
43
29
5
3
1
7
10
5
8
13
7
15
37
12
1
2
1
2
4
1
12
26
11
1
3
0
2
6
2
21
42
16
7
5
3
24
29
15
17
21
10
20
35
8
57
76
24
37
32
14
35
36
15
22
21
10
24
23
13
23
33
13
24
31
10
38
30
17
23
23
5
63
62
19
47
53
15
54
69
26
80
63
28
76
69
19
43
62
20
13
23
5
3
4
1
32
28
15
47
46
21
28
37
17
22
32
15
15
15
4
13
13
4
8
11
3
12
12
5
15
11
4
22
41
15
27
47
19
19
29
12
20
50
15
13
34
8
11
15
5
36
47
25
32
40
21
44
57
22
38
53
14
2
3
1
1
2
2
3
3
0
40
37
24
33
34
19
5
5
1
32
27
15
35
28
9
101
73
30
68
55
22
14
12
3
5
6
3
2
3
1
35
49
21
38
32
14
90
73
40
70
64
36
34
42
19
23
37
15
53
60
19
94
93
28
55
81
9
64
77
22
58
69
24
82
85
30
85
88
26
68
73
27
28
29
16
26
44
14
32
50
14
41
57
23
32
61
17
29
56
16
22
47
14
15
39
9
18
34
15
24
39
14
38
61
21
32
53
23
8
22
5
33
59
19
60
69
25
72
68
22
41
44
16
21
47
14
24
46
19
31
46
21
58
76
34
60
80
30
35
44
9
52
60
22
35
54
22
4
8
3
23
25
8
72
64
28
63
62
29
8
9
2
71
66
28
75
69
33
39
57
21
28
47
18
37
58
21
69
72
26
124
107
52
89
80
35
13
21
3
11
23
10
9
23
5
69
77
36
34
55
16
24
49
16
27
44
18
18
35
15
15
32
11
41
59
26
47
58
22
59
65
31
77
80
27
52
60
21
50
73
18
62
82
26
56
71
26
35
42
13
41
55
21
20
35
12
19
23
6
46
44
13
48
50
15
45
45
13
55
50
18
58
56
12
84
94
19
39
49
7
25
40
7
27
45
8
14
33
9
14
29
8
1
4
0
33
49
17
26
54
12
20
48
12
18
37
13
12
17
8
15
22
11
25
39
18
5
14
2
28
48
19
12
29
5
6
12
5
0
1
0
1
2
1
1
2
2
1
2
2
1
2
1
4
8
3
1
2
1
31
25
14
3
3
1
0
1
1
0
1
1
12
11
6
6
6
3
0
2
0
0
1
0
11
4
1
3
3
1
10
16
7
29
35
20
48
45
22
26
31
14
11
19
8
1
3
2
12
17
9
8
13
6
20
22
13
26
40
17
49
57
24
44
36
15
19
18
9
0
1
0
45
58
25
0
3
1
19
34
11
39
53
24
37
46
21
18
29
14
0
2
0
9
14
8
2
5
2
25
21
7
51
43
23
15
13
6
21
31
11
25
35
16
1
2
1
17
21
11
14
16
6
27
31
14
37
46
23
56
46
24
47
40
13
43
47
22
45
39
19
36
36
13
48
50
25
6
5
4
22
14
10
52
43
21
5
7
3
0
0
0
3
4
2
6
10
4
5
7
3
1
2
0
19
25
14
41
56
21
42
53
21
16
15
5
38
37
23
20
20
9
3
4
1
28
30
17
32
39
18
52
57
23
43
50
19
48
51
24
51
47
29
28
24
10
54
41
23
53
48
21
40
45
17
18
23
10
7
7
2
40
37
11
57
54
20
48
53
26
33
39
17
43
44
18
31
29
8
62
64
20
70
67
14
53
57
20
26
36
14
5
8
2
15
25
9
47
60
31
22
30
10
45
59
23
35
47
18
25
32
13
40
46
19
70
57
30
150
94
75
177
111
88
144
92
77
141
95
88
128
88
81
73
54
43
68
52
40
103
75
64
89
74
62
18
14
6
92
78
60
49
49
29
80
62
48
70
59
43
63
57
38
91
72
59
115
84
74
83
67
55
68
62
42
59
49
41
60
51
46
49
45
37
23
22
13
23
27
17
2
3
1
2
2
1
1
2
2
3
4
2
2
3
1
20
23
7
58
57
29
71
72
28
77
70
26
164
109
83
122
84
71
22
25
9
42
50
23
77
74
48
72
71
42
102
91
51
61
54
27
33
45
26
33
50
21
43
48
24
12
11
4
16
29
11
25
41
18
15
33
16
19
38
20
27
38
14
46
50
18
16
20
4
3
3
2
1
1
1
5
5
3
1
1
1
19
9
4
105
74
48
76
56
38
18
15
8
2
5
1
19
42
13
2
7
0
23
32
20
9
17
8
3
5
2
0
4
0
24
46
15
31
26
19
17
22
12
1
2
1
22
42
8
51
66
21
36
37
18
22
30
10
53
44
20
29
25
9
31
47
16
14
26
5
27
23
17
25
27
14
32
36
10
69
82
22
62
69
25
36
30
8
73
79
21
46
63
19
36
47
26
3
4
2
30
27
13
50
46
20
37
48
19
40
40
16
57
49
27
35
34
15
41
48
26
32
45
23
25
32
14
18
37
11
20
47
13
4
10
0
21
48
16
7
15
1
71
73
36
16
24
6
51
49
23
58
65
28
36
58
16
1
4
0
1
2
1
2
2
1
31
25
18
6
5
2
1
2
0
36
31
10
85
75
33
58
50
17
66
67
26
23
28
7
22
31
18
15
18
5
76
61
29
86
66
37
57
67
28
25
44
19
25
40
17
30
38
8
70
83
28
28
53
9
40
78
10
42
65
13
28
59
13
25
43
13
49
75
22
43
66
17
19
23
5
42
52
16
70
72
33
65
67
29
71
86
35
45
70
16
35
65
19
20
47
13
33
47
17
40
56
23
17
32
9
33
52
21
12
26
4
27
55
16
27
47
10
44
66
19
33
54
16
23
56
17
8
26
7
3
8
2
7
16
4
32
51
26
11
16
2
26
37
9
35
56
21
14
11
2
68
55
30
55
53
26
12
15
4
2
4
1
61
66
23
49
54
18
42
54
20
74
69
30
97
83
38
95
86
40
32
48
14
27
52
20
18
36
16
10
23
6
62
63
27
117
107
58
13
25
5
7
17
4
11
18
8
13
31
11
14
29
10
54
64
26
69
80
26
18
39
9
45
60
32
12
27
4
52
79
23
49
71
21
48
65
25
57
62
24
52
64
22
43
54
17
56
60
22
44
47
15
40
45
17
41
40
13
69
67
22
69
75
18
52
66
15
9
22
2
57
76
15
59
80
17
26
45
15
18
24
9
8
17
3
32
61
17
32
64
12
19
44
10
14
26
10
34
31
11
24
30
14
1
2
1
0
1
1
29
52
16
23
44
10
0
2
1
1
1
1
0
2
1
2
4
2
1
3
2
1
3
1
7
13
6
2
3
1
62
61
31
12
19
7
0
2
1
0
1
1
0
2
0
1
1
1
1
1
1
2
1
0
118
85
47
46
31
15
21
26
15
17
23
10
33
29
16
10
10
4
2
3
2
2
3
2
7
15
5
10
17
8
12
13
8
4
6
2
33
41
17
22
29
14
1
1
1
4
8
2
36
51
20
1
5
1
7
22
6
17
41
13
15
32
11
7
19
6
1
2
0
4
10
4
11
18
11
8
15
7
41
38
21
35
27
12
14
24
6
30
43
20
1
2
1
1
2
1
3
4
2
6
8
4
22
27
13
34
29
15
33
32
16
33
36
21
34
30
14
61
52
28
43
48
19
37
43
19
48
40
21
48
41
22
1
2
1
0
0
0
5
7
4
15
22
11
18
23
12
3
4
1
27
30
13
59
63
22
50
50
19
53
56
23
43
46
18
35
38
19
14
16
8
3
4
1
22
29
12
30
39
14
46
53
26
39
42
19
43
46
25
26
27
10
30
34
18
19
18
5
27
33
14
29
38
17
31
38
17
13
15
3
52
51
26
23
27
12
38
44
19
62
55
21
63
58
21
46
52
17
54
47
15
60
51
19
35
41
18
28
36
20
21
30
16
15
24
7
18
25
11
34
46
20
29
40
18
30
35
13
57
59
27
59
55
25
128
92
68
124
85
66
162
111
91
156
108
89
132
98
80
97
78
58
110
84
68
147
106
90
70
54
40
12
15
3
56
58
33
23
24
15
50
47
34
49
48
30
66
57
41
89
69
57
98
80
73
91
75
66
65
74
35
47
44
33
42
34
31
49
46
34
62
52
26
20
20
7
1
3
2
1
2
1
2
3
1
21
17
11
30
33
18
27
47
18
29
43
13
45
62
17
55
71
17
113
86
52
124
88
65
24
27
11
43
55
24
87
81
59
55
59
32
103
97
62
35
35
16
14
24
8
12
27
7
33
39
17
37
35
22
11
22
6
22
35
16
15
32
12
45
63
33
52
72
35
21
45
15
1
5
1
8
10
5
2
2
1
1
1
2
1
1
1
1
1
1
8
4
2
12
6
2
32
28
19
1
3
0
25
46
14
42
51
27
31
41
19
14
23
13
8
14
8
0
3
0
26
42
18
24
18
11
26
30
18
1
4
1
29
46
10
57
59
21
25
29
11
26
32
13
35
30
14
27
26
13
28
36
12
36
38
18
28
24
14
4
11
2
36
67
16
69
95
22
17
25
3
5
13
1
37
66
20
56
78
21
35
48
18
13
14
8
28
28
17
37
42
19
28
44
17
27
41
17
8
10
3
2
3
2
2
4
2
14
25
8
38
53
24
13
22
6
23
48
16
80
80
50
105
93
67
44
50
22
64
69
26
9
14
4
74
72
30
28
39
6
31
51
19
4
8
2
3
3
0
27
29
17
18
18
9
27
28
20
39
35
13
84
75
32
69
64
30
6
7
2
58
58
18
60
65
20
39
47
17
60
63
24
60
63
20
4
8
1
19
35
13
12
27
8
19
29
9
62
66
26
59
79
21
50
74
19
46
77
10
36
59
12
26
58
20
26
51
21
36
69
16
46
69
16
58
68
29
72
80
27
82
85
28
92
90
29
86
85
32
63
72
29
21
44
13
22
52
14
25
49
11
37
55
16
98
93
47
65
81
25
103
101
47
79
82
37
38
60
18
63
72
22
52
68
22
17
47
11
2
8
2
0
3
1
20
34
14
11
19
8
11
18
6
22
44
10
45
67
23
68
61
30
26
22
7
29
31
15
9
13
4
25
24
8
66
76
38
17
23
5
34
43
17
92
84
39
75
64
24
53
64
23
38
54
14
29
47
10
33
53
19
19
37
11
108
95
46
79
71
34
17
37
12
4
12
3
1
1
1
19
34
16
2
8
1
34
48
19
27
43
10
6
16
4
4
7
2
24
41
20
16
37
11
15
31
7
35
52
21
32
38
15
41
51
17
58
68
23
27
32
7
26
32
7
53
60
20
46
51
19
36
43
9
46
62
15
20
32
6
21
43
9
41
71
13
27
45
5
27
39
13
32
32
17
40
39
26
15
32
8
13
30
6
1
6
1
23
34
17
65
55
23
16
23
8
5
12
5
13
20
11
19
39
12
17
36
10
0
2
1
1
2
1
3
6
3
28
33
22
3
4
1
2
2
1
1
2
1
3
4
1
57
60
24
4
10
3
11
20
10
11
17
8
0
1
1
7
9
6
4
5
3
19
16
10
106
69
36
56
34
16
3
6
2
5
6
4
10
11
7
28
26
18
6
5
2
4
6
3
13
21
12
6
11
4
7
7
5
1
1
1
5
6
3
21
25
16
7
10
5
16
24
13
24
36
15
5
9
4
4
13
4
9
26
8
8
20
7
3
9
3
3
7
2
9
17
7
1
0
0
15
14
7
8
6
2
75
64
29
19
26
8
28
40
24
0
1
1
1
1
1
10
18
7
1
1
1
23
28
18
5
6
2
42
43
24
10
12
5
2
2
1
9
11
3
32
42
17
41
55
17
37
37
18
23
27
14
18
19
10
1
2
1
2
4
2
12
17
11
20
28
15
19
29
14
34
39
19
49
44
23
54
42
24
44
47
18
55
58
26
56
51
23
30
30
15
13
15
6
30
40
18
52
61
26
34
36
16
57
63
31
34
41
16
21
24
11
38
43
21
29
35
17
31
38
21
14
20
8
28
36
14
41
44
18
36
36
17
34
39
15
23
30
15
22
27
14
15
19
8
24
34
17
30
30
15
40
38
15
27
29
13
1
2
0
23
25
14
32
34
19
14
22
7
34
47
19
49
58
23
41
51
21
78
79
34
65
61
25
101
81
53
140
103
90
138
96
85
147
97
84
131
93
74
105
85
64
125
91
75
113
79
66
88
71
55
18
27
10
51
58
21
59
49
34
27
25
17
55
55
34
52
43
29
122
94
83
79
62
53
74
68
52
45
75
22
47
53
35
26
23
18
38
37
20
76
63
29
16
13
3
2
2
1
3
5
1
13
15
9
2
2
1
20
31
11
24
54
15
32
65
23
28
53
12
52
71
23
151
99
72
142
90
71
31
32
17
34
46
18
98
80
67
78
71
39
61
68
33
14
23
5
41
49
28
34
59
22
21
43
15
8
11
4
21
28
17
17
27
12
41
66
26
64
92
43
37
55
18
15
33
11
1
3
1
26
34
16
8
13
3
1
1
1
0
0
1
0
0
0
0
1
0
1
1
1
0
0
0
0
2
0
32
46
17
36
44
22
17
25
11
16
24
13
2
3
1
6
11
3
3
6
2
31
27
20
28
31
20
2
6
0
34
46
21
57
48
21
39
40
15
29
31
11
18
26
8
14
20
6
16
24
7
39
43
24
14
15
3
16
41
6
45
81
18
57
83
25
5
11
2
3
14
2
33
57
20
34
53
16
35
57
20
5
6
3
3
3
1
43
47
20
21
29
8
26
48
19
16
27
14
2
4
1
3
5
2
29
40
15
43
60
24
32
28
12
30
43
18
47
60
32
109
102
70
70
69
43
89
85
37
79
74
37
60
68
31
14
33
7
14
31
9
11
15
7
31
32
18
24
26
12
21
22
13
3
4
1
54
63
30
63
66
31
19
18
7
5
7
4
26
32
7
76
84
24
56
66
20
27
45
10
44
64
19
6
8
1
16
23
10
18
29
7
38
57
21
43
56
20
62
71
20
69
73
13
47
65
6
70
66
20
40
42
16
16
33
7
38
72
20
40
71
13
39
62
20
22
34
10
17
32
7
21
37
10
5
11
1
21
35
13
6
20
4
21
30
7
85
84
38
83
83
39
65
72
33
30
57
9
70
77
29
19
28
4
27
57
14
26
52
10
11
34
6
16
43
12
10
22
9
2
4
1
29
46
18
21
18
4
104
80
39
76
67
27
37
57
19
36
40
15
50
43
21
47
43
21
91
76
39
77
68
37
51
53
28
54
54
32
65
64
28
45
47
20
11
13
4
38
44
15
49
60
20
57
67
25
59
69
35
36
40
11
121
108
56
19
19
5
11
31
7
15
32
11
0
1
0
13
22
11
15
23
11
24
38
19
19
37
14
28
49
22
3
8
1
24
30
12
66
67
28
79
80
33
53
58
21
28
37
14
38
54
21
34
46
12
55
68
22
41
53
14
73
78
27
27
29
10
9
19
5
15
29
9
30
45
11
46
71
16
46
67
20
55
67
23
48
59
24
6
11
2
2
9
1
35
57
19
32
52
17
30
45
19
10
19
7
26
25
11
4
4
1
1
1
1
1
1
1
17
35
12
16
33
11
14
22
10
1
2
1
4
6
3
16
20
12
5
8
2
32
41
24
5
7
3
4
5
2
30
33
18
5
8
3
30
31
18
34
36
18
7
8
3
10
12
8
3
3
2
3
5
2
52
35
15
89
60
29
7
8
4
5
6
4
13
19
7
17
26
12
2
4
1
1
3
1
13
22
13
6
8
5
15
16
10
4
4
2
15
20
11
19
26
14
13
16
7
3
5
2
33
42
21
21
29
15
1
2
1
4
7
3
1
2
1
0
1
1
1
1
1
0
0
0
5
6
3
20
20
13
2
3
1
39
60
19
19
37
9
18
35
14
2
3
1
2
5
1
30
44
22
5
11
3
20
29
16
1
2
1
44
44
20
42
36
21
22
23
11
28
29
14
35
35
15
37
42
19
35
32
20
8
6
3
46
40
24
32
33
22
2
5
1
1
3
1
5
7
3
2
4
1
2
3
1
2
2
1
21
17
8
45
43
22
36
35
13
45
38
22
23
23
11
38
39
23
24
30
15
42
50
19
10
11
2
31
36
19
21
27
10
21
25
13
8
10
5
2
3
1
13
16
7
5
8
2
21
30
11
32
37
18
21
21
8
37
38
17
37
39
19
3
4
1
3
4
2
5
6
3
4
5
2
15
22
11
17
27
14
4
6
2
51
54
32
47
53
30
29
40
18
22
34
10
43
54
22
18
27
7
36
45
18
120
90
59
106
82
58
130
95
79
93
73
52
107
82
65
71
50
40
52
40
25
97
74
60
121
82
69
90
66
51
16
22
8
43
52
21
48
41
29
27
25
17
40
45
25
54
56
33
84
71
49
96
79
64
102
83
68
41
67
22
35
34
24
57
52
42
28
31
16
57
55
24
20
22
4
2
2
2
1
1
1
1
2
1
1
2
1
34
48
18
38
59
23
17
35
9
38
62
22
27
31
8
172
114
91
150
102
77
53
63
30
26
41
17
35
34
25
77
69
40
43
59
23
17
24
8
46
40
34
72
66
46
17
20
6
2
3
1
1
3
0
18
41
15
35
70
26
19
38
11
59
42
17
63
42
24
6
3
0
36
46
23
5
13
1
1
2
1
1
1
1
0
1
0
0
0
1
23
21
13
35
31
17
23
28
15
37
54
17
44
53
25
15
23
10
10
15
8
8
14
6
45
59
22
14
22
3
73
67
58
3
2
0
2
11
1
39
53
18
104
73
39
168
128
89
75
65
26
68
72
27
67
63
26
65
61
32
81
74
46
79
76
42
49
80
21
23
51
9
47
77
28
32
36
15
44
60
21
50
65
18
51
48
23
60
79
31
84
62
37
46
33
22
41
45
19
38
50
19
36
55
22
39
47
21
18
15
3
32
35
14
53
64
24
58
73
24
63
54
24
89
82
49
67
70
46
77
97
48
89
97
43
56
53
22
47
55
26
34
50
19
31
52
24
27
43
17
26
27
14
40
30
20
26
23
13
20
21
14
14
23
8
32
50
23
45
46
24
58
48
24
61
55
27
61
58
24
86
83
20
76
76
17
45
51
11
82
82
27
87
71
42
88
79
43
82
83
28
93
94
32
67
72
25
89
79
30
70
68
12
45
60
8
64
57
18
109
76
29
85
64
17
37
66
13
41
68
19
22
38
12
21
36
13
16
30
12
11
21
9
12
25
11
17
37
11
50
58
22
86
93
39
43
54
13
11
19
3
16
29
12
24
54
16
20
34
10
14
34
10
18
46
12
20
46
12
11
24
6
9
20
8
21
33
19
0
4
0
25
43
18
61
64
28
88
77
27
100
84
41
65
59
20
28
24
7
52
37
19
61
48
21
77
71
34
50
49
21
19
24
9
43
45
18
60
60
28
17
26
11
29
37
18
23
27
7
45
55
22
16
22
10
33
35
20
60
64
30
67
74
33
2
6
1
13
36
11
11
29
8
0
1
0
21
30
13
8
15
3
5
9
1
41
53
22
60
63
28
65
63
30
50
55
25
53
59
24
40
53
19
21
30
8
21
33
9
38
53
20
46
56
24
35
46
16
27
37
8
36
41
14
1
1
1
3
8
2
9
15
7
42
59
17
26
40
7
7
12
1
26
36
10
36
48
19
29
42
20
14
26
9
49
69
19
71
89
27
9
20
2
5
8
3
33
29
14
19
17
7
1
2
1
10
12
8
15
29
11
10
22
6
32
43
23
32
41
22
18
23
13
15
21
13
18
26
14
23
30
17
22
27
17
3
4
2
1
2
1
2
1
1
49
43
24
61
53
23
13
11
4
1
1
0
3
4
2
4
6
3
48
36
14
89
62
29
3
3
1
1
2
1
27
34
14
33
42
17
35
35
18
58
45
28
19
14
6
2
2
1
47
43
24
34
31
16
9
10
5
14
17
10
36
37
22
32
33
16
38
42
22
14
27
10
1
2
1
1
1
1
1
1
1
1
1
1
1
2
1
1
1
1
0
1
1
1
1
1
0
1
0
20
44
12
26
47
19
24
45
15
11
17
8
7
14
5
19
32
17
22
34
17
12
22
9
5
13
3
37
45
20
6
5
2
3
4
1
14
15
5
38
33
15
54
47
26
26
29
13
3
4
1
31
29
21
11
13
5
23
34
16
11
19
7
10
15
6
21
27
15
13
19
7
21
30
13
2
2
1
9
12
5
23
30
11
40
41
20
11
12
6
8
14
5
9
16
5
30
42
16
8
16
4
5
7
3
19
24
13
13
17
8
22
27
17
11
15
7
16
20
13
5
6
3
12
16
8
11
15
6
15
20
10
15
20
12
7
11
4
21
28
16
3
4
1
10
14
7
0
0
0
14
23
10
16
26
10
2
3
1
67
72
42
15
20
6
20
25
15
13
20
9
29
38
20
42
50
22
42
55
23
95
79
45
77
70
40
86
75
46
112
87
66
143
93
80
132
86
74
129
86
68
116
78
67
132
83
70
106
76
61
10
16
4
37
49
18
27
31
17
25
31
17
26
31
14
66
67
38
76
75
45
77
66
46
146
114
90
38
54
17
16
22
14
51
57
34
33
38
17
33
39
15
32
43
17
2
3
1
3
4
3
4
6
3
15
27
9
35
57
23
11
18
7
16
28
9
36
61
23
19
29
12
90
71
57
85
76
54
55
69
31
25
34
16
8
7
2
54
49
33
30
45
21
5
12
2
46
46
35
64
58
30
47
47
20
16
26
13
15
29
12
18
43
16
2
9
1
8
7
1
89
58
28
77
50
30
23
11
4
30
31
17
6
7
2
16
18
11
6
12
3
34
48
22
22
32
15
33
38
19
33
32
14
8
12
3
26
44
18
13
17
11
15
22
12
12
20
10
7
13
6
42
59
25
3
12
1
4
7
3
5
8
4
6
21
4
24
40
10
144
100
56
177
130
73
53
60
14
23
27
11
13
13
1
18
20
6
27
30
8
71
76
28
45
57
13
17
30
5
56
74
23
87
79
44
40
73
18
75
80
33
51
44
15
44
62
22
29
41
12
6
7
2
17
25
10
14
30
9
30
42
16
37
40
15
86
81
40
69
67
39
30
50
14
28
58
15
4
9
2
19
27
12
5
13
1
63
93
35
59
83
23
70
67
31
57
56
27
38
51
25
49
50
18
74
73
31
39
43
22
8
9
3
3
3
1
12
15
7
30
45
18
40
50
21
53
50
21
45
43
16
36
45
18
40
44
16
114
84
26
115
84
22
93
88
26
62
78
21
28
38
8
69
63
19
112
98
30
70
74
16
21
45
9
34
43
12
53
65
16
37
52
15
27
39
16
41
40
11
62
68
15
52
75
16
24
44
9
36
52
23
4
8
2
12
22
11
2
6
1
11
10
3
70
67
39
65
66
31
22
48
9
17
42
12
16
29
14
13
25
9
30
53
19
2
9
1
18
46
12
14
40
10
21
40
13
12
23
7
8
19
6
13
21
10
0
3
0
33
47
17
15
27
9
19
41
14
12
23
4
49
55
20
64
62
28
20
25
8
17
24
8
16
17
2
46
46
19
37
44
16
68
69
28
48
50
21
53
60
18
51
57
19
35
36
17
43
52
22
18
28
14
13
16
8
70
82
37
43
57
23
32
45
19
49
69
20
53
64
25
59
65
31
53
66
24
51
51
16
74
69
31
54
57
26
12
17
4
25
35
15
20
36
15
25
36
21
8
18
4
22
35
14
36
54
22
27
44
14
38
49
18
27
32
11
55
62
21
44
46
18
1
2
0
16
27
12
1
3
0
33
48
16
28
34
9
81
83
25
79
84
18
66
75
20
15
26
5
9
22
6
25
46
11
42
69
15
31
51
17
11
20
9
3
3
2
2
3
2
0
1
1
3
3
2
15
25
10
29
39
19
26
34
17
26
37
17
5
9
3
20
31
15
18
27
15
16
19
12
15
18
11
23
27
17
2
3
1
1
1
1
30
28
9
73
65
26
49
48
27
19
18
5
14
16
10
5
7
4
38
38
18
78
59
34
3
1
1
2
2
1
23
33
16
13
22
8
15
22
11
45
31
17
77
57
34
27
17
7
13
15
5
35
41
24
40
39
25
22
22
13
4
8
1
30
42
21
20
30
11
20
33
14
5
9
4
10
13
9
8
16
6
15
26
10
11
19
8
2
1
1
4
1
1
1
0
1
0
1
0
13
24
9
14
25
11
23
43
17
3
6
2
11
25
9
21
42
18
10
24
10
1
3
1
2
7
2
4
8
4
4
7
2
19
23
15
10
11
7
8
7
3
25
26
13
42
53
24
13
18
6
9
16
6
16
23
10
1
4
0
22
32
16
24
30
15
14
21
8
23
35
13
32
47
19
2
4
1
1
5
1
21
34
11
36
48
19
18
27
10
23
32
17
19
29
15
24
39
17
19
32
12
5
8
2
27
30
16
39
43
23
28
34
17
5
9
3
2
3
2
26
30
16
4
4
2
18
22
13
27
34
21
1
4
1
16
25
13
12
19
7
17
23
13
16
21
11
1
1
1
1
2
1
1
2
1
0
1
0
30
40
16
6
9
2
6
9
4
13
20
8
15
24
8
20
27
7
43
57
22
58
61
16
54
47
18
112
83
59
127
85
68
149
96
81
146
95
78
143
98
78
123
87
76
128
86
70
73
58
41
14
22
6
47
57
21
30
37
17
30
43
22
53
37
28
97
81
58
83
77
45
119
88
70
123
95
71
50
59
26
32
39
29
48
61
21
74
65
38
42
47
25
42
60
24
8
15
6
2
4
2
18
29
16
25
42
14
25
43
14
10
16
7
22
37
15
26
49
15
34
52
21
59
62
41
84
75
59
54
59
26
52
50
32
12
12
3
52
49
33
28
42
21
17
25
11
40
38
29
55
54
29
50
55
22
23
32
17
11
16
5
4
13
4
5
10
4
19
12
2
99
65
33
19
5
1
35
20
11
43
45
26
1
2
0
0
0
1
0
0
0
1
4
1
3
10
3
33
47
29
43
51
36
32
35
22
23
30
16
2
3
2
3
6
3
2
4
1
2
5
1
48
62
32
5
10
4
5
7
5
1
2
1
12
25
7
57
42
10
129
87
34
109
93
19
56
70
16
20
27
13
3
4
2
4
13
3
33
58
14
60
74
20
50
51
29
27
39
16
35
59
17
20
31
7
35
74
18
30
56
18
35
49
20
16
26
7
35
52
21
45
50
18
26
33
9
12
27
8
4
13
3
4
15
2
20
37
14
25
37
16
5
18
2
23
48
16
0
6
0
30
45
23
0
8
0
19
61
10
33
67
17
47
58
21
18
31
6
43
57
22
64
80
22
49
73
19
15
23
8
21
23
15
23
25
17
6
10
4
28
37
17
32
37
18
90
77
39
94
79
39
93
81
36
109
86
32
122
93
34
47
63
11
39
71
16
39
66
14
68
77
26
115
89
31
79
80
18
78
86
29
38
52
18
45
46
18
46
51
11
25
39
15
39
57
28
3
11
2
55
69
19
32
43
8
34
57
21
31
57
16
13
26
5
8
14
7
12
20
5
68
64
37
40
35
18
1
4
0
20
45
14
5
21
3
5
9
4
7
16
6
25
40
17
3
8
1
18
35
13
15
34
10
14
29
9
2
5
1
14
22
12
1
1
0
0
1
0
51
61
25
19
29
10
28
50
20
17
33
11
25
41
12
42
51
21
43
50
22
87
82
36
101
86
38
73
65
28
48
54
17
38
42
13
5
7
1
51
51
16
30
32
8
1
1
0
17
31
5
30
42
12
8
15
3
67
82
40
30
40
15
17
30
10
26
42
14
4
10
3
5
6
1
81
60
26
101
77
38
32
39
11
33
53
21
34
50
23
34
50
25
18
30
13
0
2
1
3
8
2
29
45
19
32
50
18
28
48
23
12
23
7
5
7
1
19
24
9
2
4
1
13
23
8
22
35
15
1
2
0
21
32
15
39
48
12
70
82
21
48
61
15
37
48
13
33
50
19
36
53
22
34
52
20
24
41
11
7
17
4
3
4
3
20
28
15
17
26
13
0
2
1
1
3
1
25
37
18
5
12
3
12
20
10
12
21
10
3
5
1
7
15
5
7
13
6
18
16
10
38
28
15
40
42
22
20
27
15
14
19
11
4
4
1
52
46
21
31
30
10
80
68
29
47
39
12
1
2
1
5
1
0
70
52
36
14
12
8
6
7
5
2
5
1
4
6
2
12
16
8
14
14
8
24
17
7
70
52
35
56
41
23
38
39
26
55
45
35
51
45
32
9
11
6
9
15
7
13
21
10
2
5
1
1
1
1
1
1
1
12
17
11
0
2
0
0
0
1
3
1
1
19
10
9
1
0
1
0
1
0
14
23
12
10
17
8
18
35
15
2
5
2
18
40
14
16
38
11
10
24
10
0
2
0
14
27
13
2
3
1
15
10
6
10
11
5
3
3
2
2
2
1
31
26
16
41
39
15
24
27
14
22
27
14
31
40
21
18
24
8
26
30
13
18
24
13
21
27
14
16
26
11
31
46
24
18
25
15
11
16
9
19
29
11
39
46
21
24
30
12
20
26
14
19
24
13
24
28
13
43
54
27
22
27
14
15
18
7
20
23
10
25
30
14
32
35
19
4
4
2
44
43
24
21
18
9
41
42
29
12
14
5
2
3
1
13
21
10
1
1
1
1
2
1
1
1
1
3
6
3
2
2
1
1
1
1
0
1
0
29
36
22
1
2
1
1
2
1
9
15
7
13
18
9
15
12
3
74
56
30
116
88
45
125
91
53
134
93
64
138
97
72
131
87
68
117
80
68
119
82
68
120
78
66
143
91
77
117
79
57
32
29
14
70
68
38
39
42
21
18
28
14
48
43
27
59
66
30
68
60
32
140
102
85
84
73
50
24
26
10
15
21
12
34
55
14
66
63
32
43
37
21
48
62
21
29
36
18
3
7
2
25
41
19
34
54
23
5
17
2
22
33
19
16
35
7
40
57
21
30
38
22
46
45
34
104
81
71
65
56
31
35
34
20
40
57
14
49
58
23
21
29
19
9
12
6
56
47
37
41
45
24
19
26
10
14
15
6
74
73
47
5
13
3
10
16
8
54
39
20
103
62
30
45
26
14
73
45
29
14
5
1
1
1
0
0
0
0
0
0
0
0
0
0
0
0
0
0
1
0
2
3
1
60
54
34
62
56
34
30
26
11
20
22
12
1
1
1
2
5
1
53
65
30
0
1
0
0
1
0
13
20
10
14
28
12
84
61
24
111
87
25
60
84
12
48
81
20
25
38
15
7
13
5
13
27
6
45
67
21
7
13
2
9
7
1
36
45
17
30
44
14
10
28
5
29
69
18
31
56
18
13
29
5
4
4
2
24
39
10
58
71
16
55
64
20
77
76
24
54
45
15
85
67
28
101
87
30
92
82
28
85
81
39
68
76
38
63
70
34
59
67
26
24
27
9
18
58
12
24
58
16
68
73
34
40
46
11
72
80
23
64
87
15
40
60
12
37
44
19
25
26
19
3
4
2
7
11
4
26
35
18
24
36
13
43
71
19
32
64
17
58
70
30
59
48
11
113
92
33
78
67
22
78
79
28
45
53
15
31
54
12
42
60
16
43
68
18
31
53
14
36
55
23
48
50
13
60
71
16
29
53
15
21
41
9
16
31
9
24
47
16
10
21
6
14
28
10
21
40
9
37
60
24
42
56
18
68
72
30
45
45
16
56
53
25
47
52
23
34
55
16
20
36
14
29
36
19
39
47
18
17
27
8
11
23
9
6
14
5
13
23
11
2
8
2
1
2
1
1
1
1
0
1
1
0
1
0
42
55
23
19
29
12
21
39
12
41
64
21
48
60
23
89
79
41
74
69
31
33
37
17
15
20
6
10
13
3
46
54
24
8
9
1
22
22
8
45
46
21
25
25
10
17
18
7
50
56
22
49
55
18
41
52
20
45
59
28
4
7
4
1
2
1
2
2
2
10
9
3
85
53
21
115
72
32
29
16
4
4
13
2
29
46
23
7
16
5
7
17
3
23
35
17
1
4
1
4
10
3
21
37
15
30
47
18
18
32
11
9
15
6
3
4
1
28
32
20
3
6
1
12
21
10
1
2
0
1
2
0
15
29
11
46
62
24
27
37
8
9
17
3
38
51
24
11
18
5
2
6
0
29
41
16
10
21
7
17
32
11
5
14
3
8
14
5
5
12
4
1
2
1
4
6
3
23
33
15
5
10
3
14
20
10
42
37
21
45
45
24
10
18
8
3
5
2
2
1
1
23
18
8
37
42
25
20
28
15
8
11
5
2
2
2
16
16
6
54
46
23
67
59
22
70
60
26
4
4
1
3
1
0
58
42
29
7
4
3
1
1
1
2
4
2
12
16
11
3
5
3
23
27
16
2
3
1
4
2
1
74
53
28
64
47
26
5
2
0
39
40
25
12
14
5
3
5
3
16
25
13
12
18
10
0
1
1
0
0
0
2
4
2
0
1
0
0
0
0
0
0
0
1
1
1
0
1
1
0
0
0
10
16
9
10
15
9
22
39
19
0
4
0
14
36
13
8
24
7
9
21
8
0
1
1
2
4
1
2
1
1
26
16
10
36
29
17
10
8
4
1
2
1
9
8
1
55
63
21
25
34
14
7
11
5
10
16
6
38
47
23
31
37
17
26
33
17
2
3
1
3
5
2
12
19
10
5
7
5
1
1
0
14
22
8
24
33
17
1
2
1
2
2
1
3
4
1
19
24
11
37
50
22
23
35
12
9
14
7
14
15
10
8
9
6
6
7
4
2
2
1
5
6
2
10
10
5
57
58
32
36
39
17
13
14
8
14
16
10
18
20
13
1
2
1
1
1
1
4
5
3
6
7
2
28
31
20
24
27
18
26
32
18
11
16
8
1
2
1
30
36
22
22
25
11
58
51
28
46
34
18
28
30
9
53
60
34
43
40
25
70
57
43
104
77
67
92
66
57
97
70
60
113
77
69
127
91
82
109
83
64
44
46
29
67
58
42
36
35
23
14
19
12
61
53
40
50
67
20
88
79
47
126
92
74
99
81
57
27
28
13
2
6
1
32
56
20
40
41
20
68
52
40
52
69
22
29
42
22
10
18
7
27
43
22
40
66
23
6
14
2
3
7
1
27
44
14
41
58
18
31
34
20
53
50
41
96
75
69
114
84
66
9
15
1
63
85
15
59
65
18
63
52
40
5
4
3
72
64
56
50
55
29
32
42
21
18
23
10
45
55
26
2
6
1
2
3
2
22
12
4
42
25
13
14
6
2
77
49
30
72
51
27
33
24
14
0
0
0
0
0
0
0
0
0
0
0
1
0
1
0
3
0
0
35
18
10
53
53
29
34
35
20
13
15
7
7
9
5
4
7
2
31
40
17
29
23
14
2
3
1
14
22
11
16
32
13
57
53
18
67
80
16
31
65
11
28
61
15
14
36
11
8
19
5
29
49
15
55
68
16
36
32
19
61
55
27
45
54
18
33
48
18
24
44
9
37
67
14
44
70
17
50
66
20
49
43
26
83
69
31
97
92
26
59
63
23
103
73
23
78
60
21
86
72
34
93
79
27
74
67
25
74
74
33
36
38
9
31
34
8
75
77
24
56
61
25
40
70
21
43
66
21
85
68
31
68
63
22
56
71
13
51
79
19
39
53
15
63
63
22
36
33
15
30
29
19
20
21
11
16
26
12
32
56
17
40
73
16
63
71
27
27
33
14
45
49
24
61
70
21
24
41
14
59
68
20
54
55
18
59
69
20
53
62
15
48
64
17
65
71
23
62
61
19
45
59
12
45
75
12
30
66
13
29
58
19
32
53
19
13
27
10
4
11
4
13
31
8
16
30
13
6
15
2
39
54
18
52
66
21
38
48
18
26
27
8
15
21
4
15
26
6
1
4
1
15
28
8
22
33
9
7
13
3
18
29
13
11
19
7
9
18
8
22
32
15
2
3
1
9
16
8
18
27
16
13
24
9
43
57
20
17
20
10
26
41
9
49
67
18
75
67
35
41
35
15
25
29
12
2
3
0
30
37
17
29
33
13
50
46
24
58
52
24
67
62
23
66
62
26
50
47
24
27
32
15
33
38
21
7
8
4
41
55
29
8
17
3
2
5
2
11
24
9
6
6
1
76
49
20
88
53
20
20
8
0
2
4
2
15
25
11
5
12
3
4
6
4
0
1
1
8
15
7
10
20
8
10
21
8
21
38
17
1
6
1
2
3
1
1
4
2
28
29
20
3
4
2
22
30
16
9
14
4
1
2
1
3
10
2
26
42
18
10
21
6
6
12
4
11
20
5
36
52
14
47
61
19
31
40
13
44
57
23
30
49
13
18
40
8
14
30
9
22
34
12
23
33
14
0
2
1
2
3
2
13
23
10
13
20
10
10
18
8
26
34
15
39
43
23
4
5
3
3
3
2
2
3
2
27
31
17
27
31
17
4
7
2
14
18
11
12
17
8
31
36
18
39
37
16
33
38
15
44
47
16
18
27
13
2
1
1
27
20
14
1
0
0
0
0
0
4
5
3
0
1
0
3
4
2
11
17
8
2
5
2
1
1
1
2
1
1
74
56
30
51
40
19
13
18
7
9
12
4
6
9
4
16
25
13
30
39
23
1
1
0
1
0
1
5
6
4
0
1
0
0
0
0
0
0
0
20
25
12
1
2
1
0
0
0
2
4
2
2
3
2
14
27
12
0
5
0
15
34
13
5
14
4
0
1
0
1
4
1
9
17
8
2
2
1
11
10
3
43
38
22
28
23
14
4
6
2
6
9
3
59
62
23
29
32
12
16
22
12
6
9
3
23
27
14
5
9
3
36
51
24
4
6
3
0
0
0
1
1
1
1
1
0
3
4
3
3
7
2
20
29
16
21
29
17
5
9
4
7
14
7
9
18
8
27
41
17
13
25
6
2
3
1
1
1
1
3
4
2
1
1
1
1
1
1
28
31
18
39
42
26
57
62
32
33
38
13
1
1
1
1
2
1
14
16
9
22
28
17
13
19
8
32
40
20
50
54
32
27
29
19
1
1
2
3
4
2
4
5
3
1
3
1
3
5
1
2
3
0
40
46
21
3
4
1
29
36
18
42
49
25
76
66
43
61
54
35
99
74
63
96
67
57
98
74
62
121
88
80
103
80
65
56
56
33
26
40
19
51
59
27
35
46
18
9
14
6
58
65
36
41
61
16
63
69
32
107
87
69
76
74
49
30
43
21
1
6
0
32
51
22
31
39
20
83
66
41
57
70
22
22
35
14
35
56
23
18
30
12
45
63
24
21
31
15
18
27
13
34
45
16
59
68
24
69
71
45
55
57
38
60
59
39
94
74
56
23
35
5
66
96
16
43
53
8
42
36
26
19
17
11
76
70
51
44
43
20
24
20
2
16
15
3
33
50
25
6
19
4
1
2
2
40
24
11
83
56
32
7
2
1
56
31
14
118
84
47
58
41
20
0
0
0
0
0
0
0
0
0
1
1
1
2
1
1
7
2
0
45
29
10
76
79
33
20
22
7
3
3
1
1
2
1
8
16
4
39
47
21
49
37
20
1
1
1
0
3
0
17
36
11
38
52
15
48
73
15
36
64
14
37
63
15
24
48
19
22
42
14
24
37
7
60
70
19
23
23
13
20
20
8
11
20
4
35
54
16
33
53
11
36
61
14
48
74
23
49
72
21
36
41
17
30
33
7
45
61
16
35
42
9
99
75
24
58
50
13
10
19
5
21
29
6
71
65
31
106
96
45
96
88
36
83
87
40
42
53
18
40
46
28
25
56
13
63
79
23
90
75
31
38
44
10
74
80
18
44
77
10
44
70
18
45
53
14
18
22
9
3
5
1
29
38
15
27
43
17
38
68
20
56
64
21
97
81
37
30
37
13
19
29
7
50
70
26
23
45
12
40
69
19
8
22
5
22
40
13
30
56
16
23
51
11
38
51
13
71
76
19
67
77
17
43
66
19
11
28
5
32
50
11
44
71
18
26
52
17
12
25
7
19
34
13
11
21
7
40
52
25
7
16
3
16
31
8
24
41
16
21
33
15
28
40
18
5
13
4
1
3
1
2
7
1
1
4
1
5
10
5
0
2
1
0
2
1
8
15
5
35
50
21
12
23
8
2
6
1
2
3
1
6
16
1
55
71
26
26
45
12
44
73
18
56
64
21
45
48
19
4
5
2
1
2
1
0
2
1
16
31
10
18
30
10
33
29
12
49
47
21
22
25
11
19
27
11
37
48
23
28
37
14
18
22
9
6
10
3
49
65
30
8
6
0
17
15
5
25
36
14
67
47
16
81
55
20
23
16
4
1
2
1
1
5
2
22
33
17
2
4
1
5
7
5
1
1
2
1
2
1
10
21
9
10
21
7
11
21
8
9
16
6
8
13
6
1
1
1
0
2
1
1
1
1
12
16
8
2
3
2
1
2
1
24
42
19
3
9
2
2
2
1
13
19
8
21
34
13
21
36
11
24
37
13
18
29
9
19
31
10
25
40
18
14
26
11
5
13
5
39
55
17
19
29
12
1
2
1
1
2
1
17
27
11
6
13
3
10
21
9
10
21
8
11
18
7
21
26
17
5
7
2
37
38
20
6
8
4
2
2
1
12
19
9
17
25
13
28
33
20
36
41
23
10
16
7
25
35
17
23
30
12
21
30
15
2
3
2
1
1
0
1
0
0
0
0
0
4
4
3
1
1
0
17
22
12
4
8
2
9
13
5
0
1
0
0
1
1
10
4
1
70
60
32
6
6
0
7
9
6
3
4
2
4
6
2
31
40
24
0
2
0
0
0
0
6
8
3
11
13
8
1
1
1
0
1
1
28
31
15
14
16
7
0
0
0
0
0
0
0
0
0
13
25
11
1
4
1
8
18
8
15
25
14
0
1
0
6
10
5
7
13
6
6
6
4
7
6
1
53
48
23
27
25
12
6
10
6
12
16
9
30
31
14
37
38
19
43
49
24
4
9
2
26
32
18
2
4
0
30
47
21
0
3
0
2
2
2
0
1
1
0
0
0
0
0
0
0
1
0
2
3
2
1
1
0
10
15
9
1
3
1
0
1
0
7
17
5
5
13
4
0
0
0
0
1
1
3
3
2
1
1
0
3
4
2
27
31
22
2
3
0
17
23
13
3
5
1
1
1
1
0
1
1
0
0
0
1
1
1
16
18
8
65
66
38
7
8
1
1
1
1
0
0
0
14
16
11
2
4
1
31
41
22
2
4
1
2
2
0
81
88
37
5
7
1
27
33
17
31
37
19
59
53
38
69
61
47
101
75
66
101
72
65
98
77
65
86
76
59
79
77
49
52
54
28
22
36
16
22
44
15
32
51
21
2
8
1
29
48
21
28
39
15
44
48
28
84
72
62
51
60
35
29
61
23
8
16
7
16
24
14
25
35
17
71
68
30
59
65
22
16
15
4
34
58
23
23
39
14
41
57
21
11
18
7
10
19
6
36
53
23
31
42
13
68
60
38
106
84
57
79
70
39
102
80
59
48
51
26
54
91
18
35
49
10
59
48
25
35
29
10
66
57
30
75
61
30
111
100
49
78
79
35
13
31
10
19
37
17
0
1
1
12
5
2
34
20
12
29
16
12
101
66
45
20
5
1
37
25
19
6
1
1
0
0
0
0
1
1
2
2
0
42
32
17
11
6
2
39
37
13
64
68
27
82
62
35
59
43
25
1
2
0
21
34
10
60
64
27
56
45
25
1
0
0
16
15
9
10
25
6
20
41
8
52
67
20
41
62
17
34
64
12
3
14
2
31
60
21
31
53
14
56
66
15
19
21
10
5
5
2
5
11
3
57
76
32
54
63
28
35
49
19
28
59
18
40
69
13
65
75
26
43
45
10
36
53
19
38
46
17
50
58
19
42
53
14
51
55
8
124
107
43
85
76
29
40
47
18
7
12
3
24
35
9
38
61
19
10
19
5
26
53
13
44
75
13
30
42
12
33
50
21
64
78
15
43
84
7
29
60
10
23
43
14
32
43
20
30
41
16
49
67
19
27
50
13
37
67
21
26
34
14
25
29
8
46
65
29
35
51
19
53
75
22
32
57
13
44
66
15
29
35
6
63
62
23
67
76
24
50
67
15
52
54
16
48
66
16
40
64
18
29
40
13
50
58
24
63
65
19
28
38
7
5
16
3
18
33
10
35
49
24
30
40
18
17
25
8
7
12
5
12
20
9
2
3
1
26
33
18
8
18
3
16
29
14
6
16
5
12
24
11
1
3
1
5
10
4
0
2
1
0
2
1
2
3
1
19
30
16
4
12
2
18
32
14
14
25
10
32
43
13
57
71
23
39
68
14
35
63
15
23
36
14
30
46
18
27
35
18
8
11
3
1
1
1
13
25
7
23
37
17
28
26
12
34
32
10
22
30
12
27
39
18
2
7
1
1
3
0
1
3
1
5
13
2
57
68
24
110
92
47
48
39
21
66
47
21
57
46
17
22
32
16
7
15
4
2
5
1
3
7
2
13
19
11
1
2
1
1
2
1
6
7
2
38
42
20
31
44
20
14
25
10
7
15
5
11
20
8
1
1
1
0
1
1
1
2
1
1
1
1
1
1
1
1
1
1
3
6
2
12
22
10
2
3
2
1
1
1
1
1
1
5
12
4
14
26
10
15
26
7
13
24
6
21
30
14
17
30
14
8
18
6
1
3
1
38
55
18
31
45
14
1
2
1
4
5
3
42
45
21
45
47
25
4
10
1
15
25
12
22
33
16
4
7
2
24
27
15
17
20
10
1
1
1
1
2
2
14
24
8
19
28
13
2
3
1
30
30
16
24
25
12
31
36
18
9
13
4
5
7
4
3
4
2
0
0
0
0
0
0
0
0
0
2
2
1
1
1
0
7
14
4
13
20
8
5
7
3
0
1
1
3
5
4
2
3
2
38
35
18
47
47
24
1
1
1
1
1
1
3
5
3
29
43
21
15
24
10
0
1
0
34
40
28
1
3
0
0
1
1
1
1
1
15
17
7
31
32
17
0
0
0
0
0
0
0
0
0
5
10
4
2
4
1
5
10
4
1
2
1
0
1
0
11
16
10
1
1
0
1
0
1
1
1
0
43
43
18
5
6
3
1
2
1
15
18
5
56
60
24
34
39
16
22
28
12
7
11
5
8
11
5
36
31
18
28
40
21
20
26
15
1
1
1
4
9
4
4
7
4
0
0
0
1
0
1
0
0
1
0
0
0
1
3
1
0
1
0
0
0
0
0
0
0
0
0
0
8
12
8
3
7
2
8
18
6
1
1
1
0
1
0
1
1
0
1
2
1
1
2
1
1
1
0
2
5
2
10
16
7
1
1
1
6
7
5
5
6
5
21
22
13
10
12
7
1
0
0
1
0
1
1
1
1
20
26
14
16
24
10
1
1
1
1
2
0
66
78
32
4
8
1
12
14
9
5
7
4
3
4
1
52
50
35
59
50
36
110
82
75
89
69
56
74
60
43
67
60
40
76
61
48
42
36
30
17
27
13
8
16
5
2
3
1
13
21
10
10
20
4
32
42
20
64
61
47
50
54
22
45
63
18
7
7
1
31
44
21
35
47
19
74
65
28
95
79
41
95
76
49
100
91
40
48
47
18
28
38
18
4
8
2
23
35
17
52
69
20
47
62
18
42
50
29
27
34
17
15
21
5
68
65
30
31
35
11
42
71
14
78
69
25
116
92
42
86
74
34
77
62
28
20
19
7
12
25
6
20
38
14
6
13
4
9
17
7
1
3
1
31
15
6
57
34
17
23
13
9
38
22
13
45
32
21
34
22
15
4
1
1
1
1
0
1
2
0
31
33
17
40
36
20
9
6
1
63
64
27
31
45
15
28
24
12
16
15
5
13
16
5
29
47
14
52
59
25
46
37
19
10
3
0
26
24
18
18
31
13
30
52
12
46
58
17
33
49
11
37
60
15
3
4
1
3
12
1
49
71
18
65
74
16
6
6
1
40
38
22
34
42
15
38
75
19
24
50
11
27
41
16
26
53
12
41
70
15
48
58
11
100
90
44
98
83
36
85
72
28
41
47
11
64
62
16
109
96
37
47
42
8
18
29
9
19
31
12
10
17
7
7
12
5
22
40
10
35
53
18
25
46
12
30
58
12
13
21
5
45
54
13
46
73
11
40
83
11
25
50
10
29
56
15
26
39
15
35
54
16
63
88
19
68
78
22
55
56
16
46
46
19
30
31
13
10
15
3
35
46
17
42
61
17
46
73
18
66
67
14
79
70
22
60
59
18
35
54
9
33
59
11
16
27
10
26
45
19
17
36
10
4
12
3
22
25
5
75
68
20
27
36
10
26
37
20
25
44
14
32
55
18
32
51
18
23
37
14
20
33
13
19
31
16
1
3
1
22
33
15
8
17
6
10
18
5
32
40
14
27
42
11
29
45
14
31
48
16
22
38
12
9
18
5
27
40
18
22
32
16
47
45
19
45
48
26
15
24
12
37
50
19
46
60
24
45
70
23
4
18
1
9
15
7
3
7
2
10
16
5
36
40
25
38
40
24
18
33
9
15
30
11
1
2
1
10
15
4
30
40
15
33
44
16
37
46
15
34
43
14
23
33
13
17
33
8
38
64
18
24
26
3
26
22
7
33
24
6
3
3
1
3
8
2
7
14
5
28
37
20
34
44
25
13
16
6
36
34
17
55
56
30
59
61
35
11
12
3
14
19
11
8
10
7
1
1
1
11
15
7
15
19
10
1
2
1
1
1
1
1
1
0
1
1
1
1
1
1
1
2
1
1
2
1
1
1
1
1
1
1
1
1
1
2
5
2
1
3
1
1
1
0
0
1
0
0
1
0
2
7
3
9
16
7
2
2
2
14
19
7
42
57
22
11
15
7
16
19
11
37
41
25
33
39
20
25
34
13
22
35
15
19
29
16
5
8
4
34
39
20
3
4
2
3
3
5
2
4
3
19
25
14
14
18
10
12
13
8
37
37
20
53
52
26
52
55
22
26
28
10
10
14
9
8
11
7
1
1
1
5
5
4
3
3
2
10
12
7
5
13
3
34
52
22
20
29
15
2
2
2
8
13
8
6
10
5
9
11
7
15
17
7
47
51
28
2
3
1
1
1
1
1
2
2
12
21
7
28
41
17
2
2
2
8
11
7
3
4
2
1
1
2
1
1
1
10
9
4
29
28
14
15
16
9
9
10
5
1
0
1
1
1
1
1
1
1
1
1
1
1
1
1
1
1
1
3
4
2
3
2
1
43
35
21
11
9
6
42
40
18
17
19
13
6
7
5
32
33
15
64
66
22
37
40
17
16
20
12
15
18
12
11
12
8
34
29
19
15
18
10
12
15
9
1
2
2
1
1
1
1
1
1
1
1
1
1
1
1
1
1
1
1
1
1
1
1
1
3
5
2
14
19
13
2
2
1
8
9
7
23
28
21
7
17
4
22
36
16
2
1
1
2
2
1
15
22
13
12
19
9
4
5
4
14
18
10
28
39
20
7
13
5
1
1
1
1
1
1
0
1
0
2
3
2
16
20
13
4
6
3
1
1
2
1
1
2
7
10
5
2
1
1
1
1
1
1
2
1
40
53
23
4
6
4
5
6
4
24
30
19
33
37
24
48
53
32
58
56
35
99
77
62
83
62
50
108
76
63
57
52
36
50
47
32
16
21
14
13
21
11
9
12
7
12
14
9
8
9
5
17
25
11
35
46
24
52
50
35
82
73
44
91
81
43
88
72
42
69
68
31
31
42
20
55
64
33
39
47
25
15
20
15
39
66
24
74
77
30
74
69
31
24
35
16
42
61
28
53
68
20
50
65
23
23
35
20
61
68
29
58
62
30
29
38
21
22
31
14
88
90
30
76
75
26
41
54
20
88
88
33
72
72
27
27
34
13
29
42
19
26
39
20
10
14
7
22
28
18
13
19
13
57
36
18
80
50
25
16
12
8
8
7
4
65
52
25
34
25
9
15
10
6
26
18
11
27
27
17
24
29
13
25
29
16
27
25
10
88
77
25
81
78
28
37
41
20
20
22
10
34
38
15
49
63
29
5
8
3
53
42
20
24
17
7
12
12
8
14
24
8
84
68
22
110
68
28
93
65
23
90
75
26
32
30
14
29
29
17
26
30
9
91
83
24
65
59
23
10
11
8
33
51
18
41
78
20
20
39
14
8
15
6
34
60
18
38
68
15
33
49
21
22
34
13
65
69
24
95
79
25
124
101
41
99
79
24
113
90
39
82
72
28
55
59
26
14
22
12
31
47
19
15
22
11
6
9
6
36
58
18
39
68
17
23
40
12
21
27
9
62
74
20
36
67
15
40
76
22
19
34
12
30
49
21
13
19
11
45
67
18
69
89
18
89
78
30
35
33
18
18
22
15
36
39
22
57
61
28
33
41
17
50
69
23
43
68
19
33
50
15
33
51
13
36
55
19
28
49
13
35
57
14
26
37
16
29
46
16
25
43
16
8
13
6
49
43
16
64
57
20
39
53
24
23
34
15
36
58
20
33
56
16
22
33
13
23
34
13
10
16
7
5
9
5
4
8
3
32
47
19
18
25
10
50
53
22
41
45
19
28
41
16
16
25
9
10
16
6
33
39
22
15
22
10
25
34
17
91
72
36
99
81
41
11
9
5
5
6
4
49
59
22
54
71
23
28
45
14
4
5
3
2
3
3
2
3
2
2
2
2
3
3
3
26
28
14
40
58
21
14
23
8
37
49
23
19
26
11
23
29
12
2
3
2
2
2
2
3
4
4
23
27
16
26
40
18
42
65
21
52
63
23
56
56
22
20
17
4
2
1
2
1
1
1
1
2
2
2
2
2
27
25
12
81
74
40
79
73
40
42
45
26
25
30
18
4
3
3
6
6
5
2
2
2
1
2
1
2
2
1
9
11
6
1
1
1
1
1
1
1
1
1
1
1
1
1
2
1
1
1
1
1
1
1
1
1
1
1
1
1
1
1
1
1
2
1
1
2
1
10
11
9
12
17
10
5
9
4
1
2
2
1
2
1
1
1
0
